P2
200 200
255
255 255 255 255 255 255 255 255 255 255 255 255 255 255 255 255 255 
255 255 255 255 255 255 255 255 255 255 255 255 255 255 255 255 
255 255 255 255 255 255 255 255 255 255 255 255 255 255 255 255 
255 255 255 255 255 255 255 255 255 255 255 255 255 255 255 255 
255 255 255 255 255 255 255 255 255 255 255 255 255 255 255 255 
255 255 255 255 255 255 255 255 255 255 255 255 255 255 255 255 
255 255 255 255 255 255 255 255 255 255 255 255 255 255 255 255 
255 255 255 255 255 255 255 255 255 255 255 255 255 255 255 255 
255 255 255 255 255 255 255 255 255 255 255 255 255 255 255 255 
255 255 255 255 255 255 255 255 255 255 255 255 255 255 255 255 
255 255 255 255 255 255 255 255 255 255 255 255 255 255 255 255 
255 255 255 255 255 255 255 255 255 255 255 255 255 255 255 255 
255 255 255 255 255 255 255 255 255 255 255 255 255 255 255 255 255 255 255 255 255 255 255 255 
255 255 255 255 255 255 255 255 255 255 255 255 255 255 255 255 
255 255 255 255 255 255 255 255 255 255 255 255 255 255 255 255 
255 255 255 255 255 255 255 255 255 255 255 255 255 255 255 255 
255 255 255 255 255 255 255 255 255 255 255 255 255 255 255 255 
255 255 255 255 255 255 255 255 255 255 255 255 255 255 255 255 
255 255 255 255 255 255 255 255 255 255 255 255 255 255 255 255 
255 255 255 255 255 255 255 255 255 255 255 255 255 255 255 255 
255 255 255 255 255 255 255 255 255 255 255 255 255 255 255 255 
255 255 255 255 255 255 255 255 255 255 255 255 255 255 255 255 
255 255 255 255 255 255 255 255 255 255 255 255 255 255 255 255 
255 255 255 255 255 255 255 255 255 255 255 255 255 255 255 255 
255 255 255 255 255 255 255 255 255 255 255 255 255 255 255 255 255 255 255 255 255 255 255 255 
255 255 255 255 255 255 255 255 255 255 255 255 255 255 255 255 
255 255 255 255 255 255 255 255 255 255 255 255 255 255 255 255 
255 255 255 255 255 255 255 255 255 255 255 255 255 255 255 255 
255 255 255 255 255 255 255 255 255 255 255 255 255 255 255 255 
255 255 255 255 255 255 255 255 255 255 255 255 255 255 255 255 
255 255 255 255 255 255 255 255 255 255 255 255 255 255 255 255 
255 255 255 255 255 255 255 255 255 255 255 255 255 255 255 255 
255 255 255 255 255 255 255 255 255 255 255 255 255 255 255 255 
255 255 255 255 255 255 255 255 255 255 255 255 255 255 255 255 
255 255 255 255 255 255 255 255 255 255 255 255 255 255 255 255 
255 255 255 255 255 255 255 255 255 255 255 255 255 255 255 255 
255 255 255 255 255 255 255 255 255 255 255 255 255 255 255 255 255 255 255 255 255 255 255 255 
255 255 255 255 255 255 255 255 255 255 255 255 255 255 255 255 
255 255 255 255 255 255 255 255 255 255 255 255 255 255 255 255 
255 255 255 255 255 255 255 255 255 255 255 255 255 255 255 255 
255 255 255 255 255 255 255 255 255 255 255 255 255 255 255 255 
255 255 255 255 255 255 255 255 255 255 255 255 255 255 255 255 
255 255 255 255 255 255 255 255 255 255 255 255 255 255 255 255 
255 255 255 255 255 255 255 255 255 255 255 255 255 255 255 255 
255 255 255 255 255 255 255 255 255 255 255 255 255 255 255 255 
255 255 255 255 255 255 255 255 255 255 255 255 255 255 255 255 
255 255 255 255 255 255 255 255 255 255 255 255 255 255 255 255 
255 255 255 255 255 255 255 255 255 255 255 255 255 255 255 255 
255 255 255 255 255 255 255 255 255 255 255 255 255 255 255 255 255 255 255 255 255 255 255 255 
255 255 255 255 255 255 255 255 255 255 255 255 255 255 255 255 
255 255 255 255 255 255 255 255 255 255 255 255 255 255 255 255 
255 255 255 255 255 255 255 255 255 255 255 255 255 255 255 255 
255 255 255 255 255 255 255 255 255 255 255 255 255 255 255 255 
255 255 255 255 255 255 255 255 255 255 255 255 255 255 255 255 
255 255 255 255 255 255 255 255 255 255 255 255 255 255 255 255 
255 255 255 255 255 255 255 255 255 255 255 255 255 255 255 255 
255 255 255 255 255 255 255 255 255 255 255 255 255 255 255 255 
255 255 255 255 255 255 255 255 255 255 255 255 255 255 255 255 
255 255 255 255 255 255 255 255 255 255 255 255 255 255 255 255 
255 255 255 255 255 255 255 255 255 255 255 255 255 255 255 255 
255 255 255 255 255 255 255 255 255 255 255 255 255 255 255 255 255 255 255 255 255 255 255 255 
255 255 255 255 255 255 255 255 255 255 255 255 255 255 255 255 
255 255 255 255 255 255 255 255 255 255 255 255 255 255 255 255 
255 255 255 255 255 255 255 255 255 255 255 255 255 255 255 255 
255 255 255 255 255 255 255 255 255 255 255 255 255 255 255 255 
255 255 255 255 255 255 255 255 255 255 255 255 255 255 255 255 
255 255 255 255 255 255 255 255 255 255 255 255 255 255 255 255 
255 255 255 255 255 255 255 255 255 255 255 255 255 255 255 255 
255 255 255 255 255 255 255 255 255 255 255 255 255 255 255 255 
255 255 255 255 255 255 255 255 255 255 255 255 255 255 255 255 
255 255 255 255 255 255 255 255 255 255 255 255 255 255 255 255 
255 255 255 255 255 255 255 255 255 255 255 255 255 255 255 255 
255 255 255 255 255 255 255 255 255 255 255 255 255 255 255 255 255 255 255 255 255 255 255 255 
255 255 255 255 255 255 255 255 255 255 255 255 255 255 255 255 
255 255 255 255 255 255 255 255 255 255 255 255 255 255 255 255 
255 255 255 255 255 255 255 255 255 255 255 255 255 255 255 255 
255 255 255 255 255 255 255 255 255 255 255 255 255 255 255 255 
255 255 255 255 255 255 255 255 255 255 255 255 255 255 255 255 
255 255 255 255 255 255 255 255 255 255 255 255 255 255 255 255 
255 255 255 255 255 255 255 255 255 255 255 255 255 255 255 255 
255 255 255 255 255 255 255 255 255 255 255 255 255 255 255 255 
255 255 255 255 255 255 255 255 255 255 255 255 255 255 255 255 
255 255 255 255 255 255 255 255 255 255 255 255 255 255 255 255 
255 255 255 255 255 255 255 255 255 255 255 255 255 255 255 255 
255 255 255 255 255 255 255 255 255 255 255 255 255 255 255 255 255 255 255 255 255 255 255 255 
255 255 255 255 255 255 255 255 255 255 255 255 255 255 255 255 
255 255 255 255 255 255 255 255 255 255 255 255 255 255 255 255 
255 255 255 255 255 255 255 255 255 255 255 255 255 255 255 255 
255 255 255 255 255 255 255 255 255 255 255 255 255 255 255 255 
255 255 255 255 255 255 255 255 255 255 255 255 255 255 255 255 
255 255 255 255 255 255 255 255 255 255 255 255 255 255 255 255 
255 255 255 255 255 255 255 255 255 255 255 255 255 255 255 255 
255 255 255 255 255 255 255 255 255 255 255 255 255 255 255 255 
255 255 255 255 255 255 255 255 255 255 255 255 255 255 255 255 
255 255 255 255 255 255 255 255 255 255 255 255 255 255 255 255 
255 255 255 255 255 255 255 255 255 255 255 255 255 255 255 255 
255 255 255 255 255 255 255 255 255 255 255 255 255 255 255 255 255 255 255 255 255 255 255 255 
255 255 255 255 255 255 255 255 255 255 255 255 255 255 255 255 
255 255 255 255 255 255 255 255 255 255 255 255 255 255 255 255 
255 255 255 255 255 255 255 255 255 255 255 255 255 255 255 255 
255 255 255 255 255 255 255 255 255 255 255 255 255 255 255 255 
255 255 255 255 255 255 255 255 255 255 255 255 255 255 255 255 
255 255 255 255 255 255 255 255 255 255 255 255 255 255 255 255 
255 255 255 255 255 255 255 255 255 255 255 255 255 255 255 255 
255 255 255 255 255 255 255 255 255 255 255 255 255 255 255 255 
255 255 255 255 255 255 255 255 255 255 255 255 255 255 255 255 
255 255 255 255 255 255 255 255 255 255 255 255 255 255 255 255 
255 255 255 255 255 255 255 255 255 255 255 255 255 255 255 255 
255 255 255 255 255 255 255 255 255 255 255 255 255 255 255 255 255 255 255 255 255 255 255 255 
255 255 255 255 255 255 255 255 255 255 255 255 255 255 255 255 
255 255 255 255 255 255 255 255 255 255 255 255 255 255 255 255 
255 255 255 255 255 255 255 255 255 255 255 255 255 255 255 255 
255 255 255 255 255 255 255 255 255 255 255 255 255 255 255 255 
255 255 255 255 255 255 255 255 255 255 255 255 255 255 255 255 
255 255 255 255 255 255 255 255 255 255 255 255 255 255 255 255 
255 255 255 255 255 255 255 255 255 255 255 255 255 255 255 255 
255 255 255 255 255 255 255 255 255 255 255 255 255 255 255 255 
255 255 255 255 255 255 255 255 255 255 255 255 255 255 255 255 
255 255 255 255 255 255 255 255 255 255 255 255 255 255 255 255 
255 255 255 255 255 255 255 255 255 255 255 255 255 255 255 255 
255 255 255 255 255 255 255 255 255 255 255 255 255 255 255 255 255 255 255 255 255 255 255 255 
255 255 255 255 255 255 255 255 255 255 255 255 255 255 255 255 
255 255 255 255 255 255 255 255 255 255 255 255 255 255 255 255 
255 255 255 255 255 255 255 255 255 255 255 255 255 255 255 255 
255 255 255 255 255 255 255 255 255 255 255 255 255 255 255 255 
255 255 255 255 255 255 255 255 255 255 255 255 255 255 255 255 
255 255 255 255 255 255 255 255 255 255 255 255 255 255 255 255 
255 255 255 255 255 255 255 255 255 255 255 255 255 255 255 255 
255 255 255 255 255 255 255 255 255 255 255 255 255 255 255 255 
255 255 255 255 255 255 255 255 255 255 255 255 255 255 255 255 
255 255 255 255 255 255 255 255 255 255 255 255 255 255 255 255 
255 255 255 255 255 255 255 255 255 255 255 255 255 255 255 255 
255 255 255 255 255 255 255 255 255 255 255 255 255 255 255 255 255 255 255 255 255 255 255 255 
255 255 255 255 255 255 255 255 255 255 255 255 255 255 255 255 
255 255 255 255 255 255 255 255 255 255 255 255 255 255 255 255 
255 255 255 255 255 255 255 255 255 255 255 255 255 255 255 255 
255 255 255 255 255 255 255 255 255 255 255 255 255 255 255 255 
255 255 255 255 255 255 255 255 255 255 255 255 255 255 255 255 
255 255 255 255 255 255 255 255 255 255 255 255 255 255 255 255 
255 255 255 255 255 255 255 255 255 255 255 255 255 255 255 255 
255 255 255 255 255 255 255 255 255 255 255 255 255 255 255 255 
255 255 255 255 255 255 255 255 255 255 255 255 255 255 255 255 
255 255 255 255 255 255 255 255 255 255 255 255 255 255 255 255 
255 255 255 255 255 255 255 255 255 255 255 255 255 255 255 255 
255 255 255 255 255 255 255 255 255 255 255 255 255 255 255 255 255 255 255 255 255 255 255 255 
255 255 255 255 255 255 255 255 255 255 255 255 255 255 255 255 
255 255 255 255 255 255 255 255 255 255 255 255 255 255 255 255 
255 255 255 255 255 255 255 255 255 255 255 255 255 255 255 255 
255 255 255 255 255 255 255 255 255 255 255 255 255 255 255 255 
255 255 255 255 255 255 255 255 255 255 255 255 255 255 255 255 
255 255 255 255 255 255 255 255 255 255 255 255 255 255 255 255 
255 255 255 255 255 255 255 255 255 255 255 255 255 255 255 255 
255 255 255 255 255 255 255 255 255 255 255 255 255 255 255 255 
255 255 255 255 255 255 255 255 255 255 255 255 255 255 255 255 
255 255 255 255 255 255 255 255 255 255 255 255 255 255 255 255 
255 255 255 255 255 255 255 255 255 255 255 255 255 255 255 255 
255 255 255 255 255 255 255 255 255 255 255 255 255 255 255 255 255 255 255 255 255 255 255 255 
255 255 255 255 255 255 255 255 255 255 255 255 255 255 255 255 
255 255 255 255 255 255 255 255 255 255 255 255 255 255 255 255 
255 255 255 255 255 255 255 255 255 255 255 255 255 255 255 255 
255 255 255 255 255 255 255 255 255 255 255 255 255 255 255 255 
255 255 255 255 255 255 255 255 255 255 255 255 255 255 255 255 
255 255 255 255 255 255 255 255 255 255 255 255 255 255 255 255 
255 255 255 255 255 255 255 255 255 255 255 255 255 255 255 255 
255 255 255 255 255 255 255 255 255 255 255 255 255 255 255 255 
255 255 255 255 255 255 255 255 255 255 255 255 255 255 255 255 
255 255 255 255 255 255 255 255 255 255 255 255 255 255 255 255 
255 255 255 255 255 255 255 255 255 255 255 255 255 255 255 255 
255 255 255 255 255 255 255 255 255 255 255 255 255 255 255 255 255 255 255 255 255 255 255 255 
255 255 255 255 255 255 255 255 255 255 255 255 255 255 255 255 
255 255 255 255 255 255 255 255 255 255 255 255 255 255 255 255 
255 255 255 255 255 255 255 255 255 255 255 255 255 255 255 255 
255 255 255 255 255 255 255 255 255 255 255 255 255 255 255 255 
255 255 255 255 255 255 255 255 255 255 255 255 255 255 255 255 
255 255 255 255 255 255 255 255 255 255 255 255 255 255 255 255 
255 255 255 255 255 255 255 255 255 255 255 255 255 255 255 255 
255 255 255 255 255 255 255 255 255 255 255 255 255 255 255 255 
255 255 255 255 255 255 255 255 255 255 255 255 255 255 255 255 
255 255 255 255 255 255 255 255 255 255 255 255 255 255 255 255 
255 255 255 255 255 255 255 255 255 255 255 255 255 255 255 255 
255 255 255 255 255 255 255 255 255 255 255 255 255 255 255 255 255 255 255 255 255 255 255 255 
255 255 255 255 255 255 255 255 255 255 255 255 255 255 255 255 
255 255 255 255 255 255 255 255 255 255 255 255 255 255 255 255 
255 255 255 255 255 255 255 255 255 255 255 255 255 255 255 255 
255 255 255 255 255 255 255 255 255 255 255 255 255 255 255 255 
255 255 255 255 255 255 255 255 255 255 255 255 255 255 255 255 
255 255 255 255 255 255 255 255 255 255 255 255 255 255 255 255 
255 255 255 255 255 255 255 255 255 255 255 255 255 255 255 255 
255 255 255 255 255 255 255 255 255 255 255 255 255 255 255 255 
255 255 255 255 255 255 255 255 255 255 255 255 255 255 255 255 
255 255 255 255 255 255 255 255 255 255 255 255 255 255 255 255 
255 255 255 255 255 255 255 255 255 255 255 255 255 255 255 255 
255 255 255 255 255 255 255 255 255 255 255 255 255 255 255 255 255 255 255 255 255 255 255 255 
255 255 255 255 255 255 255 255 255 255 255 255 255 255 255 255 
255 255 255 255 255 255 255 255 255 255 255 255 255 255 255 255 
255 255 255 255 255 255 255 255 255 255 255 255 255 255 255 255 
255 255 255 255 255 255 255 255 255 255 255 255 255 255 255 255 
255 255 255 255 255 255 255 255 255 255 255 255 255 255 255 255 
255 255 255 255 255 255 255 255 255 255 255 255 255 255 255 255 
255 255 255 255 255 255 255 255 255 255 255 255 255 255 255 255 
255 255 255 255 255 255 255 255 255 255 255 255 255 255 255 255 
255 255 255 255 255 255 255 255 255 255 255 255 255 255 255 255 
255 255 255 255 255 255 255 255 255 255 255 255 255 255 255 255 
255 255 255 255 255 255 255 255 255 255 255 255 255 255 255 255 
255 255 255 255 255 255 255 255 255 255 255 255 255 255 255 255 255 255 255 255 255 255 255 255 
255 255 255 255 255 255 255 255 255 255 255 255 255 255 255 255 
255 255 255 255 255 255 255 255 255 255 255 255 255 255 255 255 
255 255 255 255 255 255 255 255 255 255 255 255 255 255 255 255 
255 255 255 255 255 255 255 255 255 255 255 255 255 255 255 255 
255 255 255 255 255 255 255 255 255 255 255 255 255 255 255 255 
255 255 255 255 255 255 255 255 255 255 255 255 255 255 255 255 
255 255 255 255 255 255 255 255 255 255 255 255 255 255 255 255 
255 255 255 255 255 255 255 255 255 255 255 255 255 255 255 255 
255 255 255 255 255 255 255 255 255 255 255 255 255 255 255 255 
255 255 255 255 255 255 255 255 255 255 255 255 255 255 255 255 
255 255 255 255 255 255 255 255 255 255 255 255 255 255 255 255 
255 255 255 255 255 255 255 255 255 255 255 255 255 255 255 255 255 255 255 255 255 255 255 255 
255 255 255 255 255 255 255 255 255 255 255 255 255 255 255 255 
255 255 255 255 255 255 255 255 255 255 255 255 255 255 255 255 
255 255 255 255 255 255 255 255 255 255 255 255 255 255 255 255 
255 255 255 255 255 255 255 255 255 255 255 255 255 255 255 255 
255 255 255 255 255 255 255 255 255 255 255 255 255 255 255 255 
255 255 255 255 255 255 255 255 255 255 255 255 255 255 255 255 
255 255 255 255 255 255 255 255 255 255 255 255 255 255 255 255 
255 255 255 255 255 255 255 255 255 255 255 255 255 255 255 255 
255 255 255 255 255 255 255 255 255 255 255 255 255 255 255 255 
255 255 255 255 255 255 255 255 255 255 255 255 255 255 255 255 
255 255 255 255 255 255 255 255 255 255 255 255 255 255 255 255 
255 255 255 255 255 255 255 255 255 255 255 255 255 255 255 255 255 255 255 255 255 255 255 255 
255 255 255 255 255 255 255 255 255 255 255 255 255 255 255 255 
255 255 255 255 255 255 255 255 255 255 255 255 255 255 255 255 
255 255 255 255 255 255 255 255 255 255 255 255 255 255 255 255 
255 255 255 255 255 255 255 255 255 255 255 255 255 255 255 255 
255 255 255 255 255 255 255 255 255 255 255 255 255 255 255 255 
255 255 255 255 255 255 255 255 255 255 255 255 255 255 255 255 
255 255 255 255 255 255 255 255 255 255 255 255 255 255 255 255 
255 255 255 255 255 255 255 255 255 255 255 255 255 255 255 255 
255 255 255 255 255 255 255 255 255 255 255 255 255 255 255 255 
255 255 255 255 255 255 255 255 255 255 255 255 255 255 255 255 
255 255 255 255 255 255 255 255 255 255 255 255 255 255 255 255 
255 255 255 255 255 255 255 255 255 255 255 255 255 255 255 255 255 255 255 255 255 255 255 255 
255 255 255 255 255 255 255 255 255 255 255 255 255 255 255 255 
255 255 255 255 255 255 255 255 255 255 255 255 255 255 255 255 
255 255 255 255 255 255 255 255 255 255 255 255 255 255 255 255 
255 255 255 255 255 255 255 255 255 255 255 255 255 255 255 255 
255 255 255 255 255 255 255 255 255 255 255 255 255 255 255 255 
255 255 255 255 255 255 255 255 255 255 255 255 255 255 255 255 
255 255 255 255 255 255 255 255 255 255 255 255 255 255 255 255 
255 255 255 255 255 255 255 255 255 255 255 255 255 255 255 255 
255 255 255 255 255 255 255 255 255 255 255 255 255 255 255 255 
255 255 255 255 255 255 255 255 255 255 255 255 255 255 255 255 
255 255 255 255 255 255 255 255 255 255 255 255 255 255 255 255 
255 255 255 255 255 255 255 255 255 255 255 255 255 255 255 255 255 255 255 255 255 255 255 255 
255 255 255 255 255 255 255 255 255 255 255 255 255 255 255 255 
255 255 255 255 255 255 255 255 255 255 255 255 255 255 255 255 
255 255 255 255 255 255 255 255 255 255 255 255 255 255 255 255 
255 255 255 255 255 255 255 255 255 255 255 255 255 255 255 255 
255 255 255 255 255 255 255 255 255 255 255 255 255 255 255 255 
255 255 255 255 255 255 255 255 255 255 255 255 255 255 255 255 
255 255 255 255 255 255 255 255 255 255 255 255 255 255 255 255 
255 255 255 255 255 255 255 255 255 255 255 255 255 255 255 255 
255 255 255 255 255 255 255 255 255 255 255 255 255 255 255 255 
255 255 255 255 255 255 255 255 255 255 255 255 255 255 255 255 
255 255 255 255 255 255 255 255 255 255 255 255 255 255 255 255 
255 255 255 255 255 255 255 255 255 255 255 255 255 255 255 255 255 255 255 255 255 255 255 255 
255 255 255 255 255 255 255 255 255 255 255 255 255 255 255 255 
255 255 255 255 255 255 255 255 255 255 255 255 255 255 255 255 
255 255 255 255 255 255 255 255 255 255 255 255 255 255 255 255 
255 255 255 255 255 255 255 255 255 255 255 255 255 255 255 255 
255 255 255 255 255 255 255 255 255 255 255 255 255 255 255 255 
255 255 255 255 255 255 255 255 255 255 255 255 255 255 255 255 
255 255 255 255 255 255 255 255 255 255 255 255 255 255 255 255 
255 255 255 255 255 255 255 255 255 255 255 255 255 255 255 255 
255 255 255 255 255 255 255 255 255 255 255 255 255 255 255 255 
255 255 255 255 255 255 255 255 255 255 255 255 255 255 255 255 
255 255 255 255 255 255 255 255 255 255 255 255 255 255 255 255 
255 255 255 255 255 255 255 255 255 255 255 255 255 255 255 255 255 255 255 255 255 255 255 255 
255 255 255 255 255 255 255 255 255 255 255 255 255 255 255 255 
255 255 255 255 255 255 255 255 255 255 255 255 255 255 255 255 
255 255 255 255 255 255 255 255 255 255 255 255 255 255 255 255 
255 255 255 255 255 255 255 255 255 255 255 255 255 255 255 255 
255 255 255 255 255 255 255 255 255 255 255 255 255 255 255 255 
255 255 255 255 255 255 255 255 255 255 255 255 255 255 255 255 
255 255 255 255 255 255 255 255 255 255 255 255 255 255 255 255 
255 255 255 255 255 255 255 255 255 255 255 255 255 255 255 255 
255 255 255 255 255 255 255 255 255 255 255 255 255 255 255 255 
255 255 255 255 255 255 255 255 255 255 255 255 255 255 255 255 
255 255 255 255 255 255 255 255 255 255 255 255 255 255 255 255 
255 255 255 255 255 255 255 255 255 255 255 255 255 255 255 255 255 255 255 255 255 255 255 255 
255 255 255 255 255 255 255 255 255 255 255 255 255 255 255 255 
255 255 255 255 255 255 255 255 255 255 255 255 255 255 255 255 
255 255 255 255 255 255 255 255 255 255 255 255 255 255 255 255 
255 255 255 255 255 255 255 255 255 255 255 255 255 255 255 255 
255 255 255 255 255 255 255 255 255 255 255 255 255 255 255 255 
255 255 255 255 255 255 255 255 255 255 255 255 255 255 255 255 
255 255 255 255 255 255 255 255 255 255 255 255 255 255 255 255 
255 255 255 255 255 255 255 255 255 255 255 255 255 255 255 255 
255 255 255 255 255 255 255 255 255 255 255 255 255 255 255 255 
255 255 255 255 255 255 255 255 255 255 255 255 255 255 255 255 
255 255 255 255 255 255 255 255 255 255 255 255 255 255 255 255 
255 255 255 255 255 255 255 255 255 255 255 255 255 255 255 255 255 255 255 255 255 255 255 255 
255 255 255 255 255 255 255 255 255 255 255 255 255 255 255 255 
255 255 255 255 255 255 255 255 255 255 255 255 255 255 255 255 
255 255 255 255 255 255 255 255 255 255 255 255 255 255 255 255 
255 255 255 255 255 255 255 255 255 255 255 255 255 255 255 255 
255 255 255 255 255 255 255 255 255 255 255 255 255 255 255 255 
255 255 255 255 255 255 255 255 255 255 255 255 255 255 255 255 
255 255 255 255 255 255 255 255 255 255 255 255 255 255 255 255 
255 255 255 255 255 255 255 255 255 255 255 255 255 255 255 255 
255 255 255 255 255 255 255 255 255 255 255 255 255 255 255 255 
255 255 255 255 255 255 255 255 255 255 255 255 255 255 255 255 
255 255 255 255 255 255 255 255 255 255 255 255 255 255 255 255 
255 255 255 255 255 255 255 255 255 255 255 255 255 255 255 255 255 255 255 255 255 255 255 255 
255 255 255 255 255 255 255 255 255 255 255 255 255 255 255 255 
255 255 255 255 255 255 255 255 255 255 255 255 255 255 255 255 
255 255 255 255 255 255 255 255 255 255 255 255 255 255 255 255 
255 255 255 255 255 255 255 255 255 255 255 255 255 255 255 255 
255 255 255 255 255 255 255 255 255 255 255 255 255 255 255 255 
255 255 255 255 255 255 255 255 255 255 255 255 255 255 255 255 
255 255 255 255 255 255 255 255 255 255 255 255 255 255 255 255 
255 255 255 255 255 255 255 255 255 255 255 255 255 255 255 255 
255 255 255 255 255 255 255 255 255 255 255 255 255 255 255 255 
255 255 255 255 255 255 255 255 255 255 255 255 255 255 255 255 
255 255 255 255 255 255 255 255 255 255 255 255 255 255 255 255 
255 255 255 255 255 255 255 255 255 255 255 255 255 255 255 255 255 255 255 255 255 255 255 255 
255 255 255 255 255 255 255 255 255 255 255 255 255 255 255 255 
255 255 255 255 255 255 255 255 255 255 255 255 255 255 255 255 
255 255 255 255 255 255 255 255 255 255 255 255 255 255 255 255 
255 255 255 255 255 255 255 255 255 255 255 255 255 255 255 255 
255 255 255 255 255 255 255 255 255 255 255 255 255 255 255 255 
255 255 255 255 255 255 255 255 255 255 255 255 255 255 255 255 
255 255 255 255 255 255 255 255 255 255 255 255 255 255 255 255 
255 255 255 255 255 255 255 255 255 255 255 255 255 255 255 255 
255 255 255 255 255 255 255 255 255 255 255 255 255 255 255 255 
255 255 255 255 255 255 255 255 255 255 255 255 255 255 255 255 
255 255 255 255 255 255 255 255 255 255 255 255 255 255 255 255 
255 255 255 255 255 255 255 255 255 255 255 255 255 255 255 255 255 255 255 255 255 255 255 255 
255 255 255 255 255 255 255 255 255 255 255 255 255 255 255 255 
255 255 255 255 255 255 255 255 255 255 255 255 255 255 255 255 
255 255 255 255 255 255 255 255 255 255 255 255 255 255 255 255 
255 255 255 255 255 255 255 255 255 255 255 255 255 255 255 255 
255 255 255 255 255 255 255 255 255 255 255 255 255 255 255 255 
255 255 255 255 255 255 255 255 255 255 255 255 255 255 255 255 
255 255 255 255 255 255 255 255 255 255 255 255 255 255 255 255 
255 255 255 255 255 255 255 255 255 255 255 255 255 255 255 255 
255 255 255 255 255 255 255 255 255 255 255 255 255 255 255 255 
255 255 255 255 255 255 255 255 255 255 255 255 255 255 255 255 
255 255 255 255 255 255 255 255 255 255 255 255 255 255 255 255 
255 255 255 255 255 255 255 255 255 255 255 255 255 255 255 255 255 255 255 255 255 255 255 255 
255 255 255 255 255 255 255 255 255 255 255 255 255 255 255 255 
255 255 255 255 255 255 255 255 255 255 255 255 255 255 255 255 
255 255 255 255 255 255 255 255 255 255 255 255 255 255 255 255 
255 255 255 255 255 255 255 255 255 255 255 255 255 255 255 255 
255 255 255 255 255 255 255 255 255 255 255 255 255 255 255 255 
255 255 255 255 255 255 255 255 255 255 255 255 255 255 255 255 
255 255 255 255 255 255 255 255 255 255 255 255 255 255 255 255 
255 255 255 255 255 255 255 255 255 255 255 255 255 255 255 255 
255 255 255 255 255 255 255 255 255 255 255 255 255 255 255 255 
255 255 255 255 255 255 255 255 255 255 255 255 255 255 255 255 
255 255 255 255 255 255 255 255 255 255 255 255 255 255 255 255 
255 255 255 255 255 255 255 255 255 255 255 255 255 255 255 255 255 255 255 255 255 255 255 255 
255 255 255 255 255 255 255 255 255 255 255 255 255 255 255 255 
255 255 255 255 255 255 255 255 255 255 255 255 255 255 255 255 
255 255 255 255 255 255 255 255 255 255 255 255 255 255 255 255 
255 255 255 255 255 255 255 255 255 255 255 255 255 255 255 255 
255 255 255 255 255 255 255 255 255 255 255 255 255 255 255 255 
255 255 255 255 255 255 255 255 255 255 255 255 255 255 255 255 
255 255 255 255 255 255 255 255 255 255 255 255 255 255 255 255 
255 255 255 255 255 255 255 255 255 255 255 255 255 255 255 255 
255 255 255 255 255 255 255 255 255 255 255 255 255 255 255 255 
255 255 255 255 255 255 255 255 255 255 255 255 255 255 255 255 
255 255 255 255 255 255 255 255 255 255 255 255 255 255 255 255 
255 255 255 255 255 255 255 255 255 255 255 255 255 255 255 255 255 255 255 255 255 255 255 255 
255 255 255 255 255 255 255 255 255 255 255 255 255 255 255 255 
255 255 255 255 255 255 255 255 255 255 255 255 255 255 255 255 
255 255 255 255 255 255 255 255 255 255 255 255 255 255 255 255 
255 255 255 255 255 255 255 255 255 255 255 255 255 255 255 255 
255 255 255 255 255 255 255 255 255 255 255 255 255 255 255 255 
255 255 255 255 255 255 255 255 255 255 255 255 255 255 255 255 
255 255 255 255 255 255 255 255 255 255 255 255 255 255 255 255 
255 255 255 255 255 255 255 255 255 255 255 255 255 255 255 255 
255 255 255 255 255 255 255 255 255 255 255 255 255 255 255 255 
255 255 255 255 255 255 255 255 255 255 255 255 255 255 255 255 
255 255 255 255 255 255 255 255 255 255 255 255 255 255 255 255 
255 255 255 255 255 255 255 255 255 255 255 255 255 255 255 255 255 255 255 255 255 255 255 255 
255 255 255 255 255 255 255 255 255 255 255 255 255 255 255 255 
255 255 255 255 255 255 255 255 255 255 255 255 255 255 255 255 
255 255 255 255 255 255 255 255 255 255 255 255 255 255 255 255 
255 255 255 255 255 255 255 255 255 255 255 255 255 255 255 255 
255 255 255 255 255 255 255 255 255 255 255 255 255 255 255 255 
255 255 255 255 255 255 255 255 255 255 255 255 255 255 255 255 
255 255 255 255 255 255 255 255 255 255 255 255 255 255 255 255 
255 255 255 255 255 255 255 255 255 255 255 255 255 255 255 255 
255 255 255 255 255 255 255 255 255 255 255 255 255 255 255 255 
255 255 255 255 255 255 255 255 255 255 255 255 255 255 255 255 
255 255 255 255 255 255 255 255 255 255 255 255 255 255 255 255 
255 255 255 255 255 255 255 255 255 255 255 255 255 255 255 255 255 255 255 255 255 255 255 255 
255 255 255 255 255 255 255 255 255 255 255 255 255 255 255 255 
255 255 255 255 255 255 255 255 255 255 255 255 255 255 255 255 
255 255 255 255 255 255 255 255 255 255 255 255 255 255 255 255 
255 255 255 255 255 255 255 255 255 255 255 255 255 255 255 255 
255 255 255 255 255 255 255 255 255 255 255 255 255 255 255 255 
255 255 255 255 255 255 255 255 255 255 255 255 255 255 255 255 
255 255 255 255 255 255 255 255 255 255 255 255 255 255 255 255 
255 255 255 255 255 255 255 255 255 255 255 255 255 255 255 255 
255 255 255 255 255 255 255 255 255 255 255 255 255 255 255 255 
255 255 255 255 255 255 255 255 255 255 255 255 255 255 255 255 
255 255 255 255 255 255 255 255 255 255 255 255 255 255 255 255 
255 255 255 255 255 255 255 255 255 255 255 255 255 255 255 255 255 255 255 255 255 255 255 255 
255 255 255 255 255 255 255 255 255 255 255 255 255 255 255 255 
255 255 255 255 255 255 255 255 255 255 255 255 255 255 255 255 
255 255 255 255 255 255 255 255 255 255 255 255 255 255 255 255 
255 255 255 255 255 255 255 255 255 255 255 255 255 255 255 255 
255 255 255 255 255 255 255 255 255 255 255 255 255 255 255 255 
255 255 255 255 255 255 255 255 255 255 255 255 255 255 255 255 
255 255 255 255 255 255 255 255 255 255 255 255 255 255 255 255 
255 255 255 255 255 255 255 255 255 255 255 255 255 255 255 255 
255 255 255 255 255 255 255 255 255 255 255 255 255 255 255 255 
255 255 255 255 255 255 255 255 255 255 255 255 255 255 255 255 
255 255 255 255 255 255 255 255 255 255 255 255 255 255 255 255 
255 255 255 255 255 255 255 255 255 255 255 255 255 255 255 255 255 255 255 255 255 255 255 255 
255 255 255 255 255 255 255 255 255 255 255 255 255 255 255 255 
255 255 255 255 255 255 255 255 255 255 255 255 255 255 255 255 
255 255 255 255 255 255 255 255 255 255 255 255 255 255 255 255 
255 255 255 255 255 255 255 255 255 255 255 255 255 255 255 255 
255 255 255 255 255 255 255 255 255 255 255 255 255 255 255 255 
255 255 255 255 255 255 255 255 255 255 255 255 255 255 255 255 
255 255 255 255 255 255 255 255 255 255 255 255 255 255 255 255 
255 255 255 255 255 255 255 255 255 255 255 255 255 255 255 255 
255 255 255 255 255 255 255 255 255 255 255 255 255 255 255 255 
255 255 255 255 255 255 255 255 255 255 255 255 255 255 255 255 
255 255 255 255 255 255 255 255 255 255 255 255 255 255 255 255 
255 255 255 255 255 255 255 255 255 255 255 255 255 255 255 255 255 255 255 255 255 255 255 255 
255 255 255 255 255 255 255 255 255 255 255 255 255 255 255 255 
255 255 255 255 255 255 255 255 255 255 255 255 255 255 255 255 
255 255 255 255 255 255 255 255 255 255 255 255 255 255 255 255 
255 255 255 255 255 255 255 255 255 255 255 255 255 255 255 255 
255 255 255 255 255 255 255 255 255 255 255 255 255 255 255 255 
255 255 255 255 255 255 255 255 255 255 255 255 255 255 255 255 
255 255 255 255 255 255 255 255 255 255 255 255 255 255 255 255 
255 255 255 255 255 255 255 255 255 255 255 255 255 255 255 255 
255 255 255 255 255 255 255 255 255 255 255 255 255 255 255 255 
255 255 255 255 255 255 255 255 255 255 255 255 255 255 255 255 
255 255 255 255 255 255 255 255 255 255 255 255 255 255 255 255 
255 255 255 255 255 255 255 255 255 255 255 255 255 255 255 255 255 255 255 255 255 255 255 255 
255 255 255 255 255 255 255 255 255 255 255 255 255 255 255 255 
255 255 255 255 255 255 255 255 255 255 255 255 255 255 255 255 
255 255 255 255 255 255 255 255 255 255 255 255 255 255 255 255 
255 255 255 255 255 255 255 255 255 255 255 255 255 255 255 255 
255 255 255 255 255 255 255 255 255 255 255 255 255 255 255 255 
255 255 255 255 255 255 255 255 255 255 255 255 255 255 255 255 
255 255 255 255 255 255 255 255 255 255 255 255 255 255 255 255 
255 255 255 255 255 255 255 255 255 255 255 255 255 255 255 255 
255 255 255 255 255 255 255 255 255 255 255 255 255 255 255 255 
255 255 255 255 255 255 255 255 255 255 255 255 255 255 255 255 
255 255 255 255 255 255 255 255 255 255 255 255 255 255 255 255 
255 255 255 255 255 255 255 255 255 255 255 255 255 255 255 255 255 255 255 255 255 255 255 255 
255 255 255 255 255 255 255 255 255 255 255 255 255 255 255 255 
255 255 255 255 255 255 255 255 255 255 255 255 255 255 255 255 
255 255 255 255 255 255 255 255 255 255 255 255 255 255 255 255 
255 255 255 255 255 255 255 255 255 255 255 255 255 255 255 255 
255 255 255 255 255 255 255 255 255 255 255 255 255 255 255 254 
254 254 254 255 254 255 255 255 255 255 255 255 255 255 255 255 
255 255 255 255 255 255 255 255 255 255 255 255 255 255 255 255 
255 255 255 255 255 255 255 255 255 255 255 255 255 255 255 255 
255 255 255 255 255 255 255 255 255 255 255 255 255 255 255 255 
255 255 255 255 255 255 255 255 255 255 255 255 255 255 255 255 
255 255 255 255 255 255 255 255 255 255 255 255 255 255 255 255 
255 255 255 255 255 255 255 255 255 255 255 255 255 255 255 255 255 255 255 255 255 255 255 255 
255 255 255 255 255 255 255 255 255 255 255 255 255 255 255 255 
255 255 255 255 255 255 255 255 255 255 255 255 255 255 255 255 
255 255 255 255 255 255 255 255 255 255 255 255 255 255 255 255 
255 255 255 255 255 255 255 255 255 255 255 255 255 255 255 255 
255 255 255 255 255 255 255 255 255 255 255 255 255 255 255 253 
254 254 254 255 254 255 255 255 255 255 255 255 255 255 255 255 
255 255 255 255 255 255 255 255 255 255 255 255 255 255 255 255 
255 255 255 255 255 255 255 255 255 255 255 255 255 255 255 255 
255 255 255 255 255 255 255 255 255 255 255 255 255 255 255 255 
255 255 255 255 255 255 255 255 255 255 255 255 255 255 255 255 
255 255 255 255 255 255 255 255 255 255 255 255 255 255 255 255 
255 255 255 255 255 255 255 255 255 255 255 255 255 255 255 255 255 255 255 255 255 255 255 255 
255 255 255 255 255 255 255 255 255 255 255 255 255 255 255 255 
255 255 255 255 255 255 255 255 255 255 255 255 255 255 255 255 
255 255 255 255 255 255 255 255 255 255 255 255 255 255 255 255 
255 255 255 255 255 255 255 255 255 255 255 255 255 255 255 255 
255 255 255 255 255 255 255 255 255 255 255 255 255 255 255 253 
246 239 254 254 254 255 255 255 255 255 255 255 255 255 255 255 
255 255 255 255 255 255 255 255 255 255 255 255 255 255 255 255 
255 255 255 255 255 255 255 255 255 255 255 255 255 255 255 255 
255 255 255 255 255 255 255 255 255 255 255 255 255 255 255 255 
255 255 255 255 255 255 255 255 255 255 255 255 255 255 255 255 
255 255 255 255 255 255 255 255 255 255 255 255 255 255 255 255 
255 255 255 255 255 255 255 255 255 255 255 255 255 255 255 255 255 255 255 255 255 255 255 255 
255 255 255 255 255 255 255 255 255 255 255 255 255 255 255 255 
255 255 255 255 255 255 255 255 255 255 255 255 255 255 255 255 
255 255 255 255 255 255 255 255 255 255 255 255 255 255 255 255 
255 255 255 255 255 255 255 255 255 255 255 255 255 255 255 255 
255 255 255 255 255 255 255 255 255 255 255 255 255 255 255 252 
215 208 247 254 254 255 255 255 255 255 255 255 255 255 255 255 
255 255 255 255 255 255 255 255 255 255 255 255 255 255 255 255 
255 255 255 255 255 255 255 255 255 255 255 255 255 255 255 255 
255 255 255 255 255 255 255 255 255 255 255 255 255 255 255 255 
255 255 255 255 255 255 255 255 255 255 255 255 255 255 255 255 
255 255 255 255 255 255 255 255 255 255 255 255 255 255 255 255 
255 255 255 255 255 255 255 255 255 255 255 255 255 255 255 255 255 255 255 255 255 255 255 255 
255 255 255 255 255 255 255 255 255 255 255 255 255 255 255 255 
255 255 255 255 255 255 255 255 255 255 255 255 255 255 255 255 
255 255 255 255 255 255 255 255 255 255 255 255 255 255 255 255 
255 255 255 255 255 255 255 255 255 255 255 255 255 255 255 255 
255 255 255 255 255 255 255 255 255 255 255 255 254 254 255 230 
180 207 217 253 254 254 255 255 255 255 255 255 255 255 255 255 
255 255 255 255 255 255 255 255 255 255 255 255 255 255 255 255 
255 255 255 255 255 255 255 255 255 255 255 255 255 255 255 255 
255 255 255 255 255 255 255 255 255 255 255 255 255 255 255 255 
255 255 255 255 255 255 255 255 255 255 255 255 255 255 255 255 
255 255 255 255 255 255 255 255 255 255 255 255 255 255 255 255 
255 255 255 255 255 255 255 255 255 255 255 255 255 255 255 255 255 255 255 255 255 255 255 255 
255 255 255 255 255 255 255 255 255 255 255 255 255 255 255 255 
255 255 255 255 255 255 255 255 255 255 255 255 255 255 255 255 
255 255 255 255 255 255 255 255 255 255 255 255 255 255 255 255 
255 255 255 255 255 255 255 255 255 255 255 255 255 255 255 255 
255 255 255 255 255 255 255 255 255 255 255 255 254 254 253 188 
175 202 208 239 254 254 255 255 255 255 255 255 255 255 255 255 
255 255 255 255 255 255 255 255 255 255 255 255 255 255 255 255 
255 255 255 255 255 255 255 255 255 255 255 255 255 255 255 255 
255 255 255 255 255 255 255 255 255 255 255 255 255 255 255 255 
255 255 255 255 255 255 255 255 255 255 255 255 255 255 255 255 
255 255 255 255 255 255 255 255 255 255 255 255 255 255 255 255 
255 255 255 255 255 255 255 255 255 255 255 255 255 255 255 255 255 255 255 255 255 255 255 255 
255 255 255 255 255 255 255 255 255 255 255 255 255 255 255 255 
255 255 255 255 255 255 255 255 255 255 255 255 255 255 255 255 
255 255 255 255 255 255 255 255 255 255 255 255 255 255 255 255 
255 255 255 255 255 255 255 255 255 255 255 255 255 255 255 255 
255 255 255 255 255 255 255 255 255 255 255 255 254 254 235 151 
165 204 205 209 253 255 255 255 255 255 255 255 255 255 255 255 
255 255 255 255 255 255 255 255 255 255 255 255 255 255 255 255 
255 255 255 255 255 255 255 255 255 255 255 255 255 255 255 255 
255 255 255 255 255 255 255 255 255 255 255 255 255 255 255 255 
255 255 255 255 255 255 255 255 255 255 255 255 255 255 255 255 
255 255 255 255 255 255 255 255 255 255 255 255 255 255 255 255 
255 255 255 255 255 255 255 255 255 255 255 255 255 255 255 255 255 255 255 255 255 255 255 255 
255 255 255 255 255 255 255 255 255 255 255 255 255 255 255 255 
255 255 255 255 255 255 255 255 255 255 255 255 255 255 255 255 
255 255 255 255 255 255 255 255 255 255 255 255 255 255 255 255 
255 255 255 255 255 255 255 255 255 255 255 255 255 255 255 255 
255 255 255 255 255 255 255 255 255 254 255 255 254 252 191 139 
173 191 196 204 250 255 255 255 255 255 255 255 255 255 255 255 
255 255 255 255 255 255 255 255 255 255 255 255 255 255 255 255 
255 255 255 255 255 255 255 255 255 255 255 255 255 255 255 255 
255 255 255 255 255 255 255 255 255 255 255 255 255 255 255 255 
255 255 255 255 255 255 255 255 255 255 255 255 255 255 255 255 
255 255 255 255 255 255 255 255 255 255 255 255 255 255 255 255 
255 255 255 255 255 255 255 255 255 255 255 255 255 255 255 255 255 255 255 255 255 255 255 255 
255 255 255 255 255 255 255 255 255 255 255 255 255 255 255 255 
255 255 255 255 255 255 255 255 255 255 255 255 255 255 255 255 
255 255 255 255 255 255 255 255 255 255 255 255 255 255 255 255 
255 255 255 255 255 255 255 255 255 255 255 255 255 255 255 255 
255 255 255 255 255 255 255 255 255 255 255 254 253 235 132 138 
189 194 183 202 242 255 255 255 255 255 255 255 255 255 255 255 
255 255 255 255 255 255 255 255 255 255 255 255 255 255 255 255 
255 255 255 255 255 255 255 255 255 255 255 255 255 255 255 255 
255 255 255 255 255 255 255 255 255 255 255 255 255 255 255 255 
255 255 255 255 255 255 255 255 255 255 255 255 255 255 255 255 
255 255 255 255 255 255 255 255 255 255 255 255 255 255 255 255 
255 255 255 255 255 255 255 255 255 255 255 255 255 255 255 255 255 255 255 255 255 255 255 255 
255 255 255 255 255 255 255 255 255 255 255 255 255 255 255 255 
255 255 255 255 255 255 255 255 255 255 255 255 255 255 255 255 
255 255 255 255 255 255 255 255 255 255 255 255 255 255 255 255 
255 255 255 255 255 255 255 255 255 255 255 255 255 255 255 255 
255 255 255 255 255 255 255 255 255 254 254 254 253 184 113 133 
193 215 178 184 234 255 255 255 255 255 255 255 255 255 255 255 
255 255 255 255 255 255 255 255 255 255 255 255 255 255 255 255 
255 255 255 255 255 255 255 255 255 255 255 255 255 255 255 255 
255 255 255 255 255 255 255 255 255 255 255 255 255 255 255 255 
255 255 255 255 255 255 255 255 255 255 255 255 255 255 255 255 
255 255 255 255 255 255 255 255 255 255 255 255 255 255 255 255 
255 255 255 255 255 255 255 255 255 255 255 255 255 255 255 255 255 255 255 255 255 255 255 255 
255 255 255 255 255 255 255 255 255 255 255 255 255 255 255 255 
255 255 255 255 255 255 255 255 255 255 255 255 255 255 255 255 
255 255 255 255 255 255 255 255 255 255 255 255 255 255 255 255 
255 255 255 255 255 255 255 255 255 255 255 255 255 255 255 255 
255 255 255 255 255 255 255 255 255 255 255 254 243 122 95 123 
191 210 206 176 215 254 255 255 255 255 255 255 255 255 255 255 
255 255 255 255 255 255 255 255 255 255 255 255 255 255 255 255 
255 255 255 255 255 255 255 255 255 255 255 255 255 255 255 255 
255 255 255 255 255 255 255 255 255 255 255 255 255 255 255 255 
255 255 255 255 255 255 255 255 255 255 255 255 255 255 255 255 
255 255 255 255 255 255 255 255 255 255 255 255 255 255 255 255 
255 255 255 255 255 255 255 255 255 255 255 255 255 255 255 255 255 255 255 255 255 255 255 255 
255 255 255 255 255 255 255 255 255 255 255 255 255 255 255 255 
255 255 255 255 255 255 255 255 255 255 255 255 255 255 255 255 
255 255 255 255 255 255 255 255 255 255 255 255 255 255 255 255 
255 255 255 255 255 255 255 255 255 255 255 255 255 255 255 255 
255 255 255 255 255 255 255 255 255 255 255 254 193 108 87 117 
172 199 202 196 201 250 255 255 255 255 255 255 255 255 255 255 
255 255 255 255 255 255 255 255 255 255 255 255 255 255 255 255 
255 255 255 255 255 255 255 255 255 255 255 255 255 255 255 255 
255 255 255 255 255 255 255 255 255 255 255 255 255 255 255 255 
255 255 255 255 255 255 255 255 255 255 255 255 255 255 255 255 
255 255 255 255 255 255 255 255 255 255 255 255 255 255 255 255 
255 255 255 255 255 255 255 255 255 255 255 255 255 255 255 255 255 255 255 255 255 255 255 255 
255 255 255 255 255 255 255 255 255 255 255 255 255 255 255 255 
255 255 255 255 255 255 255 255 255 255 255 255 255 255 255 255 
255 255 255 255 255 255 255 255 255 255 255 255 255 255 255 255 
255 255 255 255 255 255 255 255 255 255 255 255 255 255 255 255 
255 255 255 255 255 255 255 255 255 254 254 248 152 114 106 135 
166 181 187 192 189 242 255 255 255 255 255 255 255 255 255 255 
255 255 255 255 255 255 255 255 255 255 255 255 255 255 255 255 
255 255 255 255 255 255 255 255 255 255 255 255 255 255 255 255 
255 255 255 255 255 255 255 255 255 255 255 255 255 255 255 255 
255 255 255 255 255 255 255 255 255 255 255 255 255 255 255 255 
255 255 255 255 255 255 255 255 255 255 255 255 255 255 255 255 
255 255 255 255 255 255 255 255 255 255 255 255 255 255 255 255 255 255 255 255 255 255 255 255 
255 255 255 255 255 255 255 255 255 255 255 255 255 255 255 255 
255 255 255 255 255 255 255 255 255 255 255 255 255 255 255 255 
255 255 255 255 255 255 255 255 255 255 255 255 255 255 255 255 
255 255 255 255 255 255 255 255 255 255 255 255 255 255 255 255 
255 255 255 255 255 255 255 255 255 254 253 217 117 108 109 151 
188 172 180 178 194 228 254 254 254 255 255 254 255 255 255 255 
255 255 255 255 255 255 255 255 255 255 255 254 254 255 255 255 
255 255 255 255 255 255 255 255 255 255 255 255 255 255 255 255 
255 255 255 255 255 255 255 255 255 255 255 255 255 255 255 255 
255 255 255 255 255 255 255 255 255 255 255 255 255 255 255 255 
255 255 255 255 255 255 255 255 255 255 255 255 255 255 255 255 
255 255 255 255 255 255 255 255 255 255 255 255 255 255 255 255 255 255 255 255 255 255 255 255 
255 255 255 255 255 255 255 255 255 255 255 255 255 255 255 255 
255 255 255 255 255 255 255 255 255 255 255 255 255 255 255 255 
255 255 255 255 255 255 255 255 255 255 255 255 255 255 255 255 
255 255 255 255 255 255 255 255 255 255 255 255 255 255 255 255 
255 255 255 255 255 255 255 255 255 254 249 160 110 104 126 131 
153 160 166 175 184 218 251 254 254 255 255 254 255 255 255 255 
255 255 255 255 255 255 255 255 255 255 255 254 254 255 255 255 
255 255 255 255 255 255 255 255 255 255 255 255 255 255 255 255 
255 255 255 255 255 255 255 255 255 255 255 255 255 255 255 255 
255 255 255 255 255 255 255 255 255 255 255 255 255 255 255 255 
255 255 255 255 255 255 255 255 255 255 255 255 255 255 255 255 
255 255 255 255 255 255 255 255 255 255 255 255 255 255 255 255 255 255 255 255 255 255 255 255 
255 255 255 255 255 255 255 255 255 255 255 255 255 255 255 255 
255 255 255 255 255 255 255 255 255 255 255 255 255 255 255 255 
255 255 255 255 255 255 255 255 255 255 255 255 255 255 255 255 
255 255 255 255 255 255 255 255 255 255 255 255 255 255 255 255 
255 255 255 255 255 255 255 255 255 254 220 139 153 182 168 167 
148 142 137 153 154 198 247 254 254 255 255 255 255 255 255 255 
255 255 255 255 255 255 255 255 255 255 254 254 255 255 255 255 
255 255 254 254 254 255 255 255 255 255 255 255 255 255 255 255 
255 255 255 255 255 255 255 255 255 255 255 255 255 255 255 255 
255 255 255 255 255 255 255 255 255 255 255 255 255 255 255 255 
255 255 255 255 255 255 255 255 255 255 255 255 255 255 255 255 
255 255 255 255 255 255 255 255 255 255 255 255 255 255 255 255 255 255 255 255 255 255 255 255 
255 255 255 255 255 255 255 255 255 255 255 255 255 255 255 255 
255 255 255 255 255 255 255 255 255 255 255 255 255 255 255 255 
255 255 255 255 255 255 255 255 255 255 255 255 255 255 255 255 
255 255 255 255 255 255 255 255 255 255 255 255 255 255 255 255 
255 255 255 255 255 255 255 255 254 253 184 116 112 137 177 165 
139 144 136 135 136 169 228 253 254 254 254 255 255 255 255 255 
255 255 255 255 255 255 255 255 255 255 255 255 255 255 255 254 
254 255 255 255 254 255 255 255 255 255 255 255 255 255 255 255 
255 255 255 255 255 255 255 255 255 255 255 255 255 255 255 255 
255 255 255 255 255 255 255 255 255 255 255 255 255 255 255 255 
255 255 255 255 255 255 255 255 255 255 255 255 255 255 255 255 
255 255 255 255 255 255 255 255 255 255 255 255 255 255 255 255 255 255 255 255 255 255 255 255 
255 255 255 255 255 255 255 255 255 255 255 255 255 255 255 255 
255 255 255 255 255 255 255 255 255 255 255 255 255 255 255 255 
255 255 255 255 255 255 255 255 255 255 255 255 255 255 255 255 
255 255 255 255 255 255 255 255 255 255 255 255 255 255 255 255 
255 255 255 255 255 255 255 255 254 238 175 103 76 99 137 160 
145 157 158 144 142 144 174 244 252 253 253 254 254 255 254 255 
255 255 255 255 255 255 255 255 255 255 255 255 255 254 253 253 
254 254 254 254 254 255 255 255 255 255 255 255 255 255 255 255 
255 255 255 255 255 255 255 255 255 255 255 255 255 255 255 255 
255 255 255 255 255 255 255 255 255 255 255 255 255 255 255 255 
255 255 255 255 255 255 255 255 255 255 255 255 255 255 255 255 
255 255 255 255 255 255 255 255 255 255 255 255 255 255 255 255 255 255 255 255 255 255 255 255 
255 255 255 255 255 255 255 255 255 255 255 255 255 255 255 255 
255 255 255 255 255 255 255 255 255 255 255 255 255 255 255 255 
255 255 255 255 255 255 255 255 255 255 255 255 255 255 255 255 
255 255 255 255 255 255 255 255 255 255 255 255 255 255 255 255 
255 255 255 255 255 255 255 255 249 171 127 104 115 138 184 165 
149 144 141 134 119 118 119 143 172 214 240 248 254 255 255 255 
255 255 255 255 255 255 255 255 255 255 255 255 254 254 254 252 
251 250 252 254 255 255 255 255 255 255 255 255 255 255 255 255 
255 255 255 255 255 255 255 255 255 255 255 255 255 255 255 255 
255 255 255 255 255 255 255 255 255 255 255 255 255 255 255 255 
255 255 255 255 255 255 255 255 255 255 255 255 255 255 255 255 
255 255 255 255 255 255 255 255 255 255 255 255 255 255 255 255 255 255 255 255 255 255 255 255 
255 255 255 255 255 255 255 255 255 255 255 255 255 255 255 255 
255 255 255 255 255 255 255 255 255 255 255 255 255 255 255 255 
255 255 255 255 255 255 255 255 255 255 255 255 255 255 255 255 
255 255 255 255 255 255 255 255 255 255 255 255 255 255 255 255 
255 255 255 255 255 255 254 251 220 109 97 135 151 164 162 142 
134 140 135 101 131 107 107 129 108 103 120 148 223 249 254 255 
254 255 255 255 255 255 255 255 255 255 255 254 251 224 200 198 
193 175 208 252 254 255 255 255 255 255 255 255 255 255 255 255 
255 255 255 255 255 255 255 255 255 255 255 255 255 255 255 255 
255 255 255 255 255 255 255 255 255 255 255 255 255 255 255 255 
255 255 255 255 255 255 255 255 255 255 255 255 255 255 255 255 
255 255 255 255 255 255 255 255 255 255 255 255 255 255 255 255 255 255 255 255 255 255 255 255 
255 255 255 255 255 255 255 255 255 254 254 255 255 255 254 255 
255 255 255 255 255 255 255 255 255 255 255 255 255 255 255 255 
255 255 255 255 255 255 255 255 255 255 255 255 255 255 255 255 
255 255 255 255 255 255 255 255 255 255 255 255 255 255 255 255 
255 255 255 254 254 254 253 233 169 136 141 157 148 143 162 161 
154 127 142 143 135 112 98 123 154 106 111 113 119 200 243 252 
254 254 255 255 254 254 254 254 253 250 235 213 188 182 185 176 
155 154 174 252 254 254 255 255 255 255 255 255 255 255 255 255 
255 255 255 255 255 255 255 255 255 255 255 255 255 255 255 255 
255 255 255 255 255 255 255 255 255 255 255 255 255 255 255 255 
255 255 255 255 255 255 255 255 255 255 255 255 255 255 255 255 
255 255 255 255 255 255 255 255 255 255 255 255 255 255 255 255 255 255 255 255 255 255 255 255 
255 255 254 254 254 254 255 255 255 254 255 255 255 254 254 255 
255 255 255 255 255 255 255 255 255 255 255 255 255 255 255 255 
255 255 255 255 255 255 255 255 255 255 255 255 255 255 255 255 
255 255 255 255 255 255 255 255 255 255 255 255 255 255 255 255 
255 255 254 254 254 254 241 197 150 144 154 149 141 158 189 187 
136 104 146 133 137 107 137 167 163 124 158 124 108 117 160 242 
253 254 255 254 255 253 253 252 224 183 162 154 150 149 147 147 
151 143 168 248 254 255 255 255 255 255 255 255 255 255 255 255 
255 255 255 255 255 255 255 255 255 255 255 255 255 255 255 255 
255 255 255 255 255 255 255 255 255 255 255 255 255 255 255 255 
255 255 255 255 255 255 255 255 255 255 255 255 255 255 255 255 
255 255 255 255 255 255 255 255 255 255 255 255 255 255 255 255 255 255 255 255 255 255 255 255 
255 254 255 254 254 254 254 254 254 255 255 255 254 254 254 255 
255 255 255 255 255 255 255 255 255 255 255 255 255 255 255 255 
255 255 255 255 255 255 255 255 255 255 255 255 255 255 255 255 
255 255 255 255 255 255 255 255 255 255 255 255 255 255 255 255 
255 255 254 255 253 247 200 157 161 163 170 165 168 183 214 168 
128 164 142 135 112 132 171 173 166 170 159 78 77 80 105 176 
238 252 253 252 248 236 201 160 130 124 128 115 129 150 142 130 
126 136 161 242 254 255 255 255 255 255 255 255 255 255 255 255 
255 255 255 255 255 255 255 255 255 255 255 255 255 255 255 255 
255 255 255 255 255 255 255 255 255 255 255 255 255 255 255 255 
255 255 255 255 255 255 255 255 255 255 255 255 255 255 255 255 
255 255 255 255 255 255 255 255 255 255 255 255 255 255 255 255 255 255 255 255 255 255 255 255 
255 255 255 254 254 254 254 254 254 254 254 254 254 254 254 255 
255 255 255 255 255 255 255 255 255 255 255 255 255 255 255 255 
255 255 255 255 255 255 255 255 255 255 255 255 255 255 255 255 
255 255 255 255 255 255 255 255 255 255 255 255 255 255 255 255 
255 255 254 252 232 190 166 137 133 156 126 88 137 192 206 156 
201 165 150 120 126 174 170 164 146 152 125 89 75 95 119 129 
154 188 181 161 150 122 120 120 112 122 145 155 148 143 142 130 
120 121 153 240 254 255 255 255 255 255 255 255 255 255 255 255 
255 255 255 255 255 255 255 255 255 255 255 255 255 255 255 255 
255 255 255 255 255 255 255 255 255 255 255 255 255 255 255 255 
255 255 255 255 255 255 255 255 255 255 255 255 255 255 255 255 
255 255 255 255 255 255 255 255 255 255 255 255 255 255 255 255 255 255 255 255 255 255 255 255 
255 255 254 254 254 253 252 251 251 253 254 254 255 254 255 255 
255 255 255 255 255 255 255 255 255 255 255 255 255 255 255 255 
255 255 255 255 255 255 255 255 255 255 255 255 255 255 255 255 
255 255 255 255 255 255 255 255 255 254 254 255 254 255 255 255 
255 255 252 218 156 144 122 104 110 100 69 47 36 113 205 201 
171 184 148 145 170 173 125 160 153 115 111 115 90 118 123 112 
116 116 87 67 69 91 91 121 135 129 118 117 131 135 132 124 
118 118 161 241 253 255 255 255 255 255 255 255 255 255 255 255 
255 255 255 255 255 255 255 255 255 255 255 255 255 255 255 255 
255 255 255 255 255 255 255 255 255 255 255 255 255 255 255 255 
255 255 255 255 255 255 255 255 255 255 255 255 255 255 255 255 
255 255 255 255 255 255 255 255 255 255 255 255 255 255 255 255 255 255 255 255 252 249 248 251 
254 254 253 254 246 193 174 163 154 155 168 187 214 244 253 255 
255 255 255 255 255 255 255 255 255 255 255 255 255 255 255 255 
255 255 255 255 255 255 255 255 255 255 255 255 255 255 255 255 
255 255 255 255 255 255 255 255 255 255 255 255 254 255 255 254 
255 254 226 148 137 175 178 124 78 77 47 25 39 58 230 194 
190 186 176 194 171 162 164 189 124 79 99 137 112 99 104 102 
120 108 79 38 74 87 96 120 126 137 143 126 113 123 131 118 
103 115 164 248 254 255 255 255 255 255 255 255 255 255 255 255 
255 255 255 255 255 255 255 255 255 255 255 255 255 255 255 255 
255 255 255 255 255 255 255 255 255 255 255 255 255 255 255 255 
255 255 255 255 255 255 255 255 255 255 255 255 255 255 255 255 
255 255 255 255 255 255 255 255 255 255 255 255 255 254 254 255 254 223 177 151 138 131 127 124 
127 125 136 144 152 174 177 184 188 181 164 145 122 102 115 161 
208 240 253 254 254 255 254 254 254 255 255 255 255 255 255 255 
255 255 255 255 255 255 255 255 255 255 255 255 255 255 255 255 
255 255 255 255 255 255 255 255 255 255 255 255 255 253 253 253 
251 245 179 133 149 201 215 57 91 121 27 24 105 79 234 177 
199 184 195 188 152 176 189 162 102 99 142 137 113 110 94 114 
129 99 88 40 56 87 113 132 134 122 127 144 141 120 109 97 
94 117 169 252 254 255 255 255 255 255 255 255 255 255 255 255 
255 255 255 255 255 255 255 255 255 255 255 255 255 255 255 255 
255 255 255 255 255 254 255 255 255 255 255 254 254 255 255 255 
255 254 255 255 255 255 255 255 255 255 255 255 255 255 255 255 
255 255 255 255 255 255 255 254 254 254 254 255 255 254 254 255 251 181 164 170 177 186 188 188 
178 170 155 124 84 74 106 137 154 163 169 172 173 165 149 121 
89 95 133 191 239 253 253 254 254 255 255 255 255 255 255 255 
255 255 255 255 255 255 255 255 255 255 255 255 255 255 255 255 
255 255 255 255 255 255 255 255 255 255 255 255 254 254 254 250 
250 207 162 148 134 184 191 20 119 150 53 66 108 171 209 191 
190 192 180 159 136 187 176 127 139 162 145 126 109 112 86 87 
123 137 108 48 58 80 121 139 129 117 110 94 91 89 77 73 
86 131 207 253 254 255 255 255 255 255 255 255 255 255 255 255 
255 255 255 255 255 255 255 255 255 255 255 255 255 255 255 255 
255 255 255 255 255 255 255 255 255 255 254 254 255 255 255 255 
255 255 255 255 255 255 255 255 255 255 255 255 255 255 255 255 
255 255 255 255 255 255 255 254 254 255 255 255 255 255 254 255 255 242 194 158 145 141 147 162 
174 183 183 179 172 156 132 124 128 132 143 147 145 141 136 135 
140 132 104 79 71 119 181 231 250 253 254 254 255 255 255 255 
255 255 255 255 255 255 255 255 255 255 255 255 255 255 255 255 
255 255 255 255 255 255 255 255 255 255 255 255 254 255 255 253 
235 175 157 127 130 141 184 45 74 127 82 67 131 214 197 196 
202 174 161 150 161 203 154 148 194 188 150 122 116 98 95 77 
122 152 113 90 81 102 131 157 156 129 71 85 72 72 66 71 
99 148 229 254 254 255 255 255 255 255 255 255 255 255 255 255 
255 255 255 255 255 255 255 255 255 255 255 255 255 255 255 255 
255 255 255 255 255 255 255 255 255 255 255 255 255 255 255 255 
255 255 255 255 255 255 255 255 255 255 255 255 255 255 255 255 
255 255 255 255 255 255 255 254 255 255 254 254 254 254 254 254 254 254 253 249 233 214 196 179 
157 155 162 171 180 180 167 152 136 122 114 126 137 140 135 124 
115 112 114 115 98 71 57 78 129 198 245 252 253 254 254 255 
254 255 255 254 255 255 255 255 255 255 255 255 255 255 255 255 
255 255 255 255 255 255 255 255 255 255 253 252 254 254 254 252 
210 168 148 108 142 174 168 158 111 89 74 104 192 190 204 197 
175 154 169 201 226 225 168 155 182 173 141 137 115 96 97 87 
105 145 136 102 94 100 135 178 180 151 84 58 63 53 65 96 
120 170 248 254 255 255 255 255 255 255 255 255 255 255 255 255 
255 255 255 255 255 255 255 255 255 255 255 255 255 255 255 255 
255 255 255 255 255 254 254 254 255 255 255 254 254 254 254 255 
255 255 255 255 255 255 255 255 255 255 255 255 255 255 255 255 
255 255 255 255 255 255 255 255 255 254 254 254 246 230 212 195 186 184 182 181 181 182 186 190 
197 192 175 158 158 166 165 162 164 156 140 123 113 114 120 125 
124 117 111 106 103 107 105 81 61 65 98 177 231 242 251 253 
255 253 254 255 255 255 255 255 254 255 255 255 255 255 255 255 
255 255 255 255 255 255 255 255 255 255 255 254 251 249 252 247 
191 164 129 130 138 148 170 151 148 149 171 196 204 194 189 201 
182 168 223 239 217 120 30 7 34 125 181 155 119 104 108 95 
99 135 136 106 94 105 97 128 155 137 74 43 44 57 92 115 
137 223 253 254 255 255 255 255 255 255 255 255 255 255 255 255 
255 255 255 255 255 255 255 255 255 255 255 255 255 255 255 255 
255 255 255 255 255 254 254 254 254 254 254 253 253 254 254 255 
255 255 255 255 255 255 255 255 255 255 255 255 255 255 255 255 
255 255 255 255 255 255 255 255 255 255 252 213 175 165 163 169 169 167 169 167 167 163 156 152 
144 133 126 117 111 109 118 127 144 153 146 134 134 129 123 119 
109 107 111 114 116 121 123 118 115 102 73 56 87 142 172 210 
249 252 254 254 254 254 254 254 254 255 255 255 255 255 255 255 
255 255 255 255 255 255 255 255 255 255 254 255 254 254 250 237 
197 140 125 131 151 149 147 170 176 150 161 156 176 201 200 195 
193 201 230 185 66 13 29 17 19 18 118 185 144 115 100 93 
99 126 158 105 43 49 48 36 62 80 48 34 43 70 96 133 
177 252 254 255 255 255 255 255 255 255 255 255 255 255 255 255 
255 255 255 255 255 255 255 255 255 255 255 255 255 255 255 255 
255 255 255 255 255 254 255 255 254 251 230 215 217 227 249 255 
255 255 255 255 255 255 255 255 255 255 255 255 255 255 255 255 
255 255 255 255 255 255 255 255 255 255 254 245 226 218 206 194 183 177 174 172 168 160 154 149 
153 157 158 157 152 148 147 144 141 138 134 125 128 133 136 138 
152 160 151 124 112 133 154 166 162 154 142 123 91 57 61 106 
130 188 220 200 198 202 219 243 253 255 254 254 254 254 254 255 
255 255 255 255 255 255 255 255 255 255 255 255 255 254 255 239 
170 168 186 187 174 134 131 197 116 72 82 104 136 165 173 170 
157 136 97 46 7 69 56 6 46 57 42 182 168 134 117 105 
91 114 146 141 64 33 36 25 16 28 28 38 49 74 97 136 
225 253 255 255 255 255 255 255 255 255 255 255 255 255 255 255 
255 255 255 255 255 255 255 255 255 255 255 255 255 255 255 255 
255 254 254 253 239 210 172 146 140 140 157 170 179 185 220 254 
253 245 235 229 223 218 221 230 238 250 254 254 255 254 254 255 
255 255 255 255 255 255 255 255 255 255 249 216 187 168 153 149 151 150 148 147 143 137 131 126 
120 117 116 118 119 123 134 145 152 162 157 149 140 130 128 142 
165 178 189 189 173 163 155 147 173 178 178 181 172 156 114 106 
137 123 155 189 187 187 176 176 205 242 253 254 254 254 254 255 
255 255 255 255 255 255 255 255 255 255 255 255 255 255 255 221 
156 168 192 191 144 152 200 206 69 74 91 64 72 108 101 115 
113 50 54 18 14 107 70 7 126 157 36 142 176 138 125 107 
107 111 154 168 123 94 95 23 9 12 22 40 53 93 127 194 
250 253 255 255 255 255 255 255 255 255 255 255 255 255 255 255 
255 255 254 254 254 255 255 255 255 255 255 255 255 254 254 254 
253 236 187 134 105 106 131 151 161 165 173 180 174 160 162 149 
130 122 122 133 147 158 163 166 166 184 240 254 255 254 254 255 
255 255 255 255 255 255 255 255 255 254 231 185 176 174 171 179 177 180 184 184 184 183 184 186 
182 179 176 170 164 156 143 138 144 162 171 176 174 168 158 146 
144 157 176 190 192 195 198 192 176 183 157 179 192 184 169 163 
149 155 195 183 189 180 185 200 188 184 213 246 253 255 255 255 
255 255 255 255 255 255 255 255 255 255 255 255 255 255 255 223 
178 165 192 182 168 187 202 215 100 62 64 27 47 58 96 117 
116 84 84 73 11 96 85 66 104 147 50 118 161 139 126 121 
108 93 129 159 165 141 67 12 14 13 37 87 106 148 205 249 
253 254 255 254 254 255 255 255 255 255 255 255 255 255 255 255 
255 255 254 254 254 254 255 255 255 255 255 255 254 252 232 180 
119 81 89 112 129 131 132 136 138 136 134 116 95 89 123 151 
172 184 189 189 193 191 189 190 190 208 242 253 255 254 254 255 
255 255 255 255 255 255 255 255 255 255 252 226 197 179 170 172 169 173 175 177 185 188 191 188 
190 188 185 180 179 174 167 157 148 142 143 151 166 182 185 181 
178 168 159 157 166 183 199 202 200 198 195 178 159 170 152 151 
175 180 199 213 200 176 172 182 194 204 190 191 233 253 254 255 
255 254 255 255 255 255 255 255 255 255 255 255 255 255 252 212 
179 183 200 176 167 191 203 203 130 27 35 34 39 82 137 155 
143 111 131 198 63 41 97 108 113 105 61 141 135 143 145 141 
123 96 101 132 156 143 55 9 12 33 60 144 155 167 243 253 
254 254 254 254 255 255 255 255 255 255 255 255 255 255 255 255 
255 255 254 254 254 255 254 255 255 254 255 242 190 127 81 70 
95 110 108 103 100 103 109 112 114 115 115 128 150 166 176 177 
181 181 178 170 163 156 158 182 213 247 253 255 255 254 254 255 
255 255 255 255 255 255 255 255 255 255 253 253 252 249 224 183 145 130 129 138 143 151 156 165 
166 175 174 172 175 173 170 175 177 175 173 167 158 144 143 158 
170 180 186 190 185 176 181 176 167 177 180 187 189 199 218 223 
224 231 233 233 224 187 172 182 182 182 193 196 182 215 252 254 
255 255 255 255 255 255 255 255 255 255 255 255 254 255 252 231 
216 225 211 171 177 203 196 166 118 55 143 199 196 210 185 186 
165 154 157 179 205 141 51 45 50 102 181 196 144 142 150 153 
154 111 96 115 140 92 8 4 25 74 104 182 175 208 252 254 
254 254 254 255 255 255 255 255 255 255 255 255 255 255 255 255 
255 255 255 255 254 254 254 254 252 223 156 87 70 74 86 103 
103 95 96 99 102 104 110 119 128 138 149 154 160 167 173 176 
171 170 178 199 216 234 250 253 254 255 254 254 255 255 254 255 
255 255 255 255 255 255 255 255 255 255 253 253 252 230 172 146 142 138 139 142 143 147 149 150 
148 150 154 159 167 169 172 177 177 180 183 185 184 179 181 179 
172 164 165 166 169 184 197 200 197 198 202 177 183 211 226 232 
211 222 226 232 229 225 172 154 180 167 175 188 199 187 210 254 
254 255 255 255 255 255 255 255 255 255 255 255 255 255 254 230 
180 210 230 223 189 186 176 131 63 103 165 222 200 197 188 123 
119 138 161 150 163 178 185 169 196 220 234 226 182 141 145 153 
157 144 111 84 94 55 11 30 106 169 195 192 159 239 253 255 
254 254 254 255 255 255 255 255 255 255 255 255 255 255 255 255 
255 255 255 255 254 253 240 204 158 86 70 78 93 106 101 97 
100 101 99 104 115 128 133 131 139 149 155 164 165 162 175 198 
224 245 254 254 254 254 254 254 254 254 255 255 255 255 254 255 
255 255 255 255 255 255 255 255 255 255 254 252 252 245 203 168 162 160 164 158 160 168 169 175 
171 161 159 157 153 154 163 171 175 178 184 189 189 191 193 191 
180 197 200 195 188 185 178 181 195 196 190 201 210 213 234 235 
213 233 234 237 239 233 208 162 188 205 198 170 175 197 195 211 
253 254 255 255 255 255 255 255 255 255 255 255 254 255 255 238 
179 182 223 219 196 171 106 81 57 98 162 194 208 201 130 148 
113 78 148 169 158 153 168 160 137 153 141 156 153 116 122 139 
146 149 115 99 96 55 56 105 155 182 183 153 184 253 253 254 
255 255 255 255 255 255 255 255 255 255 255 255 255 255 255 255 
255 255 254 248 214 155 127 108 80 97 119 122 122 125 122 111 
108 125 146 150 137 133 134 140 139 145 158 182 210 240 251 254 
254 254 254 254 254 254 254 254 254 255 254 255 255 254 254 255 
255 255 255 255 255 255 255 255 255 255 254 253 253 252 247 227 201 184 162 157 159 164 169 166 
174 182 184 181 176 169 163 158 154 149 143 141 157 171 173 162 
190 202 201 200 204 205 201 203 204 209 214 219 223 229 238 202 
191 228 236 237 236 232 217 184 195 204 216 207 182 176 192 198 
222 254 254 255 255 255 255 255 255 255 254 254 254 255 255 245 
216 173 197 240 205 181 172 154 123 96 164 200 210 167 165 120 
155 148 121 150 145 129 126 140 131 123 129 130 134 122 116 127 
128 158 142 108 106 87 71 130 163 158 133 144 233 254 254 255 
255 255 255 255 255 255 255 255 254 254 255 254 254 254 255 254 
254 248 215 168 147 160 127 143 152 158 163 163 160 151 140 151 
172 176 169 157 150 137 125 125 128 137 162 175 183 186 190 193 
191 187 186 184 184 187 190 192 195 198 199 206 215 230 248 253 
254 254 255 255 255 255 255 255 255 255 255 255 255 253 253 253 253 252 250 235 217 211 198 193 
176 163 166 166 167 164 165 165 165 164 160 164 166 169 165 166 
176 180 184 193 193 194 201 205 202 208 218 221 223 223 195 159 
206 222 220 221 218 220 225 225 213 211 215 221 211 199 197 194 
205 235 253 254 255 255 255 255 255 255 255 255 255 255 255 241 
228 197 197 242 245 237 220 188 161 128 140 199 194 182 135 156 
143 178 190 145 153 120 124 111 116 140 113 139 161 159 122 112 
129 141 144 118 113 120 112 132 150 106 122 194 252 254 254 255 
255 255 255 255 255 255 255 255 255 255 255 254 253 252 247 241 
227 209 197 199 161 128 174 197 205 202 199 178 182 187 194 190 
183 190 182 163 141 134 138 148 160 168 169 175 179 179 182 184 
184 185 188 193 197 198 198 201 199 198 198 192 186 177 174 189 
226 253 254 254 255 255 255 255 255 255 255 255 255 254 254 254 254 254 253 253 253 245 224 203 
191 172 160 153 154 160 164 168 169 170 172 173 178 183 184 189 
187 190 191 188 186 187 192 193 187 208 209 217 208 222 198 149 
191 214 209 231 240 237 231 233 235 223 221 225 221 205 213 196 
207 218 233 253 254 255 255 255 255 255 255 255 255 255 255 245 
233 213 193 236 252 251 236 220 194 163 142 199 215 186 183 127 
192 151 169 159 164 136 124 132 120 139 128 144 172 174 129 92 
108 137 142 132 125 106 123 141 148 110 164 245 254 254 254 255 
255 255 255 255 255 255 255 255 255 254 254 243 230 208 192 183 
179 179 179 178 187 168 110 134 194 212 213 212 207 206 202 205 
190 171 167 175 184 194 201 204 207 207 207 203 198 189 182 183 
194 201 209 215 221 227 232 235 240 240 240 240 238 234 228 230 
240 252 254 255 255 255 255 255 255 255 255 255 255 254 254 254 254 255 255 253 242 193 180 175 
172 177 181 184 189 191 190 189 189 188 183 183 182 184 185 184 
185 185 191 193 197 199 204 205 201 194 192 201 190 217 201 196 
224 227 221 235 234 227 229 236 231 212 219 224 223 196 214 211 
212 215 217 237 253 255 255 255 255 255 255 255 255 255 255 249 
224 218 186 218 249 253 251 240 234 198 181 179 226 217 189 196 
169 205 190 176 189 180 126 144 133 150 176 188 179 147 115 94 
101 135 135 128 115 101 111 138 119 136 223 254 254 254 255 255 
255 255 255 255 255 254 254 253 252 235 211 195 197 207 209 198 
189 193 202 199 177 160 158 150 136 168 205 213 219 220 205 189 
185 194 206 215 215 213 211 211 209 205 192 175 162 162 186 204 
209 213 216 218 220 222 226 230 234 239 241 247 252 253 253 254 
254 254 254 255 254 255 255 255 255 255 255 255 255 255 254 254 254 255 255 254 241 190 173 171 
172 181 182 182 190 195 191 194 191 188 186 185 182 182 182 178 
185 191 193 199 201 207 209 208 206 201 208 207 216 221 176 223 
232 234 230 204 198 225 227 201 192 200 227 236 227 222 180 201 
224 218 220 220 236 254 255 255 255 255 255 255 255 255 255 252 
226 202 186 189 237 254 253 246 249 224 214 193 196 206 213 210 
211 209 217 216 219 218 198 190 168 136 157 184 187 125 104 100 
95 124 136 131 123 101 108 101 113 195 247 254 254 254 254 255 
255 255 255 255 255 254 252 234 206 205 212 214 210 210 203 192 
178 186 209 239 233 216 220 218 214 209 206 201 206 209 210 214 
213 207 206 207 208 206 203 192 188 177 169 172 180 188 190 189 
186 184 182 184 179 178 177 177 177 181 183 183 183 192 209 226 
244 254 254 254 254 255 255 255 255 255 255 255 255 255 255 255 254 253 253 255 252 234 196 177 
173 172 161 177 187 184 187 185 179 178 174 174 174 174 175 178 
185 184 189 191 196 206 204 206 207 206 204 215 210 216 211 217 
235 229 219 229 228 189 176 225 236 237 241 242 232 205 194 187 
231 230 231 236 229 244 252 255 255 255 255 255 255 255 255 251 
231 199 198 202 216 250 254 250 252 233 224 221 197 176 160 175 
212 221 226 231 223 212 192 182 164 126 98 145 185 167 119 81 
87 111 119 115 117 90 93 104 146 233 253 254 254 255 255 255 
255 255 254 255 254 245 208 189 214 215 238 211 197 192 195 210 
228 239 248 246 211 165 228 230 227 225 223 222 218 219 215 210 
203 190 181 178 180 179 184 189 196 200 202 206 203 207 210 208 
211 210 209 211 209 205 201 200 197 197 195 192 190 187 182 182 
185 211 249 254 254 255 255 255 255 255 255 255 255 255 255 255 255 255 255 255 255 254 251 239 
225 207 194 185 167 160 161 159 163 164 169 171 170 172 177 183 
187 187 189 193 198 200 203 202 205 202 204 204 212 218 219 225 
240 234 234 232 214 229 234 239 237 240 247 246 245 235 230 228 
226 242 238 229 226 234 240 248 254 254 254 254 254 255 255 254 
241 193 189 203 215 236 249 253 252 243 233 239 228 210 190 161 
181 208 220 231 222 205 182 173 141 135 112 135 168 171 132 82 
86 97 114 98 102 97 106 142 219 253 254 254 255 255 255 254 
255 255 255 252 233 215 217 220 219 231 234 214 202 229 244 251 
252 252 250 248 232 248 240 215 218 228 225 213 212 205 203 204 
208 212 212 211 212 207 209 207 200 204 203 201 202 202 201 208 
208 205 208 209 208 203 201 196 193 184 182 179 177 174 179 188 
197 228 252 255 254 255 255 255 255 255 255 255 255 255 255 255 255 255 255 255 254 255 254 254 
254 254 251 221 187 175 171 169 174 178 180 185 189 193 192 194 
196 189 194 194 197 198 199 202 202 204 209 215 218 218 216 217 
233 227 229 236 245 238 229 236 243 244 248 240 246 240 234 239 
230 241 238 231 224 231 232 229 246 253 254 254 255 255 255 254 
248 201 178 195 210 220 235 248 248 244 238 239 239 235 229 217 
217 221 226 221 222 214 206 172 140 120 116 117 163 184 141 104 
77 79 100 113 106 112 130 225 253 254 254 254 255 255 255 254 
254 254 246 221 231 236 232 240 232 229 236 227 243 250 249 241 
244 250 252 252 228 244 248 240 233 228 227 227 227 229 228 225 
224 223 220 217 217 210 210 209 206 202 202 200 194 195 192 187 
188 183 169 178 174 179 191 204 206 210 216 219 223 232 236 241 
250 253 255 255 255 255 255 255 255 255 255 255 255 255 255 255 255 255 255 255 255 255 255 254 
254 254 251 199 184 183 188 186 194 200 202 206 204 202 199 196 
194 197 195 191 191 190 197 196 197 198 205 209 212 213 214 214 
204 234 236 240 235 226 232 241 242 247 245 244 247 227 239 233 
230 239 244 242 236 218 227 232 241 235 252 254 255 255 254 253 
251 197 154 168 184 204 221 239 243 233 230 232 231 234 229 225 
228 223 216 200 194 198 208 205 184 134 125 113 127 161 169 134 
78 55 66 92 112 131 183 243 254 255 255 255 255 255 255 254 
252 231 209 227 244 239 245 234 228 242 244 240 250 247 244 242 
247 233 230 252 244 221 245 245 241 239 238 233 227 229 227 226 
222 224 222 217 217 211 213 208 208 208 202 202 196 185 180 175 
165 163 160 163 164 169 176 189 203 219 237 252 253 254 254 254 
254 255 255 255 254 255 255 255 255 255 255 255 255 255 255 255 255 255 255 255 255 255 255 255 
255 255 254 231 193 186 177 181 185 184 189 194 194 192 190 185 
183 183 180 182 182 188 190 194 196 198 204 209 212 213 213 214 
212 222 234 231 217 244 243 246 238 238 240 242 226 228 224 222 
226 225 237 237 234 227 181 210 237 226 232 249 253 254 255 252 
227 179 140 135 159 183 207 227 223 207 204 206 199 214 205 205 
218 197 196 161 162 148 152 161 167 165 135 120 90 117 140 133 
118 62 66 92 108 169 233 254 254 255 255 255 254 254 253 241 
231 228 234 243 248 246 221 186 171 229 214 236 239 246 240 228 
230 222 193 195 210 149 199 234 234 230 232 228 197 222 224 218 
218 216 213 209 201 194 189 186 179 178 179 179 181 184 190 200 
202 207 207 207 202 198 193 190 184 178 174 181 202 232 252 254 
254 255 255 255 255 255 255 255 255 255 255 255 255 255 255 255 255 255 255 255 255 255 255 255 
255 255 254 251 228 200 191 190 179 180 185 185 180 178 173 172 
177 179 181 185 189 191 197 202 205 209 209 211 212 210 212 214 
213 198 219 205 239 242 242 245 221 216 229 238 236 244 231 238 
228 163 223 232 233 232 212 197 233 242 240 219 228 252 254 248 
200 159 144 128 118 160 197 205 205 191 178 177 172 181 165 173 
192 157 159 129 123 115 91 105 141 147 140 133 120 88 87 97 
94 92 83 104 124 207 248 255 254 255 254 254 253 244 220 211 
235 247 249 247 250 209 172 205 206 241 241 251 246 238 246 249 
209 231 250 249 240 202 224 233 232 224 224 228 223 223 222 221 
216 215 213 210 207 212 206 202 201 196 201 202 199 203 203 203 
208 209 207 210 213 209 204 197 192 189 184 182 181 188 226 254 
254 254 255 255 255 255 255 255 255 255 255 255 255 255 255 255 255 255 255 255 255 255 255 255 
255 255 254 254 254 253 252 251 251 239 200 165 165 169 173 177 
182 190 200 205 207 213 217 215 214 212 205 203 201 202 205 213 
195 208 214 221 241 243 241 223 211 201 237 244 246 246 232 231 
234 222 199 223 219 230 221 231 246 243 241 236 209 214 241 214 
155 144 131 117 106 107 146 181 194 196 193 192 174 176 159 162 
165 131 134 131 108 122 122 134 118 146 138 121 116 112 106 103 
110 115 124 122 163 234 253 254 253 254 253 245 229 204 220 236 
249 252 253 253 247 237 240 231 250 252 252 250 253 253 252 250 
219 179 209 247 231 170 245 238 231 224 231 231 203 223 224 223 
221 220 219 218 216 213 214 202 198 192 189 192 195 194 201 208 
205 210 208 196 193 204 198 193 187 188 188 190 194 214 245 255 
255 255 255 255 255 255 255 255 255 255 255 255 255 255 255 255 255 255 255 255 255 255 255 255 
255 255 255 255 255 254 254 254 253 217 192 190 190 192 199 205 
213 216 217 214 211 213 212 208 203 197 196 196 196 197 205 212 
204 211 207 217 234 227 230 204 142 235 247 248 245 218 214 229 
242 203 153 187 190 197 221 243 249 248 246 242 234 213 196 166 
127 120 115 118 125 119 127 145 163 194 205 186 181 181 181 184 
183 172 167 172 173 185 184 177 176 172 154 153 147 139 126 136 
138 133 127 124 159 235 254 254 253 244 213 214 222 233 237 248 
252 253 254 253 249 252 249 249 252 252 250 246 242 253 253 247 
233 250 245 249 239 209 238 236 236 229 224 226 220 207 219 220 
218 217 213 210 210 210 209 206 201 194 190 188 189 185 181 182 
185 184 196 201 193 193 200 194 198 211 218 227 237 249 254 255 
255 255 255 255 254 255 255 255 255 255 255 255 255 255 255 255 255 255 255 255 255 255 255 255 
255 255 255 255 255 255 255 255 253 206 195 197 197 202 210 206 
208 209 205 207 205 198 195 190 185 190 194 196 200 211 215 220 
217 220 220 221 220 219 214 204 220 245 250 243 189 192 239 239 
233 130 163 147 170 154 222 240 246 248 242 239 238 232 207 149 
119 101 94 89 79 81 101 131 157 165 185 190 169 143 166 169 
184 175 180 188 179 181 187 181 175 192 181 170 170 170 166 168 
159 144 136 136 167 231 253 250 225 188 183 237 247 233 218 220 
244 253 252 246 236 248 252 246 252 249 251 252 252 244 243 247 
233 237 252 249 241 227 229 226 237 235 234 217 222 226 213 223 
227 222 219 205 205 203 197 199 202 201 200 198 194 192 187 186 
187 183 187 207 229 246 252 254 254 255 254 255 255 255 255 255 
255 255 255 255 255 255 255 255 255 255 255 255 255 255 255 255 255 255 255 255 255 255 255 255 
255 255 255 255 255 255 255 255 253 226 200 199 204 201 198 198 
203 199 198 198 192 184 186 183 179 187 203 212 220 223 220 218 
220 223 222 222 218 217 202 203 240 239 241 220 183 234 232 226 
163 142 210 184 188 153 196 238 242 233 227 245 237 233 199 127 
96 82 78 86 94 119 144 148 171 168 164 186 174 147 146 176 
156 148 144 160 168 152 159 153 147 136 148 160 163 144 141 136 
139 128 117 138 206 237 242 211 186 214 238 252 250 241 238 238 
245 249 252 242 249 241 248 248 245 251 244 244 247 235 245 241 
250 243 241 227 239 239 236 228 226 229 234 213 206 226 216 205 
215 219 217 214 201 205 201 191 202 207 207 211 212 209 214 211 
199 203 197 192 189 196 221 250 254 255 255 255 255 255 255 255 
255 255 255 255 255 255 255 255 255 255 255 255 255 255 255 255 255 255 255 255 255 255 255 255 
255 255 255 255 255 255 255 255 255 249 215 194 185 189 195 199 
195 194 184 175 167 169 176 188 208 217 219 223 219 217 215 217 
217 218 218 214 217 216 197 198 223 240 222 205 213 222 205 203 
208 225 192 209 204 163 136 216 225 197 222 228 237 223 169 136 
105 80 76 86 83 81 100 143 165 135 168 199 203 141 108 168 
150 124 106 107 131 123 133 112 109 100 94 110 122 133 104 102 
102 107 118 140 199 218 212 226 245 252 253 253 252 249 247 246 
237 221 233 223 204 243 246 251 243 244 252 250 237 237 240 239 
246 251 242 218 229 232 236 237 229 225 223 225 212 212 217 208 
201 206 211 213 203 193 198 192 187 192 198 203 210 207 201 207 
206 187 202 195 186 188 191 228 253 255 255 255 255 255 255 255 
255 255 255 255 255 255 255 255 255 255 255 255 255 255 255 255 255 255 255 255 255 255 255 255 
255 255 255 255 255 255 255 255 255 255 250 235 239 242 241 232 
191 167 168 171 183 198 210 218 219 220 218 215 211 209 210 210 
215 214 214 223 218 211 208 208 213 225 217 218 212 195 220 232 
190 236 220 234 220 180 123 168 169 202 217 196 231 186 158 152 
132 106 97 83 68 70 87 83 66 64 143 180 175 127 94 129 
148 127 82 69 78 49 92 89 55 78 84 81 82 95 96 99 
102 114 129 158 213 237 242 248 252 252 254 253 253 249 248 240 
218 180 188 197 195 207 249 250 250 237 238 247 250 251 237 215 
215 231 241 234 220 227 230 230 228 223 223 220 221 212 203 208 
200 208 205 207 207 199 191 195 191 181 182 179 189 205 208 196 
202 196 181 195 188 194 202 243 254 255 255 255 255 255 255 255 
255 255 255 255 255 255 255 255 255 255 255 255 255 255 255 255 255 255 255 255 255 255 255 255 
255 255 255 255 255 255 255 255 255 254 253 253 254 254 243 192 
182 185 189 200 212 218 222 217 218 213 206 203 201 207 205 205 
211 218 224 225 210 213 217 219 220 226 226 182 209 228 240 180 
184 241 230 223 224 190 152 161 116 184 195 198 210 137 130 139 
126 106 101 100 108 125 142 133 114 122 126 115 93 55 45 77 
78 110 60 42 60 58 65 68 59 66 86 114 124 123 107 87 
85 108 132 174 235 242 247 252 251 253 253 253 250 236 237 222 
222 196 180 206 189 192 235 245 249 251 251 246 247 246 245 236 
222 216 225 237 235 233 229 226 226 220 215 212 211 210 199 198 
199 198 212 205 208 210 209 203 202 193 185 178 171 162 172 184 
195 198 201 202 223 231 250 254 254 255 255 255 255 255 255 255 
255 255 255 255 255 255 255 255 255 255 255 255 255 255 255 255 255 255 255 255 255 255 255 255 
255 255 255 255 255 255 255 255 255 254 254 254 254 254 233 195 
196 201 207 213 217 218 217 209 204 202 197 201 203 205 209 218 
222 220 218 217 200 215 216 224 231 228 201 206 222 233 231 173 
236 244 193 206 223 195 162 164 145 130 171 210 181 120 124 136 
146 153 145 150 169 182 194 209 205 168 155 127 106 79 77 72 
60 59 41 36 43 49 34 57 75 69 81 104 117 112 107 86 
76 93 122 176 238 249 248 250 249 248 244 244 243 209 192 189 
231 234 189 231 218 170 163 246 242 243 246 252 250 237 240 238 
235 227 222 228 234 232 232 234 233 229 220 215 211 207 203 198 
194 190 196 205 200 212 214 214 218 217 212 206 196 190 189 190 
221 252 253 254 253 254 255 253 254 255 255 255 255 255 255 255 
255 255 255 255 255 255 255 255 255 255 255 255 255 255 255 255 255 255 255 255 255 255 255 255 
255 255 255 255 255 255 255 255 255 255 255 255 254 255 242 211 
210 209 211 212 211 206 199 195 191 190 196 200 208 219 221 220 
213 207 211 201 205 215 227 232 226 220 217 223 225 234 224 213 
236 187 162 224 180 194 157 159 188 178 171 182 171 117 93 113 
144 168 179 202 213 220 222 220 201 211 230 217 185 171 161 148 
125 123 91 70 37 84 85 90 92 102 79 76 78 87 80 75 
80 98 114 168 227 247 238 217 231 241 236 234 220 178 162 222 
239 248 193 185 245 232 202 207 245 238 241 251 246 242 232 235 
237 235 224 223 226 230 227 226 228 234 232 229 225 219 217 204 
188 186 183 191 192 197 209 210 211 215 208 203 205 201 200 201 
222 253 255 255 255 255 255 255 255 255 255 255 255 255 255 255 
255 255 255 255 255 255 255 255 255 255 255 255 255 255 255 255 255 255 255 255 255 255 255 255 
255 255 255 255 255 255 255 255 255 255 255 255 255 254 254 234 
211 209 208 199 187 187 189 190 186 200 211 218 221 220 216 212 
202 195 197 198 219 228 227 227 223 219 223 227 226 230 227 221 
227 187 209 200 173 225 140 185 199 205 175 147 135 93 88 90 
104 136 172 188 188 195 208 220 230 242 247 235 210 216 204 205 
184 178 161 143 105 57 71 99 99 87 88 101 114 113 111 120 
117 112 124 151 211 235 223 170 200 239 224 198 173 186 180 237 
222 244 241 176 233 243 237 211 237 234 239 241 241 219 214 231 
235 235 225 225 221 226 225 220 219 224 223 228 231 228 225 223 
222 208 192 180 179 181 189 201 208 210 211 211 194 200 202 219 
250 254 255 255 255 255 255 255 255 255 255 255 255 255 255 255 
255 255 255 255 255 255 255 255 255 255 255 255 255 255 255 255 255 255 255 255 255 255 255 255 
255 255 255 255 255 255 255 255 255 255 255 255 255 254 254 252 
232 207 187 177 180 183 190 198 215 220 221 218 208 203 209 194 
191 197 212 223 224 226 225 222 219 226 228 226 227 224 215 220 
224 224 219 198 167 180 142 220 202 218 220 180 156 112 95 93 
101 123 137 124 111 123 168 200 232 247 250 242 217 220 216 193 
217 183 182 192 185 132 95 83 91 103 118 153 168 169 160 164 
161 147 145 150 194 214 240 171 175 217 166 147 178 181 162 241 
221 234 248 229 237 238 241 239 237 233 238 236 236 225 225 225 
228 238 213 228 228 223 221 223 218 215 214 212 219 225 226 224 
225 228 224 214 194 177 171 175 183 205 221 227 238 220 238 252 
254 254 255 255 255 255 255 255 255 255 255 255 255 255 255 255 
255 255 255 255 255 255 255 255 255 255 255 255 255 255 255 255 255 255 255 255 255 255 255 255 
255 255 255 255 255 255 255 255 255 255 255 255 255 255 255 254 
252 210 194 192 194 206 217 216 218 211 210 200 196 194 188 185 
199 216 223 224 218 221 218 221 230 229 226 224 225 219 212 213 
226 218 223 210 162 208 194 205 208 227 232 208 171 140 113 95 
72 81 89 85 100 117 124 150 217 237 237 241 213 201 197 184 
214 203 184 207 221 195 160 146 164 179 162 155 180 179 176 176 
156 162 147 176 209 224 246 221 189 172 171 153 198 198 183 228 
243 238 238 188 240 231 235 244 240 239 231 235 242 241 237 220 
226 236 218 209 231 230 230 225 224 218 211 206 206 209 215 221 
221 224 223 224 220 210 198 190 184 198 249 253 254 255 254 254 
255 255 255 255 255 255 255 255 255 255 255 255 255 255 255 255 
255 255 255 255 255 255 255 255 255 255 255 255 255 255 255 255 255 255 255 255 255 255 255 255 
255 255 255 255 255 255 255 255 255 255 255 255 255 255 255 254 
252 207 205 211 218 220 214 213 212 201 188 181 183 190 195 206 
216 220 220 216 213 217 224 229 229 227 226 214 222 226 210 223 
215 218 224 205 198 221 162 168 198 230 231 201 180 170 152 125 
99 101 109 97 85 96 122 144 189 227 227 218 193 158 152 148 
171 193 188 186 213 212 173 182 166 186 169 135 139 145 149 153 
166 158 159 176 215 235 249 211 177 153 206 161 198 218 233 207 
236 208 243 204 234 239 239 236 235 238 236 229 235 240 240 232 
220 229 222 203 226 227 227 231 231 224 220 209 199 196 201 203 
211 213 215 221 221 218 216 215 211 212 249 254 254 255 255 255 
255 255 255 255 255 255 255 255 255 255 255 255 255 255 255 255 
255 255 255 255 255 255 255 255 255 255 255 255 255 255 255 255 255 255 255 255 255 255 255 255 
255 255 255 255 255 255 255 255 255 255 255 255 255 255 254 254 
253 226 220 223 221 209 205 204 195 182 179 183 195 205 215 220 
214 217 217 211 215 223 226 226 226 222 219 227 229 226 214 222 
218 215 215 210 214 223 208 190 171 224 230 193 177 165 165 159 
165 179 176 166 159 169 199 209 226 220 216 216 194 145 124 113 
139 160 142 160 180 178 154 131 142 137 124 110 123 125 111 137 
141 141 151 165 211 238 247 216 162 215 221 130 203 230 246 232 
210 216 241 220 231 235 243 231 231 236 240 238 229 236 238 237 
232 219 223 217 214 226 223 225 229 232 231 227 217 197 183 188 
196 199 204 210 217 216 217 220 222 243 254 254 255 255 255 255 
255 255 255 255 255 255 255 255 255 255 255 255 255 255 255 255 
255 255 255 255 255 255 255 255 255 255 255 255 255 255 255 255 255 255 255 255 255 255 255 255 
255 255 255 255 255 255 255 255 255 255 255 255 255 255 254 254 
255 250 229 220 212 199 198 199 202 195 193 192 205 219 217 217 
207 212 212 216 223 223 222 222 219 217 228 228 226 221 206 223 
212 198 217 210 220 213 205 198 175 200 215 178 171 163 161 178 
187 195 205 215 211 212 206 176 169 172 189 219 215 187 161 116 
117 124 128 118 128 146 128 124 134 131 125 114 132 145 131 134 
152 160 171 164 185 239 244 245 208 229 242 130 210 240 221 179 
234 205 236 232 238 228 242 239 230 230 233 241 239 230 233 235 
233 228 221 223 222 217 218 219 219 231 234 232 230 225 212 194 
179 174 182 204 217 219 211 217 242 254 255 254 255 255 255 255 
255 255 255 255 255 255 255 255 255 255 255 255 255 255 255 255 
255 255 255 255 255 255 255 255 255 255 255 255 255 255 255 255 255 255 255 255 255 255 255 255 
255 255 255 255 255 255 255 255 255 255 255 255 255 255 255 254 
255 253 250 237 221 199 205 208 201 189 194 211 222 218 216 209 
203 215 219 221 221 220 218 215 218 227 229 226 218 208 215 212 
188 209 213 220 210 216 215 199 189 194 178 157 152 152 159 164 
173 193 191 191 196 204 190 164 173 199 188 206 223 198 185 165 
117 123 124 124 138 156 158 171 169 178 150 152 163 169 173 169 
183 191 167 168 171 216 252 252 244 233 244 144 179 203 219 198 
237 221 240 236 232 228 233 239 237 228 228 233 241 239 230 228 
226 228 223 228 227 222 214 211 215 216 230 233 233 232 229 220 
207 197 192 200 243 249 249 248 254 255 255 255 255 255 255 255 
255 255 255 255 255 255 255 255 255 255 255 255 255 255 255 255 
255 255 255 255 255 255 255 255 255 255 255 255 255 255 255 255 255 255 255 255 255 255 255 255 
255 255 255 255 255 255 255 255 255 255 255 255 255 255 255 254 
254 255 254 254 253 239 225 217 198 194 201 223 218 213 211 206 
222 222 221 221 220 215 213 217 225 225 223 216 210 214 224 202 
197 214 215 217 206 212 214 194 193 191 183 162 156 157 155 164 
181 190 207 212 210 195 177 205 222 206 200 179 172 168 193 190 
176 179 167 163 180 199 206 206 218 219 210 197 192 204 201 197 
180 187 182 146 143 188 248 243 223 238 243 220 163 206 241 199 
240 225 242 242 238 228 233 237 242 244 228 226 234 239 237 229 
220 217 222 227 227 228 223 208 207 205 212 227 232 232 231 226 
222 218 211 211 245 254 253 253 254 255 255 255 255 255 255 255 
255 255 255 255 255 255 255 255 255 255 255 255 255 255 255 255 
255 255 255 255 255 255 255 255 255 255 255 255 255 255 255 255 255 255 255 255 255 255 255 255 
255 255 255 255 255 255 255 255 255 255 255 255 255 255 255 254 
254 255 255 254 254 254 249 230 187 194 221 221 210 209 206 220 
221 220 217 217 214 212 215 221 223 219 217 208 217 225 217 203 
199 214 217 212 207 210 202 183 188 197 201 174 162 168 190 202 
214 225 235 238 234 213 211 230 216 192 175 137 142 128 173 211 
202 193 188 194 183 206 215 202 220 220 203 195 177 187 196 194 
172 159 170 148 114 170 240 246 225 229 225 233 192 204 237 220 
243 221 230 240 238 238 230 237 237 244 242 227 228 234 235 233 
227 217 219 218 226 228 227 224 210 201 199 212 226 227 228 229 
226 226 224 229 251 255 255 254 255 255 255 255 255 255 255 255 
255 255 255 255 255 255 255 255 255 255 255 255 255 255 255 255 
255 255 255 255 255 255 255 255 255 255 255 255 255 255 255 255 255 255 255 255 255 255 255 255 
255 255 255 255 255 255 255 255 255 255 255 255 255 255 255 254 
254 255 255 254 253 254 254 228 195 217 224 211 203 209 222 223 
220 215 213 208 208 213 218 219 216 211 205 219 226 223 211 212 
195 215 210 210 206 213 191 143 181 202 201 180 158 168 187 199 
207 211 217 228 211 181 183 189 176 180 160 146 162 115 171 198 
185 179 169 173 167 157 171 163 144 179 169 160 153 132 153 170 
163 152 151 148 102 134 196 240 227 229 211 236 196 182 224 224 
246 233 225 239 235 242 239 231 225 242 243 237 228 225 232 226 
230 227 226 211 221 225 226 231 227 211 199 191 221 224 220 224 
226 224 231 251 254 254 254 254 254 254 254 254 255 255 255 255 
255 255 255 255 255 255 255 255 255 255 255 255 255 255 255 255 
255 255 255 255 255 255 255 255 255 255 255 255 255 255 255 255 255 255 255 255 255 255 255 255 
255 255 255 255 255 255 255 255 255 255 255 255 255 255 255 255 
255 255 255 254 253 254 255 232 210 222 216 200 212 216 223 223 
215 213 201 211 214 216 217 211 206 202 216 223 224 213 206 216 
208 206 211 209 211 203 173 153 186 210 207 179 156 170 183 190 
199 195 200 206 212 210 199 184 156 185 154 162 188 146 180 190 
157 149 142 136 129 133 127 154 141 126 146 136 124 106 110 110 
137 123 124 125 103 112 134 219 234 217 181 230 212 213 226 216 
243 232 238 227 237 239 239 235 215 234 239 239 235 226 229 222 
222 229 227 222 215 218 222 227 234 230 213 200 226 251 245 233 
231 235 249 254 255 255 255 255 255 255 254 254 255 255 255 255 
255 255 255 255 255 255 255 255 255 255 255 255 255 255 255 255 
255 255 255 255 255 255 255 255 255 255 255 255 255 255 255 255 255 255 255 255 255 255 255 255 
255 255 255 255 255 255 255 255 255 255 255 255 255 255 255 255 
255 255 255 254 253 254 254 246 230 223 213 214 206 220 225 216 
212 205 203 218 212 216 212 199 195 207 219 222 216 204 215 211 
202 206 210 213 209 179 171 178 182 201 197 174 153 146 169 205 
220 215 213 214 210 214 217 218 202 179 120 149 165 156 180 169 
118 127 110 102 99 125 148 164 163 123 117 127 117 111 114 109 
118 119 108 105 94 96 120 184 224 216 177 214 202 224 232 225 
237 233 237 236 226 233 237 241 234 223 235 236 233 232 226 227 
220 222 224 226 228 214 218 220 229 239 234 218 205 247 254 255 
254 254 255 254 254 254 254 254 255 255 255 255 255 255 255 255 
255 255 255 255 255 255 255 255 255 255 255 255 255 255 255 255 
255 255 255 255 255 255 255 255 255 255 255 255 255 255 255 255 255 255 255 255 255 255 255 255 
255 255 255 255 255 255 255 255 255 255 255 255 255 255 255 255 
255 255 255 255 255 255 255 255 252 243 215 195 217 226 223 209 
203 205 216 213 212 207 200 192 201 214 218 214 202 207 209 209 
206 212 212 214 191 174 183 178 174 190 188 170 156 150 171 197 
194 181 188 205 218 226 218 199 202 197 169 158 125 149 173 149 
144 116 141 139 145 156 169 174 174 138 106 103 113 118 131 134 
137 134 110 104 89 78 97 126 196 208 192 217 201 219 239 234 
228 235 237 238 236 224 235 239 237 231 227 233 232 231 227 230 
222 218 220 226 229 226 216 215 220 238 242 232 218 236 253 255 
255 255 255 255 255 255 255 255 255 255 255 255 255 255 255 255 
255 255 255 255 255 255 255 255 255 255 255 255 255 255 255 255 
255 255 255 255 255 255 255 255 255 255 255 255 255 255 255 255 255 255 255 255 255 255 255 255 
255 255 255 255 255 255 255 255 255 255 255 255 255 255 255 255 
255 255 255 255 255 254 255 255 254 250 211 207 224 225 213 206 
205 212 218 209 206 197 194 201 208 212 214 204 203 202 196 213 
209 208 210 207 166 190 189 171 183 187 160 148 141 154 160 167 
162 141 123 142 188 222 227 220 205 199 192 181 169 153 185 168 
166 158 181 193 172 182 162 156 155 135 102 103 107 132 157 153 
135 140 133 98 92 84 91 119 168 195 199 228 204 198 236 237 
236 227 236 236 236 231 222 233 235 233 231 224 229 230 228 228 
228 218 216 221 226 231 225 216 212 225 241 241 228 236 254 255 
255 255 255 255 255 255 255 255 255 255 255 255 255 255 255 255 
255 255 255 255 255 255 255 255 255 255 255 255 255 255 255 255 
255 255 255 255 255 255 255 255 255 255 255 255 255 255 255 255 255 255 255 255 255 255 255 255 
255 255 255 255 255 255 255 255 255 255 255 255 255 255 255 255 
255 255 255 255 255 254 255 255 254 253 220 216 221 220 210 210 
202 219 212 204 197 190 201 207 211 211 205 200 193 179 201 205 
206 207 210 189 169 197 186 152 193 176 157 144 148 166 188 187 
159 123 121 139 171 202 219 226 231 213 181 156 147 147 152 147 
139 125 165 186 177 171 141 126 127 135 115 109 125 122 122 150 
145 143 134 95 92 78 82 109 148 189 203 231 211 190 221 234 
239 230 228 234 236 237 224 220 230 230 230 221 225 229 228 225 
229 227 213 215 223 230 232 223 210 211 235 241 233 241 254 255 
255 255 255 255 255 255 255 255 255 255 255 255 255 255 255 255 
255 255 255 255 255 255 255 255 255 255 255 255 255 255 255 255 
255 255 255 255 255 255 255 255 255 255 255 255 255 255 255 255 255 255 255 255 255 255 255 255 
255 255 255 255 255 255 255 255 255 255 255 255 255 255 255 255 
255 255 255 255 255 254 254 255 254 254 239 222 219 221 205 190 
214 217 205 195 188 194 203 207 208 204 196 190 160 179 205 202 
202 208 204 165 187 192 164 153 194 166 144 145 160 175 177 174 
176 188 198 189 179 196 205 227 224 209 137 135 149 113 138 151 
113 107 128 133 140 129 99 107 114 120 131 115 125 126 114 133 
147 158 154 86 81 81 85 102 135 181 198 228 222 195 190 232 
236 236 227 228 234 235 233 221 224 224 225 224 222 225 225 224 
225 228 223 214 218 223 235 233 215 207 230 242 242 253 255 255 
255 255 255 255 255 255 255 255 255 255 255 255 255 255 255 255 
255 255 255 255 255 255 255 255 255 255 255 255 255 255 255 255 
255 255 255 255 255 255 255 255 255 255 255 255 255 255 255 255 255 255 255 255 255 255 255 255 
255 255 255 255 255 255 255 255 255 255 255 255 255 255 255 255 
255 255 255 255 255 254 254 255 255 255 254 250 245 227 187 207 
219 211 195 188 173 197 203 203 204 197 178 138 148 196 196 198 
197 203 174 170 193 177 147 179 196 165 147 145 137 128 100 70 
102 163 202 213 208 210 218 219 208 187 122 130 133 100 101 98 
102 108 117 140 129 113 88 86 96 100 107 110 114 126 133 137 
150 153 153 106 77 85 85 106 112 144 179 220 227 213 183 208 
229 235 231 221 228 231 230 229 223 220 220 220 225 224 225 225 
221 224 229 226 221 217 231 238 229 218 243 253 254 254 255 255 
255 255 255 255 255 255 255 255 255 255 255 255 255 255 255 255 
255 255 255 255 255 255 255 255 255 255 255 255 255 255 255 255 
255 255 255 255 255 255 255 255 255 255 255 255 255 255 255 255 255 255 255 255 255 255 255 255 
255 255 255 255 255 255 255 255 255 255 255 255 255 255 255 255 
255 255 255 255 255 255 255 254 254 255 254 254 254 232 198 210 
214 203 190 170 187 200 202 201 201 181 127 127 178 186 190 194 
196 198 149 175 186 150 160 191 195 163 133 134 140 120 97 113 
138 151 162 192 201 207 213 218 197 173 150 177 156 151 162 126 
121 128 125 112 163 171 149 141 124 122 132 118 109 121 121 147 
151 157 139 107 80 74 83 101 120 147 182 208 225 231 199 175 
213 230 233 229 215 225 227 225 223 223 214 220 222 226 228 222 
220 221 229 230 231 215 219 237 236 225 244 254 255 254 254 255 
255 255 255 255 255 255 255 255 255 255 255 255 255 255 255 255 
255 255 255 255 255 255 255 255 255 255 255 255 255 255 255 255 
255 255 255 255 255 255 255 255 255 255 255 255 255 255 255 255 255 255 255 255 255 255 255 255 
255 255 255 255 255 255 255 255 255 255 255 255 255 255 255 255 
255 255 255 255 255 255 255 255 254 255 255 255 254 235 203 209 
209 201 186 167 194 191 193 197 192 111 110 154 192 172 178 193 
194 176 148 174 157 141 178 183 192 171 154 144 134 133 158 179 
171 147 149 178 183 185 220 220 217 192 179 194 182 163 182 153 
123 118 115 154 160 180 195 177 173 167 151 145 119 111 131 125 
140 145 137 103 70 74 88 112 115 145 177 193 221 229 215 180 
185 221 228 225 223 215 222 222 223 224 217 217 219 222 228 229 
219 220 223 234 229 225 213 231 239 230 247 255 255 255 255 255 
255 255 255 255 255 255 255 255 255 255 255 255 255 255 255 255 
255 255 255 255 255 255 255 255 255 255 255 255 255 255 255 255 
255 255 255 255 255 255 255 255 255 255 255 255 255 255 255 255 255 255 255 255 255 255 255 255 
255 255 255 255 255 255 255 255 255 255 255 255 255 255 255 255 
255 255 255 255 255 255 255 255 255 255 255 255 254 245 216 210 
209 204 169 183 192 171 190 192 145 113 144 177 191 178 166 194 
186 144 160 166 127 150 179 175 182 182 185 165 158 179 190 164 
125 95 83 91 130 182 204 216 207 204 202 198 181 137 150 158 
103 90 76 87 140 143 166 189 186 181 153 142 129 108 108 105 
108 125 130 115 88 72 80 102 125 151 171 189 200 219 224 203 
169 206 220 220 225 214 216 219 218 218 219 210 216 218 223 227 
224 218 216 232 233 225 219 228 240 246 253 254 255 255 255 255 
255 255 255 255 255 255 255 255 255 255 255 255 255 255 255 255 
255 255 255 255 255 255 255 255 255 255 255 255 255 255 255 255 
255 255 255 255 255 255 255 255 255 255 255 255 255 255 255 255 255 255 255 255 255 255 255 255 
255 255 255 255 255 255 255 255 255 255 255 255 255 255 255 255 
255 255 255 255 255 255 255 255 255 255 255 255 255 253 252 245 
238 178 179 180 184 161 192 200 132 136 162 196 185 182 177 191 
166 139 173 157 117 161 174 175 178 177 174 175 197 212 201 170 
130 80 57 78 69 156 207 211 214 206 202 184 153 129 163 115 
65 54 28 34 71 143 116 138 174 171 147 129 124 106 90 92 
91 126 133 112 81 77 90 108 123 143 165 190 182 209 222 212 
179 173 208 214 219 217 209 210 214 218 218 217 213 213 219 227 
225 222 215 225 234 230 218 243 253 254 254 255 255 255 255 255 
255 255 255 255 255 255 255 255 255 255 255 255 255 255 255 255 
255 255 255 255 255 255 255 255 255 255 255 255 255 255 255 255 
255 255 255 255 255 255 255 255 255 255 255 255 255 255 255 255 255 255 255 255 255 255 255 255 
255 255 255 255 255 255 255 255 255 255 255 255 255 255 255 255 
255 255 255 255 255 255 255 255 255 255 255 255 255 255 255 254 
246 193 188 177 183 167 204 196 155 164 185 196 184 178 188 182 
147 147 175 140 124 169 176 169 160 170 177 187 204 217 218 196 
167 130 107 96 101 143 179 197 229 206 175 149 159 148 149 104 
57 21 13 31 101 138 132 98 120 121 111 97 104 115 111 111 
110 126 121 99 84 67 88 109 119 147 177 201 182 190 212 216 
202 161 173 209 211 216 212 208 212 214 216 222 215 205 213 226 
229 220 216 218 230 232 225 244 255 255 255 255 255 255 255 255 
255 255 255 255 255 255 255 255 255 255 255 255 255 255 255 255 
255 255 255 255 255 255 255 255 255 255 255 255 255 255 255 255 
255 255 255 255 255 255 255 255 255 255 255 255 255 255 255 255 255 255 255 255 255 255 255 255 
255 255 255 255 255 255 255 255 255 255 255 255 255 255 255 255 
255 255 255 255 255 255 255 255 255 255 255 255 255 255 255 254 
251 202 185 170 185 177 205 197 153 178 194 196 184 183 188 164 
138 158 171 141 127 168 176 159 133 165 170 184 200 219 203 180 
175 168 153 133 143 135 180 202 213 220 185 180 179 153 166 112 
54 28 32 43 100 182 177 110 99 69 79 81 84 96 126 140 
128 126 125 102 75 64 83 120 124 144 173 195 191 166 200 213 
208 173 142 196 208 214 216 208 207 212 213 219 219 206 206 219 
229 223 209 219 226 233 227 246 254 255 255 255 255 255 255 255 
255 255 255 255 255 255 255 255 255 255 255 255 255 255 255 255 
255 255 255 255 255 255 255 255 255 255 255 255 255 255 255 255 
255 255 255 255 255 255 255 255 255 255 255 255 255 255 255 255 255 255 255 255 255 255 255 255 
255 255 255 255 255 255 255 255 255 255 255 255 255 255 255 255 
255 255 255 255 255 255 255 255 255 255 255 255 255 255 255 254 
254 242 221 181 181 181 202 204 172 186 199 192 180 185 178 153 
145 164 170 129 132 167 175 154 118 183 169 159 167 181 196 201 
182 173 175 150 160 145 177 191 220 226 197 189 167 177 176 108 
78 52 71 102 157 165 206 163 108 90 71 71 83 97 114 145 
152 124 117 105 74 65 84 128 143 146 168 197 198 154 180 209 
206 187 152 155 200 208 213 212 209 207 208 213 223 206 210 210 
226 226 217 221 245 246 251 254 254 255 255 255 255 255 255 255 
255 255 255 255 255 255 255 255 255 255 255 255 255 255 255 255 
255 255 255 255 255 255 255 255 255 255 255 255 255 255 255 255 
255 255 255 255 255 255 255 255 255 255 255 255 255 255 255 255 255 255 255 255 255 255 255 255 
255 255 255 255 255 255 255 255 255 255 255 255 255 255 255 255 
255 255 255 255 255 255 255 255 255 255 255 255 255 255 255 255 
255 254 250 204 194 201 234 216 181 192 198 187 177 181 161 152 
152 169 161 120 143 168 171 141 122 198 199 187 196 208 198 184 
173 174 166 150 138 129 169 167 193 230 213 178 172 177 149 116 
86 88 112 141 162 186 195 206 160 127 111 96 68 84 105 124 
137 134 123 101 70 66 85 123 142 143 159 196 205 159 151 204 
201 195 163 139 187 200 206 214 210 206 206 208 219 218 202 203 
220 222 220 231 253 254 255 255 255 255 255 255 255 255 255 255 
255 255 255 255 255 255 255 255 255 255 255 255 255 255 255 255 
255 255 255 255 255 255 255 255 255 255 255 255 255 255 255 255 
255 255 255 255 255 255 255 255 255 255 255 255 255 255 255 255 255 255 255 255 255 255 255 255 
255 255 255 255 255 255 255 255 255 255 255 255 255 255 255 255 
255 255 255 255 255 255 255 255 255 255 255 255 255 255 255 255 
255 255 254 252 253 253 254 229 187 195 194 182 175 168 158 152 
157 171 140 128 155 168 167 122 131 203 213 209 197 162 161 153 
166 174 163 142 132 106 155 175 173 236 214 175 181 153 154 143 
121 149 117 111 125 133 202 203 196 169 161 146 127 106 114 123 
147 127 126 85 64 67 98 133 139 157 167 183 209 170 140 188 
199 200 178 148 155 195 198 209 211 204 204 201 210 224 204 205 
215 221 219 234 254 255 255 255 254 255 255 255 255 255 255 255 
255 255 255 255 255 255 255 255 255 255 255 255 255 255 255 255 
255 255 255 255 255 255 255 255 255 255 255 255 255 255 255 255 
255 255 255 255 255 255 255 255 255 255 255 255 255 255 255 255 255 255 255 255 255 255 255 255 
255 255 255 255 255 255 255 255 255 255 255 255 255 255 255 255 
255 255 255 255 255 255 255 255 255 255 255 255 255 255 255 255 
255 255 255 255 254 255 254 241 192 188 184 174 170 152 160 153 
158 158 132 143 161 165 165 109 149 215 224 216 201 189 188 204 
190 174 175 155 122 59 141 171 180 231 224 199 175 148 174 132 
97 120 135 115 145 164 165 177 184 187 179 166 161 145 150 146 
150 147 139 72 52 63 104 130 134 154 165 172 208 185 149 157 
194 200 186 165 138 179 192 204 215 201 202 193 197 223 218 212 
240 233 237 248 255 255 255 255 254 255 255 255 255 255 255 255 
255 255 255 255 255 255 255 255 255 255 255 255 255 255 255 255 
255 255 255 255 255 255 255 255 255 255 255 255 255 255 255 255 
255 255 255 255 255 255 255 255 255 255 255 255 255 255 255 255 255 255 255 255 255 255 255 255 
255 255 255 255 255 255 255 255 255 255 255 255 255 255 255 255 
255 255 255 255 255 255 255 255 255 255 255 255 255 255 255 255 
255 255 255 255 255 255 255 252 221 200 194 189 161 157 162 155 
162 138 148 158 160 160 150 131 175 213 219 218 218 225 234 225 
204 187 177 159 127 87 121 162 188 218 231 200 157 188 168 121 
137 153 139 116 129 167 185 152 149 171 175 180 161 163 159 163 
164 161 137 68 55 71 105 133 138 156 168 164 203 194 161 141 
182 199 190 177 153 156 187 198 215 212 190 193 191 213 217 226 
252 254 254 254 254 255 255 254 254 255 255 255 255 255 255 255 
255 255 255 255 255 255 255 255 255 255 255 255 255 255 255 255 
255 255 255 255 255 255 255 255 255 255 255 255 255 255 255 255 
255 255 255 255 255 255 255 255 255 255 255 255 255 255 255 255 255 255 255 255 255 255 255 255 
255 255 255 255 255 255 255 255 255 255 255 255 255 255 255 255 
255 255 255 255 255 255 255 255 255 255 255 255 255 255 255 255 
255 255 255 255 255 255 255 255 254 253 252 231 173 161 160 154 
150 146 167 166 160 151 135 164 215 210 203 217 223 238 232 215 
205 188 164 158 124 112 100 162 185 206 231 184 177 181 143 137 
154 157 168 139 172 183 193 181 145 160 175 171 170 146 148 157 
173 147 108 60 56 75 107 130 138 162 168 179 206 196 171 143 
165 195 192 188 166 145 172 190 208 212 200 179 191 201 217 231 
253 254 255 255 255 255 255 254 254 255 255 255 255 255 255 255 
255 255 255 255 255 255 255 255 255 255 255 255 255 255 255 255 
255 255 255 255 255 255 255 255 255 255 255 255 255 255 255 255 
255 255 255 255 255 255 255 255 255 255 255 255 255 255 255 255 255 255 255 255 255 255 255 255 
255 255 255 255 255 255 255 255 255 255 255 255 255 255 255 255 
255 255 255 255 255 255 255 255 255 255 255 255 255 255 255 255 
255 255 255 255 255 254 254 255 255 255 255 252 221 181 176 184 
172 161 168 169 162 135 164 240 247 200 181 182 204 223 219 216 
204 175 156 134 120 103 89 137 188 194 218 190 188 169 160 133 
110 111 134 165 164 202 204 210 187 121 129 152 141 144 108 132 
160 148 83 49 48 71 95 113 128 147 165 175 214 203 183 153 
138 184 192 196 181 152 146 187 202 208 208 193 208 231 235 247 
254 254 254 255 255 255 255 255 255 255 255 255 255 255 255 255 
255 255 255 255 255 255 255 255 255 255 255 255 255 255 255 255 
255 255 255 255 255 255 255 255 255 255 255 255 255 255 255 255 
255 255 255 255 255 255 255 255 255 255 255 255 255 255 255 255 255 255 255 255 255 255 255 255 
255 255 255 255 255 255 255 255 255 255 255 255 255 255 255 255 
255 255 255 255 255 255 255 255 255 255 255 255 255 255 255 255 
255 255 255 255 255 254 254 255 255 254 254 254 252 247 247 248 
222 174 168 182 211 207 244 254 250 209 159 153 173 178 175 189 
203 193 157 131 87 94 90 133 183 180 216 204 169 153 131 88 
85 105 133 155 159 173 201 213 189 144 114 102 111 92 82 85 
121 135 89 45 50 79 105 114 120 146 158 182 219 204 190 167 
141 155 186 196 189 166 150 171 206 200 204 202 231 253 253 254 
254 254 254 254 254 255 255 255 255 255 255 255 255 255 255 255 
255 255 255 255 255 255 255 255 255 255 255 255 255 255 255 255 
255 255 255 255 255 255 255 255 255 255 255 255 255 255 255 255 
255 255 255 255 255 255 255 255 255 255 255 255 255 255 255 255 255 255 255 255 255 255 255 255 
255 255 255 255 255 255 255 255 255 255 255 255 255 255 255 255 
255 255 255 255 255 255 255 255 255 255 255 255 255 255 255 255 
255 255 255 255 255 255 255 255 255 255 255 255 255 255 255 255 
254 248 244 251 254 255 255 255 254 229 172 148 142 137 158 163 
183 156 129 107 95 83 93 126 171 181 211 209 185 168 133 99 
117 108 134 169 173 187 167 196 171 142 97 88 60 83 66 58 
87 123 81 52 65 89 114 127 135 144 149 198 237 204 196 181 
154 137 168 198 192 181 163 184 242 219 209 216 245 254 254 255 
255 255 255 255 255 255 255 255 255 255 255 255 255 255 255 255 
255 255 255 255 255 255 255 255 255 255 255 255 255 255 255 255 
255 255 255 255 255 255 255 255 255 255 255 255 255 255 255 255 
255 255 255 255 255 255 255 255 255 255 255 255 255 255 255 255 255 255 255 255 255 255 255 255 
255 255 255 255 255 255 255 255 255 255 255 255 255 255 255 255 
255 255 255 255 255 255 255 255 255 255 255 255 255 255 255 255 
255 255 255 255 255 255 255 255 255 255 255 255 255 255 255 255 
255 254 254 255 255 255 255 255 254 234 185 156 149 146 138 122 
128 95 93 83 89 87 72 91 169 186 215 223 188 157 135 126 
96 122 150 171 186 177 141 172 116 110 69 65 67 62 76 73 
72 104 70 53 70 96 125 134 142 146 171 209 244 235 198 186 
170 149 160 218 187 182 175 208 249 253 252 252 254 255 254 255 
255 255 255 255 255 255 255 255 255 255 255 255 255 255 255 255 
255 255 255 255 255 255 255 255 255 255 255 255 255 255 255 255 
255 255 255 255 255 255 255 255 255 255 255 255 255 255 255 255 
255 255 255 255 255 255 255 255 255 255 255 255 255 255 255 255 255 255 255 255 255 255 255 255 
255 255 255 255 255 255 255 255 255 255 255 255 255 255 255 255 
255 255 255 255 255 255 255 255 255 255 255 255 255 255 255 255 
255 255 255 255 255 255 255 255 255 255 255 255 255 255 255 255 
255 255 254 254 254 255 255 255 253 226 194 179 184 171 153 116 
71 53 53 38 64 78 67 103 172 195 218 222 183 166 144 114 
127 161 169 189 162 75 49 123 96 41 74 55 74 83 80 84 
80 95 70 57 71 103 134 137 130 139 145 210 251 253 230 186 
178 164 189 243 234 213 212 241 253 254 255 254 254 255 255 255 
255 255 255 255 255 255 255 255 255 255 255 255 255 255 255 255 
255 255 255 255 255 255 255 255 255 255 255 255 255 255 255 255 
255 255 255 255 255 255 255 255 255 255 255 255 255 255 255 255 
255 255 255 255 255 255 255 255 255 255 255 255 255 255 255 255 255 255 255 255 255 255 255 255 
255 255 255 255 255 255 255 255 255 255 255 255 255 255 255 255 
255 255 255 255 255 255 255 255 255 255 255 255 255 255 255 255 
255 255 255 255 255 255 255 255 255 255 255 255 255 255 255 255 
255 255 255 255 255 255 255 255 247 220 206 211 207 205 185 175 
138 92 71 38 48 62 52 81 174 195 222 226 209 168 153 134 
148 160 164 155 78 38 54 100 121 82 100 100 99 113 104 93 
96 108 92 79 78 98 140 151 147 146 160 207 239 253 254 231 
199 194 229 249 250 253 253 255 255 255 255 254 255 255 255 255 
255 255 255 255 255 255 255 255 255 255 255 255 255 255 255 255 
255 255 255 255 255 255 255 255 255 255 255 255 255 255 255 255 
255 255 255 255 255 255 255 255 255 255 255 255 255 255 255 255 
255 255 255 255 255 255 255 255 255 255 255 255 255 255 255 255 255 255 255 255 255 255 255 255 
255 255 255 255 255 255 255 255 255 255 255 255 255 255 255 255 
255 255 255 255 255 255 255 255 255 255 255 255 255 255 255 255 
255 255 255 255 255 255 255 255 255 255 255 255 255 255 255 255 
255 255 255 255 255 255 255 254 250 218 219 217 218 222 228 222 
193 162 135 89 43 37 45 68 157 197 221 229 218 176 161 129 
134 141 126 51 31 77 94 120 162 163 163 155 149 142 147 148 
142 145 105 91 97 109 117 147 135 148 166 202 250 254 254 254 
253 253 255 253 254 254 254 255 255 255 254 254 255 255 255 255 
255 255 255 255 255 255 255 255 255 255 255 255 255 255 255 255 
255 255 255 255 255 255 255 255 255 255 255 255 255 255 255 255 
255 255 255 255 255 255 255 255 255 255 255 255 255 255 255 255 
255 255 255 255 255 255 255 255 255 255 255 255 255 255 255 255 255 255 255 255 255 255 255 255 
255 255 255 255 255 255 255 255 255 255 255 255 255 255 255 255 
255 255 255 255 255 255 255 255 255 255 255 255 255 255 255 255 
255 255 255 255 255 255 255 255 255 255 255 255 255 255 255 255 
255 255 255 255 255 255 254 254 244 217 217 218 223 233 237 224 
218 191 176 127 54 25 40 52 127 200 220 232 212 183 159 132 
115 115 67 45 94 145 164 152 165 185 192 185 153 145 151 166 
156 150 127 102 121 117 120 137 145 158 162 191 242 253 253 254 
254 254 255 254 255 254 254 255 255 255 254 254 255 255 255 255 
255 254 255 255 255 255 255 255 255 255 255 255 255 255 255 255 
255 255 255 255 255 255 255 255 255 255 255 255 255 255 255 255 
255 255 255 255 255 255 255 255 255 255 255 255 255 255 255 255 
255 255 255 255 255 255 255 255 255 255 255 255 255 255 255 255 255 255 255 255 255 255 255 255 
255 255 255 255 255 255 255 255 255 255 255 255 255 255 255 255 
255 255 255 255 255 255 255 255 255 255 255 255 255 255 255 255 
255 255 255 255 255 255 255 255 255 255 255 255 255 255 255 255 
255 255 255 255 255 255 255 254 243 205 186 193 202 210 212 221 
207 204 198 154 99 20 27 44 101 192 207 235 218 183 166 132 
110 102 75 116 184 201 202 192 185 179 193 186 168 119 121 135 
156 153 137 113 118 129 136 140 152 154 144 160 232 253 254 255 
255 255 255 255 255 255 255 255 255 255 255 255 255 255 255 255 
255 255 255 255 255 255 255 255 255 255 255 255 255 255 255 255 
255 255 255 255 255 255 255 255 255 255 255 255 255 255 255 255 
255 255 255 255 255 255 255 255 255 255 255 255 255 255 255 255 
255 255 255 255 255 255 255 255 255 255 255 255 255 255 255 255 255 255 255 255 255 255 255 255 
255 255 255 255 255 255 255 255 255 255 255 255 255 255 255 255 
255 255 255 255 255 255 255 255 255 255 255 255 255 255 255 255 
255 255 255 255 255 255 255 255 255 255 255 255 255 255 255 255 
255 255 255 255 255 255 255 251 227 184 163 164 168 193 209 222 
211 207 211 173 134 39 16 31 66 175 194 225 205 185 162 133 
103 100 125 192 228 226 218 210 212 194 199 178 162 130 94 111 
129 154 153 132 129 135 150 150 155 164 151 142 203 247 253 255 
255 255 255 255 255 255 255 255 255 255 255 255 255 255 255 255 
255 255 255 255 255 255 255 255 255 255 255 255 255 255 255 255 
255 255 255 255 255 255 255 255 255 255 255 255 255 255 255 255 
255 255 255 255 255 255 255 255 255 255 255 255 255 255 255 255 
255 255 255 255 255 255 255 255 255 255 255 255 255 255 255 255 255 255 255 255 255 255 255 255 
255 255 255 255 255 255 255 255 255 255 255 255 255 255 255 255 
255 255 255 255 255 255 255 255 255 255 255 255 255 255 255 255 
255 255 255 255 255 255 255 255 255 255 255 255 255 255 255 255 
255 255 255 255 255 255 254 249 216 155 130 117 162 194 199 214 
190 199 211 168 160 71 31 20 47 147 185 209 206 180 160 125 
117 129 177 230 236 217 207 196 212 200 194 173 161 157 114 116 
139 160 152 141 133 142 149 153 160 158 137 140 175 239 254 255 
255 255 255 255 255 255 255 255 255 255 255 255 255 255 255 255 
255 255 255 255 255 255 255 255 255 255 255 255 255 255 255 255 
255 255 255 255 255 255 255 255 255 255 255 255 255 255 255 255 
255 255 255 255 255 255 255 255 255 255 255 255 255 255 255 255 
255 255 255 255 255 255 255 255 255 255 255 255 255 255 255 255 255 255 255 255 255 255 255 255 
255 255 255 255 255 255 255 255 255 255 255 255 255 255 255 255 
255 255 255 255 255 255 255 255 255 255 255 255 255 255 255 255 
255 255 255 255 255 255 255 255 255 255 255 255 255 255 255 255 
255 255 255 255 255 255 254 248 200 144 105 116 147 186 192 203 
180 197 197 169 168 120 47 31 37 115 173 193 201 180 148 131 
122 156 215 228 226 223 193 172 195 200 168 165 160 136 135 128 
142 160 165 154 146 137 136 148 159 152 136 134 159 222 252 255 
255 255 255 255 255 255 255 255 255 255 255 255 255 255 255 255 
255 255 255 255 255 255 255 255 255 255 255 255 255 255 255 255 
255 255 255 255 255 255 255 255 255 255 255 255 255 255 255 255 
255 255 255 255 255 255 255 255 255 255 255 255 255 255 255 255 
255 255 255 255 255 255 255 255 255 255 255 255 255 255 255 255 255 255 255 255 255 255 255 255 
255 255 255 255 255 255 255 255 255 255 255 255 255 255 255 255 
255 255 255 255 255 255 255 255 255 255 255 255 255 255 255 255 
255 255 255 255 255 255 255 255 255 255 255 255 255 255 255 255 
255 255 255 255 255 254 253 228 180 158 148 129 158 163 195 192 
183 191 189 149 162 155 80 47 32 82 141 172 188 163 139 116 
132 193 212 220 220 218 192 193 190 181 164 130 125 114 102 115 
141 172 177 163 159 159 149 162 147 137 134 130 155 202 246 254 
255 255 255 255 255 255 255 255 255 255 255 255 255 255 255 255 
255 255 255 255 255 255 255 255 255 255 255 255 255 255 255 255 
255 255 255 255 255 255 255 255 255 255 255 255 255 255 255 255 
255 255 255 255 255 255 255 255 255 255 255 255 255 255 255 255 
255 255 255 255 255 255 255 255 255 255 255 255 255 255 255 255 255 255 255 255 255 255 255 255 
255 255 255 255 255 255 255 255 255 255 255 255 255 255 255 255 
255 255 255 255 255 255 255 255 255 255 255 255 255 255 255 255 
255 255 255 255 255 255 255 255 255 255 255 255 255 255 255 255 
255 255 255 255 255 255 252 227 192 178 164 138 124 147 174 178 
173 166 158 107 127 147 100 64 40 61 117 145 168 143 122 109 
154 196 210 210 211 193 186 188 194 161 146 118 97 89 87 82 
127 174 167 160 153 157 164 168 165 149 138 129 158 197 237 253 
255 255 255 255 255 255 255 255 255 255 255 255 255 255 255 255 
255 255 255 255 255 255 255 255 255 255 255 255 255 255 255 255 
255 255 255 255 255 255 255 255 255 255 255 255 255 255 255 255 
255 255 255 255 255 255 255 255 255 255 255 255 255 255 255 255 
255 255 255 255 255 255 255 255 255 255 255 255 255 255 255 255 255 255 255 255 255 255 255 255 
255 255 255 255 255 255 255 255 255 255 255 255 255 255 255 255 
255 255 255 255 255 255 255 255 255 255 255 255 255 255 255 255 
255 255 255 255 255 255 255 255 255 255 255 255 255 255 255 255 
255 255 255 255 255 253 248 224 196 187 146 101 103 98 138 147 
147 118 116 75 86 103 107 74 39 54 90 110 139 124 108 124 
172 196 175 156 174 139 158 163 169 144 115 95 77 48 57 72 
117 165 171 161 145 147 157 169 174 166 150 138 154 161 217 250 
254 255 255 255 255 255 255 255 255 255 255 255 255 255 255 255 
255 255 255 255 255 255 255 255 255 255 255 255 255 255 255 255 
255 255 255 255 255 255 255 255 255 255 255 255 255 255 255 255 
255 255 255 255 255 255 255 255 255 255 255 255 255 255 255 255 
255 255 255 255 255 255 255 255 255 255 255 255 255 255 255 255 255 255 255 255 255 255 255 255 
255 255 255 255 255 255 255 255 255 255 255 255 255 255 255 255 
255 255 255 255 255 255 255 255 255 255 255 255 255 255 255 255 
255 255 255 255 255 255 255 255 255 255 255 255 255 255 255 255 
255 255 255 255 255 254 250 218 178 178 145 99 52 70 85 111 
107 67 76 71 59 73 46 75 46 39 66 77 107 113 111 131 
173 159 104 79 83 94 119 119 115 112 89 66 72 55 67 87 
118 163 179 167 159 158 161 160 173 167 165 129 149 173 204 243 
252 255 255 255 255 255 255 255 255 255 255 255 255 255 255 255 
255 255 255 255 255 255 255 255 255 255 255 255 255 255 255 255 
255 255 255 255 255 255 255 255 255 255 255 255 255 255 255 255 
255 255 255 255 255 255 255 255 255 255 255 255 255 255 255 255 
255 255 255 255 255 255 255 255 255 255 255 255 255 255 255 255 255 255 255 255 255 255 255 255 
255 255 255 255 255 255 255 255 255 255 255 255 255 255 255 255 
255 255 255 255 255 255 255 255 255 255 255 255 255 255 255 255 
255 255 255 255 255 255 255 255 255 255 255 255 255 255 255 255 
255 255 255 255 255 255 246 205 176 190 172 126 88 64 84 72 
61 41 40 34 38 49 24 31 38 33 48 48 80 94 119 143 
148 100 45 42 39 62 62 85 63 61 56 29 41 54 77 124 
145 174 156 161 177 169 158 159 165 163 150 135 151 161 190 224 
245 254 255 255 255 255 255 255 255 255 255 255 255 255 255 255 
255 255 255 255 255 255 255 255 255 255 255 255 255 255 255 255 
255 255 255 255 255 255 255 255 255 255 255 255 255 255 255 255 
255 255 255 255 255 255 255 255 255 255 255 255 255 255 255 255 
255 255 255 255 255 255 255 255 255 255 255 255 255 255 255 255 255 255 255 255 255 255 255 255 
255 255 255 255 255 255 255 255 255 255 255 255 255 255 255 255 
255 255 255 255 255 255 255 255 255 255 255 255 255 255 255 255 
255 255 255 255 255 255 255 255 255 255 255 255 255 255 255 255 
255 255 255 255 255 254 233 200 173 176 175 144 116 99 85 70 
59 51 50 36 35 40 23 18 17 34 42 36 59 93 119 137 
119 61 56 71 66 49 46 57 59 62 45 44 48 58 84 136 
179 179 159 148 173 175 163 155 149 153 134 137 148 151 178 233 
252 254 255 255 255 255 255 255 255 255 255 255 255 255 255 255 
255 255 255 255 255 255 255 255 255 255 255 255 255 255 255 255 
255 255 255 255 255 255 255 255 255 255 255 255 255 255 255 255 
255 255 255 255 255 255 255 255 255 255 255 255 255 255 255 255 
255 255 255 255 255 255 255 255 255 255 255 255 255 255 255 255 255 255 255 255 255 255 255 255 
255 255 255 255 255 255 255 255 255 255 255 255 255 255 255 255 
255 255 255 255 255 255 255 255 255 255 255 255 255 255 255 255 
255 255 255 255 255 255 255 255 255 255 255 255 255 255 255 255 
255 255 255 255 255 252 241 200 170 158 163 139 123 110 87 102 
104 110 101 93 63 55 35 15 17 26 41 32 38 83 118 122 
77 96 150 166 127 120 97 94 102 87 80 78 82 110 135 174 
187 154 167 168 167 163 153 161 158 159 151 147 143 151 165 211 
245 253 255 255 255 255 255 255 255 255 255 255 255 255 255 255 
255 255 255 255 255 255 255 255 255 255 255 255 255 255 255 255 
255 255 255 255 255 255 255 255 255 255 255 255 255 255 255 255 
255 255 255 255 255 255 255 255 255 255 255 255 255 255 255 255 
255 255 255 255 255 255 255 255 255 255 255 255 255 255 255 255 255 255 255 255 255 255 255 255 
255 255 255 255 255 255 255 255 255 255 255 255 255 255 255 255 
255 255 255 255 255 255 255 255 255 255 255 255 255 255 255 255 
255 255 255 255 255 255 255 255 255 255 255 255 255 255 255 255 
255 255 255 255 255 254 233 185 171 165 154 132 105 109 125 157 
170 179 167 174 138 95 51 20 8 20 37 31 30 74 102 99 
94 164 197 202 182 166 133 141 130 114 116 103 115 138 178 194 
175 157 160 180 172 176 156 154 153 138 126 141 136 137 164 209 
237 254 255 254 255 255 255 255 255 255 255 255 255 255 255 255 
255 255 255 255 255 255 255 255 255 255 255 255 255 255 255 255 
255 255 255 255 255 255 255 255 255 255 255 255 255 255 255 255 
255 255 255 255 255 255 255 255 255 255 255 255 255 255 255 255 
255 255 255 255 255 255 255 255 255 255 255 255 255 255 255 255 255 255 255 255 255 255 255 255 
255 255 255 255 255 255 255 255 255 255 255 255 255 255 255 255 
255 255 255 255 255 255 255 255 255 255 255 255 255 255 255 255 
255 255 255 255 255 255 255 255 255 255 255 255 255 255 255 255 
255 255 255 255 255 250 213 171 173 170 170 148 121 122 128 167 
192 206 199 203 182 144 92 37 12 9 38 41 39 60 87 94 
160 213 220 203 204 174 167 116 116 101 118 121 110 135 178 191 
151 157 161 172 175 164 158 161 144 120 121 128 129 127 156 198 
237 251 255 254 254 255 255 255 255 255 255 255 255 255 255 255 
255 255 255 255 255 255 255 255 255 255 255 255 255 255 255 255 
255 255 255 255 255 255 255 255 255 255 255 255 255 255 255 255 
255 255 255 255 255 255 255 255 255 255 255 255 255 255 255 255 
255 255 255 255 255 255 255 255 255 255 255 255 255 255 255 255 255 255 255 255 255 255 255 255 
255 255 255 255 255 255 255 255 255 255 255 255 255 255 255 255 
255 255 255 255 255 255 255 255 255 255 255 255 255 255 255 255 
255 255 255 255 255 255 255 255 255 255 255 255 255 255 255 255 
255 255 255 255 255 247 217 182 163 156 172 174 151 130 154 190 
221 217 215 207 193 175 129 62 17 12 36 62 60 61 82 143 
197 217 224 216 201 182 162 121 89 99 90 90 96 100 140 165 
153 157 159 166 162 163 149 123 128 129 108 101 109 138 153 207 
241 251 255 255 255 255 255 255 255 255 255 255 255 255 255 255 
255 255 255 255 255 255 255 255 255 255 255 255 255 255 255 255 
255 255 255 255 255 255 255 255 255 255 255 255 255 255 255 255 
255 255 255 255 255 255 255 255 255 255 255 255 255 255 255 255 
255 255 255 255 255 255 255 255 255 255 255 255 255 255 255 255 255 255 255 255 255 255 255 255 
255 255 255 255 255 255 255 255 255 255 255 255 255 255 255 255 
255 255 255 255 255 255 255 255 255 255 255 255 255 255 255 255 
255 255 255 255 255 255 255 255 255 255 255 255 255 255 255 255 
255 255 255 255 255 250 203 160 153 160 171 197 186 173 178 200 
206 195 206 199 204 170 148 104 51 23 45 79 76 65 101 167 
202 216 216 196 186 193 155 116 85 72 62 58 71 102 130 142 
145 142 164 166 167 161 144 132 98 95 108 114 113 128 157 204 
249 254 255 255 255 255 254 254 254 254 254 255 255 255 255 255 
255 255 255 255 255 255 255 255 255 255 255 255 255 255 255 255 
255 255 255 255 255 255 255 255 255 255 255 255 255 255 255 255 
255 255 255 255 255 255 255 255 255 255 255 255 255 255 255 255 
255 255 255 255 255 255 255 255 255 255 255 255 255 255 255 255 255 255 255 255 255 255 255 255 
255 255 255 255 255 255 255 255 255 255 255 255 255 255 255 255 
255 255 255 255 255 255 255 255 255 255 255 255 255 255 255 255 
255 255 255 255 255 255 255 255 255 255 255 255 255 255 255 255 
255 255 255 255 255 249 210 174 167 160 166 197 205 191 173 165 
155 176 187 186 190 171 150 125 94 55 65 89 84 83 122 181 
211 207 185 177 158 184 168 143 104 81 80 71 90 118 135 147 
135 142 141 171 162 165 130 120 94 85 94 117 123 131 156 198 
247 254 254 254 254 255 255 254 254 254 254 255 255 255 255 255 
255 255 255 255 255 255 255 255 255 255 255 255 255 255 255 255 
255 255 255 255 255 255 255 255 255 255 255 255 255 255 255 255 
255 255 255 255 255 255 255 255 255 255 255 255 255 255 255 255 
255 255 255 255 255 255 255 255 255 255 255 255 255 255 255 255 255 255 255 255 255 255 255 255 
255 255 255 255 255 255 255 255 255 255 255 255 255 255 255 255 
255 255 255 255 255 255 255 255 255 255 255 255 255 255 255 255 
255 255 255 255 255 255 255 255 255 255 255 255 255 255 255 255 
255 255 255 255 255 254 233 192 177 174 176 194 212 183 153 165 
157 170 159 170 172 167 151 131 112 88 84 94 89 102 147 190 
207 199 174 137 114 117 161 183 157 133 125 138 152 183 165 142 
143 147 138 144 163 157 122 100 106 98 86 98 101 127 153 216 
249 255 255 254 254 255 254 254 254 254 254 255 254 255 255 255 
255 255 255 254 255 255 255 255 255 255 255 255 255 255 255 255 
255 255 255 255 255 255 255 255 255 255 255 255 255 255 255 255 
255 255 255 255 255 255 255 255 255 255 255 255 255 255 255 255 
255 255 255 255 255 255 255 255 255 255 255 255 255 255 255 255 255 255 255 255 255 255 255 255 
255 255 255 255 255 255 255 255 255 255 255 255 255 255 255 255 
255 255 255 255 255 255 255 255 255 255 255 255 255 255 255 255 
255 255 255 255 255 255 255 255 255 255 255 255 255 255 255 255 
255 255 255 255 255 254 239 202 186 185 180 192 208 194 183 170 
135 130 161 155 148 170 152 129 110 95 94 97 95 112 151 187 
175 174 186 135 96 69 121 162 161 158 158 143 177 194 153 135 
135 138 147 138 135 131 139 110 93 98 89 88 104 115 148 227 
253 253 254 254 254 253 253 254 254 254 255 254 254 254 254 254 
254 253 254 254 254 254 254 254 255 255 255 255 255 255 255 255 
255 255 255 255 255 255 255 255 255 255 255 255 255 255 255 255 
255 255 255 255 255 255 255 255 255 255 255 255 255 255 255 255 
255 255 255 255 255 255 255 255 255 255 255 255 255 255 255 255 255 255 255 255 255 255 255 255 
255 255 255 255 255 255 255 255 255 255 255 255 255 255 255 255 
255 255 255 255 255 255 255 255 255 255 255 255 255 255 255 255 
255 255 255 255 255 255 255 255 255 255 255 255 255 255 255 255 
255 255 255 255 255 254 239 203 181 163 167 192 210 191 155 120 
126 157 158 130 118 149 152 121 108 97 98 100 104 117 159 179 
129 135 151 154 126 97 94 124 140 140 158 176 194 167 143 140 
148 138 138 139 134 111 114 125 118 87 91 85 104 111 138 155 
175 175 177 196 210 228 215 194 207 234 245 246 248 251 247 244 
240 243 246 248 249 245 246 249 253 255 255 255 255 255 255 255 
255 255 255 255 255 255 255 255 255 255 255 255 255 255 255 255 
255 255 255 255 255 255 255 255 255 255 255 255 255 255 255 255 
255 255 255 255 255 255 255 255 255 255 255 255 255 255 255 255 255 255 255 255 255 255 255 255 
255 255 255 255 255 255 255 255 255 255 255 255 255 255 255 255 
255 255 255 255 255 255 255 255 255 255 255 255 255 255 255 255 
255 255 255 255 255 255 255 255 255 255 255 255 255 255 255 255 
255 255 255 255 255 254 246 196 150 144 159 174 205 169 153 153 
158 153 106 105 110 155 162 131 116 102 101 103 114 135 180 183 
129 106 79 117 153 148 127 123 134 145 160 178 198 165 145 147 
152 141 128 142 146 136 119 120 135 120 79 92 119 122 121 112 
100 85 78 76 85 101 109 115 119 112 110 123 146 150 140 124 
125 133 127 121 124 112 120 147 195 224 240 254 254 255 255 255 
255 255 255 255 255 255 255 255 255 255 255 255 255 255 255 255 
255 255 255 255 255 255 255 255 255 255 255 255 255 255 255 255 
255 255 255 255 255 255 255 255 255 255 255 255 255 255 255 255 255 255 255 255 255 255 255 255 
255 255 255 255 255 255 255 255 255 255 255 255 255 255 255 255 
255 255 255 255 255 255 255 255 255 255 255 255 255 255 255 255 
255 255 255 255 255 255 255 255 255 255 255 255 255 255 255 255 
255 255 255 255 255 254 243 189 148 142 145 170 191 181 156 140 
137 124 115 142 164 175 160 134 112 105 106 103 121 144 194 204 
170 112 69 72 108 126 144 145 154 148 156 177 192 150 145 145 
149 151 136 136 146 164 158 134 143 141 115 97 112 128 103 82 
82 82 73 67 57 72 100 109 92 72 56 42 55 73 84 79 
56 40 38 50 61 68 60 49 56 77 123 203 248 253 254 255 
255 255 255 255 255 255 255 255 255 255 255 255 255 255 255 255 
255 255 255 255 255 255 255 255 255 255 255 255 255 255 255 255 
255 255 255 255 255 255 255 255 255 255 255 255 255 255 255 255 255 255 255 255 255 255 255 255 
255 255 255 255 255 255 255 255 255 255 255 255 255 255 255 255 
255 255 255 255 255 255 255 255 255 255 255 255 255 255 255 255 
255 255 255 255 255 255 255 255 255 255 255 255 255 255 255 255 
255 255 255 255 255 254 250 213 156 125 125 144 177 162 141 155 
148 135 162 174 164 162 154 113 102 106 108 117 123 157 199 196 
168 151 108 83 65 73 108 124 137 145 151 187 194 166 146 137 
126 133 139 155 146 164 174 150 149 139 131 97 99 119 90 80 
79 86 86 84 74 78 97 114 111 84 53 36 40 64 84 68 
47 35 27 36 44 46 44 37 36 37 45 92 193 251 254 255 
255 255 254 255 254 255 255 255 255 255 255 255 255 255 255 255 
255 255 255 255 255 255 255 255 255 255 255 255 255 255 255 255 
255 255 255 255 255 255 255 255 255 255 255 255 255 255 255 255 255 255 255 255 255 255 255 255 
255 255 255 255 255 255 255 255 255 255 255 255 255 255 255 255 
255 255 255 255 255 255 255 255 255 255 255 255 255 255 255 255 
255 255 255 255 255 255 255 255 255 255 255 255 255 255 255 255 
255 255 255 255 255 254 251 230 168 137 116 129 157 159 167 184 
166 153 152 130 138 137 121 111 91 104 116 124 112 167 193 180 
166 152 147 131 78 56 72 86 105 112 118 151 161 157 154 137 
129 130 135 145 161 161 161 169 148 132 116 112 96 93 94 103 
101 79 92 90 77 80 86 92 84 73 55 38 38 45 59 78 
67 34 20 22 33 32 27 31 38 42 41 53 92 196 247 253 
253 253 254 254 254 255 255 255 255 255 255 255 255 255 255 255 
255 255 255 255 255 255 255 255 255 255 255 255 255 255 255 255 
255 255 255 255 255 255 255 255 255 255 255 255 255 255 255 255 255 255 255 255 255 255 255 255 
255 255 255 255 255 255 255 255 255 255 255 255 255 255 255 255 
255 255 255 255 255 255 255 255 255 255 255 255 255 255 255 255 
255 255 255 255 255 255 255 255 255 255 255 255 255 255 255 255 
255 255 255 255 255 254 251 230 168 132 110 105 138 160 188 206 
177 142 141 142 134 134 149 142 116 107 124 122 116 167 169 180 
144 124 132 134 103 72 43 67 76 96 105 146 150 145 154 149 
131 142 143 149 157 164 150 148 134 122 91 84 70 90 90 103 
79 87 91 74 78 87 90 91 85 78 71 52 42 53 56 55 
43 25 10 13 20 30 25 25 34 42 49 57 111 210 247 253 
254 254 254 254 254 254 254 255 255 254 254 255 255 255 255 255 
255 255 255 255 255 255 255 255 255 255 255 255 255 255 255 255 
255 255 255 255 255 255 255 255 255 255 255 255 255 255 255 255 255 255 255 255 255 255 255 255 
255 255 255 255 255 255 255 255 255 255 255 255 255 255 255 255 
255 255 255 255 255 255 255 255 255 255 255 255 255 255 255 255 
255 255 255 255 255 255 255 255 255 255 255 255 255 255 255 255 
255 255 255 255 255 255 250 231 186 138 116 99 121 174 207 182 
155 169 153 136 132 159 167 158 124 103 124 120 140 190 181 182 
151 127 122 111 123 78 67 58 79 90 140 153 140 135 130 135 
129 130 140 136 150 140 133 119 132 110 93 64 71 90 79 86 
85 77 82 87 86 90 99 90 76 66 56 42 44 59 75 77 
58 32 18 27 31 39 41 59 89 115 125 150 190 229 246 252 
253 253 254 254 254 254 254 255 255 254 254 255 255 255 255 255 
255 255 255 255 255 255 255 255 255 255 255 255 255 255 255 255 
255 255 254 255 255 254 254 255 255 255 255 255 255 255 255 255 255 255 255 255 255 255 255 255 
255 255 255 255 255 255 255 255 255 255 255 255 255 255 255 255 
255 255 255 255 255 255 255 255 255 255 255 255 255 255 255 255 
255 255 255 255 255 255 255 255 255 255 255 255 255 255 255 255 
255 255 255 255 255 254 250 238 201 133 108 108 139 203 200 176 
175 158 116 100 123 178 167 152 124 105 115 120 152 191 149 143 
145 126 132 99 111 120 100 113 123 147 190 175 131 125 128 112 
134 119 116 97 114 120 97 99 101 101 97 73 78 91 81 91 
103 92 85 88 75 87 104 110 110 101 68 48 64 84 102 107 
99 106 114 131 140 149 156 164 172 177 182 187 196 221 246 251 
253 253 254 254 254 254 254 255 255 254 254 255 255 255 255 255 
255 255 255 255 255 255 255 255 255 255 255 255 255 255 255 255 
255 254 254 255 255 254 254 255 255 255 255 255 255 255 255 255 255 255 255 255 255 255 255 255 
255 255 255 255 255 255 255 255 255 255 255 255 255 255 255 255 
255 255 255 255 255 255 255 255 255 255 255 255 255 255 255 255 
255 255 255 255 255 255 255 255 255 255 255 255 255 255 255 255 
255 255 255 255 255 254 250 239 198 145 133 115 125 185 199 192 
177 127 110 137 147 145 158 151 124 102 111 117 164 192 154 109 
123 130 124 133 94 124 136 151 162 180 200 144 119 112 117 127 
135 93 65 76 71 91 96 97 104 89 91 98 108 97 89 94 
99 87 86 85 89 98 120 131 145 142 136 140 147 155 161 166 
164 162 163 165 167 170 172 172 178 180 185 189 199 235 251 253 
253 254 253 254 254 255 255 255 255 254 255 255 255 255 255 255 
255 255 255 255 255 255 255 255 255 255 255 255 255 255 255 255 
255 255 255 254 254 255 255 255 255 255 255 255 255 255 255 255 255 255 255 255 255 255 255 255 
255 255 255 255 255 255 255 255 255 255 255 255 255 255 255 255 
255 255 255 255 255 255 255 255 255 255 255 255 255 255 255 255 
255 255 255 255 255 255 255 255 255 255 255 255 255 255 255 255 
255 255 255 255 255 253 249 232 184 137 118 117 133 179 198 187 
161 154 158 163 139 139 147 143 112 98 108 129 176 194 178 136 
125 106 103 123 113 102 118 128 160 189 171 113 101 87 101 109 
114 87 61 43 34 48 59 70 84 99 87 102 116 115 120 123 
128 125 134 141 147 154 162 167 171 167 162 159 163 168 172 175 
171 167 163 164 168 172 173 174 178 179 181 187 213 247 252 253 
253 254 253 254 254 254 254 254 254 255 255 255 255 255 255 255 
255 255 255 255 255 255 255 255 255 255 255 255 255 255 255 255 
255 255 255 254 254 255 255 255 255 255 255 255 255 255 255 255 255 255 255 255 255 255 255 255 
255 255 255 255 255 255 255 255 255 255 255 255 255 255 255 255 
255 255 255 255 255 255 255 255 255 255 255 255 255 255 255 255 
255 255 255 255 255 255 255 255 255 255 255 255 255 255 255 255 
255 255 255 255 254 250 241 234 183 134 134 124 118 142 188 182 
162 161 169 141 114 99 130 133 106 84 104 137 177 195 174 162 
133 132 101 113 95 113 121 147 166 190 164 113 83 108 118 111 
101 111 107 88 57 54 59 49 58 71 92 109 130 148 158 158 
160 155 157 161 168 175 179 180 177 174 169 168 168 171 176 178 
177 173 168 170 175 178 179 180 182 185 190 212 242 252 254 254 
254 255 255 255 255 255 255 255 254 255 255 255 255 255 255 255 
255 255 255 255 255 255 255 255 255 255 255 255 255 255 255 255 
255 255 255 254 254 254 254 255 255 255 255 255 255 255 255 255 255 255 255 255 255 255 255 255 
255 255 255 255 255 255 255 255 255 255 255 255 255 255 255 255 
255 255 255 255 255 255 255 255 255 255 255 255 255 255 255 255 
255 255 255 255 255 255 255 255 255 255 255 255 255 255 255 255 
255 255 255 255 255 252 246 234 193 145 121 107 99 126 188 186 
156 142 133 117 83 82 109 140 113 87 100 143 182 177 131 131 
122 127 97 127 105 94 118 146 174 187 176 160 131 176 191 164 
98 78 107 114 101 55 49 53 51 65 85 113 137 156 169 175 
179 175 175 176 176 180 184 184 181 181 181 177 175 178 182 187 
187 182 181 184 188 194 195 195 201 214 230 246 252 254 255 255 
255 255 255 255 255 255 255 255 255 255 255 255 255 255 255 255 
255 255 255 255 255 255 255 255 255 255 255 255 255 255 255 255 
255 255 255 255 255 255 255 255 255 255 255 255 255 255 255 255 255 255 255 255 255 255 255 255 
255 255 255 255 255 255 255 255 255 255 255 255 255 255 255 255 
255 255 255 255 255 255 255 255 255 255 255 255 255 255 255 255 
255 255 255 255 255 255 255 255 255 255 255 255 255 255 255 255 
255 255 255 255 255 253 247 228 164 133 133 117 90 120 185 176 
139 112 101 100 97 105 106 134 110 85 98 149 179 157 90 100 
125 114 112 111 110 100 116 141 182 201 180 182 161 197 214 215 
138 106 110 119 110 92 45 21 31 44 75 112 143 171 177 179 
184 182 182 183 184 186 190 192 193 191 184 180 181 190 197 200 
198 196 202 209 214 219 222 230 244 251 253 254 255 255 255 255 
255 255 255 255 255 255 255 255 255 255 255 255 255 255 255 255 
255 255 255 255 255 255 255 255 255 255 255 255 255 255 255 255 
255 255 255 255 255 255 255 255 255 255 255 255 255 255 255 255 255 255 255 255 255 255 255 255 
255 255 255 255 255 255 255 255 255 255 255 255 255 255 255 255 
255 255 255 255 255 255 255 255 255 255 255 255 255 255 255 255 
255 255 255 255 255 255 255 255 255 255 255 255 255 255 255 255 
255 255 255 255 255 254 246 202 137 169 192 171 135 156 187 165 
135 141 149 115 111 110 115 132 105 83 87 140 175 146 91 81 
100 71 79 91 103 110 118 158 188 198 182 188 156 197 212 227 
198 183 141 129 107 104 86 58 44 77 105 139 163 172 179 183 
184 186 188 187 187 191 194 197 203 198 192 192 200 216 222 226 
228 237 245 250 250 252 253 254 254 254 254 254 255 254 254 255 
255 255 255 255 255 255 255 255 255 255 255 255 255 255 255 255 
255 255 255 255 255 255 255 255 255 255 255 255 255 255 255 255 
255 255 255 255 255 255 255 255 255 255 255 255 255 255 255 255 255 255 255 255 255 255 255 255 
255 255 255 255 255 255 255 255 255 255 255 255 255 255 255 255 
255 255 255 255 255 255 255 255 255 255 255 255 255 255 255 255 
255 255 255 255 255 255 255 255 255 255 255 255 255 255 255 255 
255 255 255 255 254 253 245 202 200 223 213 184 185 168 195 166 
130 119 113 122 97 101 87 116 103 75 81 141 180 162 134 123 
131 114 108 111 95 116 118 142 183 195 184 193 142 205 223 231 
220 215 163 122 100 105 103 90 72 98 134 161 172 176 183 190 
191 192 195 198 193 194 202 213 216 217 221 231 240 249 253 254 
255 254 254 254 255 255 255 255 255 255 255 255 255 255 255 255 
255 255 255 255 255 255 255 255 255 255 255 255 255 255 255 255 
255 255 255 255 255 255 255 255 255 255 255 255 255 255 255 255 
255 255 255 255 255 255 255 255 255 255 255 255 255 255 255 255 255 255 255 255 255 255 255 255 
255 255 255 255 255 255 255 255 255 255 255 255 255 255 255 255 
255 255 255 255 255 255 255 255 255 255 255 255 255 255 255 255 
255 255 255 255 255 255 255 255 255 255 255 255 255 255 255 255 
255 255 255 255 255 253 243 225 232 230 200 178 188 174 199 156 
119 129 134 125 112 112 104 125 114 74 75 142 183 165 142 115 
114 95 78 98 118 90 117 141 188 201 193 164 117 210 231 233 
225 224 197 122 81 87 117 123 128 139 155 169 177 182 180 189 
193 191 194 201 202 206 216 223 231 242 252 254 254 254 255 255 
255 255 255 255 255 255 255 255 255 255 255 255 255 255 255 255 
255 255 255 255 255 255 255 255 255 255 255 255 255 255 255 255 
255 255 255 255 255 255 255 255 255 255 255 255 255 255 255 255 
255 255 255 255 255 255 255 255 255 255 255 255 255 255 255 255 255 255 255 255 255 255 255 255 
255 255 255 255 255 255 255 255 255 255 255 255 255 255 255 255 
255 255 255 255 255 255 255 255 255 255 255 255 255 255 255 255 
255 255 255 255 255 255 255 255 255 255 255 255 255 255 255 255 
255 255 255 255 255 254 245 241 243 231 187 154 183 181 174 146 
117 113 108 87 100 93 109 117 113 75 71 144 177 148 126 106 
72 86 72 91 112 112 117 133 173 208 199 142 99 190 233 236 
233 212 211 103 70 112 147 158 153 156 161 173 182 185 186 193 
205 213 221 229 235 243 249 252 252 254 255 254 255 255 255 255 
255 255 255 255 255 255 255 255 255 255 255 255 255 255 255 255 
255 255 255 255 255 255 255 255 255 255 255 255 255 255 255 255 
255 255 255 255 255 255 255 255 255 255 255 255 255 255 255 255 
255 255 255 255 255 255 255 255 255 255 255 255 255 255 255 255 255 255 255 255 255 255 255 255 
255 255 255 255 255 255 255 255 255 255 255 255 255 255 255 255 
255 255 255 255 255 255 255 255 255 255 255 255 255 255 255 255 
255 255 255 255 255 255 255 255 255 255 255 255 255 255 255 255 
255 255 255 255 255 253 248 247 243 236 194 120 169 176 148 145 
141 125 125 129 126 100 106 106 92 85 72 133 143 149 140 102 
74 98 109 134 133 128 135 133 162 192 168 110 68 115 187 218 
200 96 152 108 128 152 170 167 160 162 168 182 196 210 224 235 
245 250 251 253 254 254 254 254 255 255 254 255 255 255 255 255 
255 255 255 255 255 255 255 255 255 255 255 255 255 255 255 255 
255 255 255 255 255 255 255 255 255 255 255 255 255 255 255 255 
255 255 255 255 255 255 255 255 255 255 255 255 255 255 255 255 
255 255 255 255 255 255 255 255 255 255 255 255 255 255 255 255 255 255 255 255 255 255 255 255 
255 255 255 255 255 255 255 255 255 255 255 255 255 255 255 255 
255 255 255 255 255 255 255 255 255 255 255 255 255 255 255 255 
255 255 255 255 255 255 255 255 255 255 255 255 255 255 255 255 
255 255 255 253 253 253 248 238 243 232 176 117 171 169 137 116 
101 101 73 95 91 88 77 88 93 77 61 117 106 149 133 101 
102 113 93 93 103 103 119 146 142 162 132 95 37 62 102 133 
113 90 151 159 165 176 182 170 165 169 175 190 215 237 249 252 
253 254 254 255 255 255 255 255 255 255 255 255 255 255 255 255 
255 255 255 255 255 255 255 255 255 255 255 255 255 255 255 255 
255 255 255 255 255 255 255 255 255 255 255 255 255 255 255 255 
255 255 255 255 255 255 255 255 255 255 255 255 255 255 255 255 
255 255 255 255 255 255 255 255 255 255 255 255 255 255 255 255 255 255 255 255 255 255 255 255 
255 255 255 255 255 255 255 255 255 255 255 255 255 255 255 255 
255 255 255 255 255 255 255 255 255 255 255 255 255 255 255 255 
255 255 255 255 255 255 255 255 255 255 255 255 255 255 255 255 
255 255 254 255 254 253 251 229 215 170 127 135 186 189 159 150 
129 115 95 49 63 73 56 67 81 73 62 106 130 118 91 82 
60 67 63 96 128 130 150 162 146 125 160 131 108 120 145 173 
186 182 201 188 183 191 187 175 176 180 187 195 210 236 250 254 
254 255 255 255 255 255 255 255 255 255 255 255 255 255 255 255 
255 255 255 255 255 255 255 255 255 255 255 255 255 255 255 255 
255 255 255 255 255 255 255 255 255 255 255 255 255 255 255 255 
255 255 255 255 255 255 255 255 255 255 255 255 255 255 255 255 
255 255 255 255 255 255 255 255 255 255 255 255 255 255 255 255 255 255 255 255 255 255 255 255 
255 255 255 255 255 255 255 255 255 255 255 255 255 255 255 255 
255 255 255 255 255 255 255 255 255 255 255 255 255 255 255 255 
255 255 255 255 255 255 255 255 255 255 255 255 255 255 255 255 
255 255 255 255 255 254 254 244 195 139 111 168 190 184 194 185 
154 134 108 58 106 99 83 69 65 49 56 124 124 97 98 69 
26 90 101 120 138 146 143 160 170 132 176 193 185 191 199 210 
215 197 215 200 192 195 185 184 186 186 190 197 211 235 252 254 
255 255 255 255 255 255 255 255 255 255 255 254 255 255 255 255 
255 255 255 255 255 255 255 255 255 255 255 255 255 255 255 255 
255 255 255 255 255 255 255 255 255 255 255 255 255 255 255 255 
255 255 255 255 255 255 255 255 255 255 255 255 255 255 255 255 
255 255 255 255 255 255 255 255 255 255 255 255 255 255 255 255 255 255 255 255 255 255 255 255 
255 255 255 255 255 255 255 255 255 255 255 255 255 255 255 255 
255 255 255 255 255 255 255 255 255 255 255 255 255 255 255 255 
255 255 255 255 255 255 255 255 255 255 255 255 255 255 255 255 
255 255 255 255 255 254 253 238 212 191 175 188 188 162 195 183 
156 129 124 79 121 112 98 85 61 42 55 121 113 111 120 113 
38 106 112 126 121 155 123 136 160 138 162 193 181 189 206 223 
229 222 225 202 198 193 191 193 194 197 199 204 214 233 252 255 
255 255 255 255 255 255 255 255 255 255 255 255 255 255 255 255 
255 255 255 255 255 255 255 255 255 255 255 255 255 255 255 255 
255 255 255 255 255 255 255 255 255 255 255 255 255 255 255 255 
255 255 255 255 255 255 255 255 255 255 255 255 255 255 255 255 
255 255 255 255 255 255 255 255 255 255 255 255 255 255 255 255 255 255 255 255 255 255 255 255 
255 255 255 255 255 255 255 255 255 255 255 255 255 255 255 255 
255 255 255 255 255 255 255 255 255 255 255 255 255 255 255 255 
255 255 255 255 255 255 255 255 255 255 255 255 255 255 255 255 
255 255 255 255 255 254 250 235 224 199 188 205 193 152 183 149 
159 129 136 90 85 95 99 79 50 24 63 111 121 125 120 98 
53 127 132 129 83 142 116 145 169 147 169 197 184 203 226 234 
234 230 224 209 206 202 200 202 206 211 216 218 220 237 253 255 
255 255 255 255 255 255 255 255 255 255 255 255 255 255 255 255 
255 255 255 255 255 255 255 255 255 255 255 255 255 255 255 255 
255 255 255 255 255 255 255 255 255 255 255 255 255 255 255 255 
255 255 255 255 255 255 255 255 255 255 255 255 255 255 255 255 
255 255 255 255 255 255 255 255 255 255 255 255 255 255 255 255 255 255 255 255 255 255 255 255 
255 255 255 255 255 255 255 255 255 255 255 255 255 255 255 255 
255 255 255 255 255 255 255 255 255 255 255 255 255 255 255 255 
255 255 255 255 255 255 255 255 255 255 255 255 255 255 255 255 
255 255 255 255 255 255 253 245 239 222 199 211 196 176 190 140 
160 131 117 84 67 70 109 73 46 18 58 91 126 124 113 81 
57 140 138 141 82 159 119 151 166 165 194 209 196 218 233 237 
241 236 225 219 215 210 214 218 223 227 228 229 231 243 254 255 
255 255 255 255 255 255 255 255 255 255 255 255 255 255 255 255 
255 255 255 255 255 255 255 255 255 255 255 255 255 255 255 255 
255 255 255 255 255 255 255 255 255 255 255 255 255 255 255 255 
255 255 255 255 255 255 255 255 255 255 255 255 255 255 255 255 
255 255 255 255 255 255 255 255 255 255 255 255 255 255 255 255 255 255 255 255 255 255 255 255 
255 255 255 255 255 255 255 255 255 255 255 255 255 255 255 255 
255 255 255 255 255 255 255 255 255 255 255 255 255 255 255 255 
255 255 255 255 255 255 255 255 255 255 255 255 255 255 255 255 
255 255 255 255 255 255 255 251 247 241 226 214 209 182 214 169 
183 143 127 102 58 93 109 68 36 31 50 67 121 117 136 92 
71 127 136 152 142 178 142 170 160 169 197 221 213 226 238 246 
243 233 230 228 226 228 233 236 238 236 236 238 243 250 255 255 
255 255 255 255 255 255 255 255 255 255 255 255 255 255 255 255 
255 255 255 255 255 255 255 255 255 255 255 255 255 255 255 255 
255 255 255 255 255 255 255 255 255 255 255 255 255 255 255 255 
255 255 255 255 255 255 255 255 255 255 255 255 255 255 255 255 
255 255 255 255 255 255 255 255 255 255 255 255 255 255 255 255 255 255 255 255 255 255 255 255 
255 255 255 255 255 255 255 255 255 255 255 255 255 255 255 255 
255 255 255 255 255 255 255 255 255 255 255 255 255 255 255 255 
255 255 255 255 255 255 255 255 255 255 255 255 255 255 255 255 
255 255 255 255 255 255 255 253 250 246 232 216 212 171 203 206 
169 142 113 103 54 51 42 20 25 45 77 91 117 134 136 102 
101 131 163 154 163 174 143 167 173 180 204 224 228 234 244 251 
245 236 234 232 235 238 241 245 244 242 245 247 251 253 255 255 
255 255 255 255 255 255 255 255 255 255 255 255 255 255 255 255 
255 255 255 255 255 255 255 255 255 255 255 255 255 255 255 255 
255 255 255 255 255 255 255 255 255 255 255 255 255 255 255 255 
255 255 255 255 255 255 255 255 255 255 255 255 255 255 255 255 
255 255 255 255 255 255 255 255 255 255 255 255 255 255 255 255 255 255 255 255 255 255 255 255 
255 255 255 255 255 255 255 255 255 255 255 255 255 255 255 255 
255 255 255 255 255 255 255 255 255 255 255 255 255 255 255 255 
255 255 255 255 255 255 255 255 255 255 255 255 255 255 255 255 
255 255 255 255 255 255 255 255 255 253 249 242 234 210 199 200 
176 139 130 146 151 161 173 174 175 175 180 176 163 132 79 87 
100 119 103 55 140 135 91 150 169 192 222 236 241 249 252 253 
250 244 240 244 245 247 250 249 249 252 252 249 252 254 255 255 
255 255 255 255 255 255 255 255 255 255 255 255 255 255 255 255 
255 255 255 255 255 255 255 255 255 255 255 255 255 255 255 255 
255 255 255 255 255 255 255 255 255 255 255 255 255 255 255 255 
255 255 255 255 255 255 255 255 255 255 255 255 255 255 255 255 
255 255 255 255 255 255 255 255 255 255 255 255 255 255 255 255 255 255 255 255 255 255 255 255 
255 255 255 255 255 255 255 255 255 255 255 255 255 255 255 255 
255 255 255 255 255 255 255 255 255 255 255 255 255 255 255 255 
255 255 255 255 255 255 255 255 255 255 255 255 255 255 255 255 
255 255 255 255 255 255 255 255 255 255 255 255 255 254 254 254 
253 250 248 246 244 244 244 241 238 233 235 235 234 224 208 196 
189 181 159 147 177 188 189 218 235 243 250 253 253 255 255 255 
253 250 248 250 251 253 254 252 254 254 253 252 253 254 255 255 
255 255 255 255 255 255 255 255 255 255 255 255 255 255 255 255 
255 255 255 255 255 255 255 255 255 255 255 255 255 255 255 255 
255 255 255 255 255 255 255 255 255 255 255 255 255 255 255 255 
255 255 255 255 255 255 255 255 255 255 255 255 255 255 255 255 
255 255 255 255 255 255 255 255 255 255 255 255 255 255 255 255 255 255 255 255 255 255 255 255 
255 255 255 255 255 255 255 255 255 255 255 255 255 255 255 255 
255 255 255 255 255 255 255 255 255 255 255 255 255 255 255 255 
255 255 255 255 255 255 255 255 255 255 255 255 255 255 255 255 
255 255 255 255 255 255 255 255 255 255 255 255 255 255 255 255 
255 254 252 250 248 250 252 249 247 245 245 250 254 253 253 248 
249 250 249 245 250 252 250 254 254 255 254 255 254 255 255 255 
255 255 254 255 255 255 254 254 254 254 253 253 253 253 254 255 
255 255 255 255 255 255 255 255 255 255 255 255 255 255 255 255 
255 255 255 255 255 255 255 255 255 255 255 255 255 255 255 255 
255 255 255 255 255 255 255 255 255 255 255 255 255 255 255 255 
255 255 255 255 255 255 255 255 255 255 255 255 255 255 255 255 
255 255 255 255 255 255 255 255 255 255 255 255 255 255 255 255 255 255 255 255 255 255 255 255 
255 255 255 255 255 255 255 255 255 255 255 255 255 255 255 255 
255 255 255 255 255 255 255 255 255 255 255 255 255 255 255 255 
255 255 255 255 255 255 255 255 255 255 255 255 255 255 255 255 
255 255 255 255 255 255 255 255 255 255 255 255 255 255 255 255 
255 254 253 251 250 249 253 253 250 248 248 253 255 254 254 251 
251 254 254 253 253 254 254 254 254 255 255 254 254 255 255 255 
255 255 255 255 255 255 254 255 254 254 254 254 254 254 255 255 
255 255 255 255 255 255 255 255 255 255 255 255 255 255 255 255 
255 255 255 255 255 255 255 255 255 255 255 255 255 255 255 255 
255 255 255 255 255 255 255 255 255 255 255 255 255 255 255 255 
255 255 255 255 255 255 255 255 255 255 255 255 255 255 255 255 
255 255 255 255 255 255 255 255 255 255 255 255 255 255 255 255 255 255 255 255 255 255 255 255 
255 255 255 255 255 255 255 255 255 255 255 255 255 255 255 255 
255 255 255 255 255 255 255 255 255 255 255 255 255 255 255 255 
255 255 255 255 255 255 255 255 255 255 255 255 255 255 255 255 
255 255 255 255 255 255 255 255 255 255 255 255 255 255 255 255 
255 255 254 252 253 253 254 254 253 251 252 255 255 255 255 253 
251 254 255 255 255 255 255 255 255 255 255 255 255 255 255 255 
255 255 255 255 255 255 255 255 255 255 255 254 254 255 255 255 
255 255 255 255 255 255 255 255 255 255 255 255 255 255 255 255 
255 255 255 255 255 255 255 255 255 255 255 255 255 255 255 255 
255 255 255 255 255 255 255 255 255 255 255 255 255 255 255 255 
255 255 255 255 255 255 255 255 255 255 255 255 255 255 255 255 
255 255 255 255 255 255 255 255 255 255 255 255 255 255 255 255 255 255 255 255 255 255 255 255 
255 255 255 255 255 255 255 255 255 255 255 255 255 255 255 255 
255 255 255 255 255 255 255 255 255 255 255 255 255 255 255 255 
255 255 255 255 255 255 255 255 255 255 255 255 255 255 255 255 
255 255 255 255 255 255 255 255 255 255 255 255 255 255 255 255 
255 255 255 254 255 254 254 254 254 254 254 255 255 255 255 253 
252 254 254 254 254 255 254 254 255 255 255 255 255 255 255 255 
255 255 255 255 255 255 255 255 255 255 255 255 254 255 255 255 
255 255 255 255 255 255 255 255 255 255 255 255 255 255 255 255 
255 255 255 255 255 255 255 255 255 255 255 255 255 255 255 255 
255 255 255 255 255 255 255 255 255 255 255 255 255 255 255 255 
255 255 255 255 255 255 255 255 255 255 255 255 255 255 255 255 
255 255 255 255 255 255 255 255 255 255 255 255 255 255 255 255 255 255 255 255 255 255 255 255 
255 255 255 255 255 255 255 255 255 255 255 255 255 255 255 255 
255 255 255 255 255 255 255 255 255 255 255 255 255 255 255 255 
255 255 255 255 255 255 255 255 255 255 255 255 255 255 255 255 
255 255 255 255 255 255 255 255 255 255 255 255 255 255 255 255 
255 255 255 255 255 255 255 255 255 255 254 255 255 255 255 255 
254 254 255 255 255 255 255 255 255 255 255 255 255 255 255 255 
255 255 255 255 255 255 255 255 255 255 255 255 254 255 255 255 
255 255 255 255 255 255 255 255 255 255 255 255 255 255 255 255 
255 255 255 255 255 255 255 255 255 255 255 255 255 255 255 255 
255 255 255 255 255 255 255 255 255 255 255 255 255 255 255 255 
255 255 255 255 255 255 255 255 255 255 255 255 255 255 255 255 
255 255 255 255 255 255 255 255 255 255 255 255 255 255 255 255 255 255 255 255 255 255 255 255 
255 255 255 255 255 255 255 255 255 255 255 255 255 255 255 255 
255 255 255 255 255 255 255 255 255 255 255 255 255 255 255 255 
255 255 255 255 255 255 255 255 255 255 255 255 255 255 255 255 
255 255 255 255 255 255 255 255 255 255 255 255 255 255 255 255 
255 255 255 255 255 255 255 255 255 255 255 255 255 255 255 255 
254 254 254 254 254 255 255 255 255 255 255 255 255 255 255 255 
255 255 255 255 255 255 255 255 255 255 255 255 255 255 255 255 
255 255 255 255 255 255 255 255 255 255 255 255 255 255 255 255 
255 255 255 255 255 255 255 255 255 255 255 255 255 255 255 255 
255 255 255 255 255 255 255 255 255 255 255 255 255 255 255 255 
255 255 255 255 255 255 255 255 255 255 255 255 255 255 255 255 
255 255 255 255 255 255 255 255 255 255 255 255 255 255 255 255 255 255 255 255 255 255 255 255 
255 255 255 255 255 255 255 255 255 255 255 255 255 255 255 255 
255 255 255 255 255 255 255 255 255 255 255 255 255 255 255 255 
255 255 255 255 255 255 255 255 255 255 255 255 255 255 255 255 
255 255 255 255 255 255 255 255 255 255 255 255 255 255 255 255 
255 255 255 255 255 255 255 255 255 255 255 255 255 255 255 255 
255 255 255 255 255 255 255 255 255 255 255 255 255 255 255 255 
255 255 255 255 255 255 255 255 255 255 255 255 255 255 255 255 
255 255 255 255 255 255 255 255 255 255 255 255 255 255 255 255 
255 255 255 255 255 255 255 255 255 255 255 255 255 255 255 255 
255 255 255 255 255 255 255 255 255 255 255 255 255 255 255 255 
255 255 255 255 255 255 255 255 255 255 255 255 255 255 255 255 
255 255 255 255 255 255 255 255 255 255 255 255 255 255 255 255 255 255 255 255 255 255 255 255 
255 255 255 255 255 255 255 255 255 255 255 255 255 255 255 255 
255 255 255 255 255 255 255 255 255 255 255 255 255 255 255 255 
255 255 255 255 255 255 255 255 255 255 255 255 255 255 255 255 
255 255 255 255 255 255 255 255 255 255 255 255 255 255 255 255 
255 255 255 255 255 255 255 255 255 255 255 255 255 255 255 255 
255 255 255 255 255 255 255 255 255 255 255 255 255 255 255 255 
255 255 255 255 255 255 255 255 255 255 255 255 255 255 255 255 
255 255 255 255 255 255 255 255 255 255 255 255 255 255 255 255 
255 255 255 255 255 255 255 255 255 255 255 255 255 255 255 255 
255 255 255 255 255 255 255 255 255 255 255 255 255 255 255 255 
255 255 255 255 255 255 255 255 255 255 255 255 255 255 255 255 
255 255 255 255 255 255 255 255 255 255 255 255 255 255 255 255 255 255 255 255 255 255 255 255 
255 255 255 255 255 255 255 255 255 255 255 255 255 255 255 255 
255 255 255 255 255 255 255 255 255 255 255 255 255 255 255 255 
255 255 255 255 255 255 255 255 255 255 255 255 255 255 255 255 
255 255 255 255 255 255 255 255 255 255 255 255 255 255 255 255 
255 255 255 255 255 255 255 255 255 255 255 255 255 255 255 255 
255 255 255 255 255 255 255 255 255 255 255 255 255 255 255 255 
255 255 255 255 255 255 255 255 255 255 255 255 255 255 255 255 
255 255 255 255 255 255 255 255 255 255 255 255 255 255 255 255 
255 255 255 255 255 255 255 255 255 255 255 255 255 255 255 255 
255 255 255 255 255 255 255 255 255 255 255 255 255 255 255 255 
255 255 255 255 255 255 255 255 255 255 255 255 255 255 255 255 
255 255 255 255 255 255 255 255 255 255 255 255 255 255 255 255 255 255 255 255 255 255 255 255 
255 255 255 255 255 255 255 255 255 255 255 255 255 255 255 255 
255 255 255 255 255 255 255 255 255 255 255 255 255 255 255 255 
255 255 255 255 255 255 255 255 255 255 255 255 255 255 255 255 
255 255 255 255 255 255 255 255 255 255 255 255 255 255 255 255 
255 255 255 255 255 255 255 255 255 255 255 255 255 255 255 255 
255 255 255 255 255 255 255 255 255 255 255 255 255 255 255 255 
255 255 255 255 255 255 255 255 255 255 255 255 255 255 255 255 
255 255 255 255 255 255 255 255 255 255 255 255 255 255 255 255 
255 255 255 255 255 255 255 255 255 255 255 255 255 255 255 255 
255 255 255 255 255 255 255 255 255 255 255 255 255 255 255 255 
255 255 255 255 255 255 255 255 255 255 255 255 255 255 255 255 
255 255 255 255 255 255 255 255 255 255 255 255 255 255 255 255 255 255 255 255 255 255 255 255 
255 255 255 255 255 255 255 255 255 255 255 255 255 255 255 255 
255 255 255 255 255 255 255 255 255 255 255 255 255 255 255 255 
255 255 255 255 255 255 255 255 255 255 255 255 255 255 255 255 
255 255 255 255 255 255 255 255 255 255 255 255 255 255 255 255 
255 255 255 255 255 255 255 255 255 255 255 255 255 255 255 255 
255 255 255 255 255 255 255 255 255 255 255 255 255 255 255 255 
255 255 255 255 255 255 255 255 255 255 255 255 255 255 255 255 
255 255 255 255 255 255 255 255 255 255 255 255 255 255 255 255 
255 255 255 255 255 255 255 255 255 255 255 255 255 255 255 255 
255 255 255 255 255 255 255 255 255 255 255 255 255 255 255 255 
255 255 255 255 255 255 255 255 255 255 255 255 255 255 255 255 
255 255 255 255 255 255 255 255 255 255 255 255 255 255 255 255 255 255 255 255 255 255 255 255 
255 255 255 255 255 255 255 255 255 255 255 255 255 255 255 255 
255 255 255 255 255 255 255 255 255 255 255 255 255 255 255 255 
255 255 255 255 255 255 255 255 255 255 255 255 255 255 255 255 
255 255 255 255 255 255 255 255 255 255 255 255 255 255 255 255 
255 255 255 255 255 255 255 255 255 255 255 255 255 255 255 255 
255 255 255 255 255 255 255 255 255 255 255 255 255 255 255 255 
255 255 255 255 255 255 255 255 255 255 255 255 255 255 255 255 
255 255 255 255 255 255 255 255 255 255 255 255 255 255 255 255 
255 255 255 255 255 255 255 255 255 255 255 255 255 255 255 255 
255 255 255 255 255 255 255 255 255 255 255 255 255 255 255 255 
255 255 255 255 255 255 255 255 255 255 255 255 255 255 255 255 
255 255 255 255 255 255 255 255 255 255 255 255 255 255 255 255 255 255 255 255 255 255 255 255 
255 255 255 255 255 255 255 255 255 255 255 255 255 255 255 255 
255 255 255 255 255 255 255 255 255 255 255 255 255 255 255 255 
255 255 255 255 255 255 255 255 255 255 255 255 255 255 255 255 
255 255 255 255 255 255 255 255 255 255 255 255 255 255 255 255 
255 255 255 255 255 255 255 255 255 255 255 255 255 255 255 255 
255 255 255 255 255 255 255 255 255 255 255 255 255 255 255 255 
255 255 255 255 255 255 255 255 255 255 255 255 255 255 255 255 
255 255 255 255 255 255 255 255 255 255 255 255 255 255 255 255 
255 255 255 255 255 255 255 255 255 255 255 255 255 255 255 255 
255 255 255 255 255 255 255 255 255 255 255 255 255 255 255 255 
255 255 255 255 255 255 255 255 255 255 255 255 255 255 255 255 
255 255 255 255 255 255 255 255 255 255 255 255 255 255 255 255 255 255 255 255 255 255 255 255 
255 255 255 255 255 255 255 255 255 255 255 255 255 255 255 255 
255 255 255 255 255 255 255 255 255 255 255 255 255 255 255 255 
255 255 255 255 255 255 255 255 255 255 255 255 255 255 255 255 
255 255 255 255 255 255 255 255 255 255 255 255 255 255 255 255 
255 255 255 255 255 255 255 255 255 255 255 255 255 255 255 255 
255 255 255 255 255 255 255 255 255 255 255 255 255 255 255 255 
255 255 255 255 255 255 255 255 255 255 255 255 255 255 255 255 
255 255 255 255 255 255 255 255 255 255 255 255 255 255 255 255 
255 255 255 255 255 255 255 255 255 255 255 255 255 255 255 255 
255 255 255 255 255 255 255 255 255 255 255 255 255 255 255 255 
255 255 255 255 255 255 255 255 255 255 255 255 255 255 255 255 
255 255 255 255 255 255 255 255 255 255 255 255 255 255 255 255 255 255 255 255 255 255 255 255 
255 255 255 255 255 255 255 255 255 255 255 255 255 255 255 255 
255 255 255 255 255 255 255 255 255 255 255 255 255 255 255 255 
255 255 255 255 255 255 255 255 255 255 255 255 255 255 255 255 
255 255 255 255 255 255 255 255 255 255 255 255 255 255 255 255 
255 255 255 255 255 255 255 255 255 255 255 255 255 255 255 255 
255 255 255 255 255 255 255 255 255 255 255 255 255 255 255 255 
255 255 255 255 255 255 255 255 255 255 255 255 255 255 255 255 
255 255 255 255 255 255 255 255 255 255 255 255 255 255 255 255 
255 255 255 255 255 255 255 255 255 255 255 255 255 255 255 255 
255 255 255 255 255 255 255 255 255 255 255 255 255 255 255 255 
255 255 255 255 255 255 255 255 255 255 255 255 255 255 255 255 
255 255 255 255 255 255 255 255 255 255 255 255 255 255 255 255 255 255 255 255 255 255 255 255 
255 255 255 255 255 255 255 255 255 255 255 255 255 255 255 255 
255 255 255 255 255 255 255 255 255 255 255 255 255 255 255 255 
255 255 255 255 255 255 255 255 255 255 255 255 255 255 255 255 
255 255 255 255 255 255 255 255 255 255 255 255 255 255 255 255 
255 255 255 255 255 255 255 255 255 255 255 255 255 255 255 255 
255 255 255 255 255 255 255 255 255 255 255 255 255 255 255 255 
255 255 255 255 255 255 255 255 255 255 255 255 255 255 255 255 
255 255 255 255 255 255 255 255 255 255 255 255 255 255 255 255 
255 255 255 255 255 255 255 255 255 255 255 255 255 255 255 255 
255 255 255 255 255 255 255 255 255 255 255 255 255 255 255 255 
255 255 255 255 255 255 255 255 255 255 255 255 255 255 255 255 
255 255 255 255 255 255 255 255 255 255 255 255 255 255 255 255 255 255 255 255 255 255 255 255 
255 255 255 255 255 255 255 255 255 255 255 255 255 255 255 255 
255 255 255 255 255 255 255 255 255 255 255 255 255 255 255 255 
255 255 255 255 255 255 255 255 255 255 255 255 255 255 255 255 
255 255 255 255 255 255 255 255 255 255 255 255 255 255 255 255 
255 255 255 255 255 255 255 255 255 255 255 255 255 255 255 255 
255 255 255 255 255 255 255 255 255 255 255 255 255 255 255 255 
255 255 255 255 255 255 255 255 255 255 255 255 255 255 255 255 
255 255 255 255 255 255 255 255 255 255 255 255 255 255 255 255 
255 255 255 255 255 255 255 255 255 255 255 255 255 255 255 255 
255 255 255 255 255 255 255 255 255 255 255 255 255 255 255 255 
255 255 255 255 255 255 255 255 255 255 255 255 255 255 255 255 
255 255 255 255 255 255 255 255 255 255 255 255 255 255 255 255 255 255 255 255 255 255 255 255 
255 255 255 255 255 255 255 255 255 255 255 255 255 255 255 255 
255 255 255 255 255 255 255 255 255 255 255 255 255 255 255 255 
255 255 255 255 255 255 255 255 255 255 255 255 255 255 255 255 
255 255 255 255 255 255 255 255 255 255 255 255 255 255 255 255 
255 255 255 255 255 255 255 255 255 255 255 255 255 255 255 255 
255 255 255 255 255 255 255 255 255 255 255 255 255 255 255 255 
255 255 255 255 255 255 255 255 255 255 255 255 255 255 255 255 
255 255 255 255 255 255 255 255 255 255 255 255 255 255 255 255 
255 255 255 255 255 255 255 255 255 255 255 255 255 255 255 255 
255 255 255 255 255 255 255 255 255 255 255 255 255 255 255 255 
255 255 255 255 255 255 255 255 255 255 255 255 255 255 255 255 
255 255 255 255 255 255 255 255 255 255 255 255 255 255 255 255 255 255 255 255 255 255 255 255 
255 255 255 255 255 255 255 255 255 255 255 255 255 255 255 255 
255 255 255 255 255 255 255 255 255 255 255 255 255 255 255 255 
255 255 255 255 255 255 255 255 255 255 255 255 255 255 255 255 
255 255 255 255 255 255 255 255 255 255 255 255 255 255 255 255 
255 255 255 255 255 255 255 255 255 255 255 255 255 255 255 255 
255 255 255 255 255 255 255 255 255 255 255 255 255 255 255 255 
255 255 255 255 255 255 255 255 255 255 255 255 255 255 255 255 
255 255 255 255 255 255 255 255 255 255 255 255 255 255 255 255 
255 255 255 255 255 255 255 255 255 255 255 255 255 255 255 255 
255 255 255 255 255 255 255 255 255 255 255 255 255 255 255 255 
255 255 255 255 255 255 255 255 255 255 255 255 255 255 255 255 
255 255 255 255 255 255 255 255 255 255 255 255 255 255 255 255 255 255 255 255 255 255 255 255 
255 255 255 255 255 255 255 255 255 255 255 255 255 255 255 255 
255 255 255 255 255 255 255 255 255 255 255 255 255 255 255 255 
255 255 255 255 255 255 255 255 255 255 255 255 255 255 255 255 
255 255 255 255 255 255 255 255 255 255 255 255 255 255 255 255 
255 255 255 255 255 255 255 255 255 255 255 255 255 255 255 255 
255 255 255 255 255 255 255 255 255 255 255 255 255 255 255 255 
255 255 255 255 255 255 255 255 255 255 255 255 255 255 255 255 
255 255 255 255 255 255 255 255 255 255 255 255 255 255 255 255 
255 255 255 255 255 255 255 255 255 255 255 255 255 255 255 255 
255 255 255 255 255 255 255 255 255 255 255 255 255 255 255 255 
255 255 255 255 255 255 255 255 255 255 255 255 255 255 255 255 
255 255 255 255 255 255 255 