P2
200 200
 255
255 255 255 255 255 255 255 255 255 255 255 255 255 255 255 255 255 255 255 255 255 255 255 255 255 255 255 255 255 255 255 255 255 255 255 255 255 255 255 255 255 255 255 255 255 255 255 255 255 255 255 255 255 255 255 255 255 255 255 255 255 255 255 255 255 255 255 255 255 255 255 255 255 255 255 255 255 255 255 255 255 255 255 255 255 255 255 255 255 255 255 255 255 255 255 255 255 255 255 255 255 255 255 255 255 255 255 255 255 255 255 255 255 255 255 255 255 255 255 255 255 255 255 255 255 255 255 255 255 255 255 255 255 255 255 255 255 255 255 255 255 255 255 255 255 255 255 255 255 255 255 255 255 255 255 255 255 255 255 255 255 255 255 255 255 255 255 255 255 255 255 255 255 255 255 255 255 255 255 255 255 255 255 255 255 255 255 255 255 255 255 255 255 255 255 255 255 255 255 255
255 255 255 255 255 255 255 255 255 255 255 255 255 255 255 255 255 255 255 255 255 255 255 255 255 255 255 255 255 255 255 255 255 255 255 255 255 255 255 255 255 255 255 255 255 255 255 255 255 255 255 255 255 255 255 255 255 255 255 255 255 255 255 255 255 255 255 255 255 255 255 255 255 255 255 255 255 255 255 255 255 255 255 255 255 255 255 255 255 255 255 255 255 255 255 255 255 255 255 255 255 255 255 255 255 255 255 255 255 255 255 255 255 255 255 255 255 255 255 255 255 255 255 255 255 255 255 255 255 255 255 255 255 255 255 255 255 255 255 255 255 255 255 255 255 255 255 255 255 255 255 255 255 255 255 255 255 255 255 255 255 255 255 255 255 255 255 255 255 255 255 255 255 255 255 255 255 255 255 255 255 255 255 255 255 255 255 255 255 255 255 255 255 255 255 255 255 255 255 255
255 255 255 255 255 255 255 255 255 255 255 255 255 255 255 255 255 255 255 255 255 255 255 255 255 255 255 255 255 255 255 255 255 255 255 255 255 255 255 255 255 255 255 255 255 255 255 255 255 255 255 255 255 255 255 255 255 255 255 255 255 255 255 255 255 255 255 255 255 255 255 255 255 255 255 255 255 255 255 255 255 255 255 255 255 255 255 255 255 255 255 255 255 255 255 255 255 255 255 255 255 255 255 255 255 255 255 255 255 255 255 255 255 255 255 255 255 255 255 255 255 255 255 255 255 255 255 255 255 255 255 255 255 255 255 255 255 255 255 255 255 255 255 255 255 255 255 255 255 255 255 255 255 255 255 255 255 255 255 255 255 255 255 255 255 255 255 255 255 255 255 255 255 255 255 255 255 255 255 255 255 255 255 255 255 255 255 255 255 255 255 255 255 255 255 255 255 255 255 255
255 255 255 255 255 255 255 255 255 255 255 255 255 255 255 255 255 255 255 255 255 255 255 255 255 255 255 255 255 255 255 255 255 255 255 255 255 255 255 255 255 255 255 255 255 255 255 255 255 255 255 255 255 255 255 255 255 255 255 255 255 255 255 255 255 255 255 255 255 255 255 255 255 255 255 255 255 255 255 255 255 255 255 255 255 255 255 255 255 255 255 255 255 255 255 255 255 255 255 255 255 255 255 255 255 255 255 255 255 255 255 255 255 255 255 255 255 255 255 255 255 255 255 255 255 255 255 255 255 255 255 255 255 255 255 255 255 255 255 255 255 255 255 255 255 255 255 255 255 255 255 255 255 255 255 255 255 255 255 255 255 255 255 255 255 255 255 255 255 255 255 255 255 255 255 255 255 255 255 255 255 255 255 255 255 255 255 255 255 255 255 255 255 255 255 255 255 255 255 255
255 255 255 255 255 255 255 255 255 255 255 255 255 255 255 255 255 255 255 255 255 255 255 255 255 255 255 255 255 255 255 255 255 255 255 255 255 255 255 255 255 255 255 255 255 255 255 255 255 255 255 255 255 255 255 255 255 255 255 255 255 255 255 255 255 255 255 255 255 255 255 255 255 255 255 255 255 255 255 255 255 255 255 255 255 255 255 255 255 255 255 255 255 255 255 255 255 255 255 255 255 255 255 255 255 255 255 255 255 255 255 255 255 255 255 255 255 255 255 255 255 255 255 255 255 255 255 255 255 255 255 255 255 255 255 255 255 255 255 255 255 255 255 255 255 255 255 255 255 255 255 255 255 255 255 255 255 255 255 255 255 255 255 255 255 255 255 255 255 255 255 255 255 255 255 255 255 255 255 255 255 255 255 255 255 255 255 255 255 255 255 255 255 255 255 255 255 255 255 255
255 255 255 255 255 255 255 255 255 255 255 255 255 255 255 255 255 255 255 255 255 255 255 255 255 255 255 255 255 255 255 255 255 255 255 255 255 255 255 255 255 255 255 255 255 255 255 255 255 255 255 255 255 255 255 255 255 255 255 255 255 255 255 255 255 255 255 255 255 255 255 255 255 255 255 255 255 255 255 255 255 255 255 255 255 255 255 255 255 255 255 255 255 255 255 255 255 255 255 255 255 255 255 255 255 255 255 255 255 255 255 255 255 255 255 255 255 255 255 255 255 255 255 255 255 255 255 255 255 255 255 255 255 255 255 255 255 255 255 255 255 255 255 255 255 255 255 255 255 255 255 255 255 255 255 255 255 255 255 255 255 255 255 255 255 255 255 255 255 255 255 255 255 255 255 255 255 255 255 255 255 255 255 255 255 255 255 255 255 255 255 255 255 255 255 255 255 255 255 255
255 255 255 255 255 255 255 255 255 255 255 255 255 255 255 255 255 255 255 255 255 255 255 255 255 255 255 255 255 255 255 255 255 255 255 255 255 255 255 255 255 255 255 255 255 255 255 255 255 255 255 255 255 255 255 255 255 255 255 255 255 255 255 255 255 255 255 255 255 255 255 255 255 255 255 255 255 255 255 255 255 255 255 255 255 255 255 255 255 255 255 255 255 255 255 255 255 255 255 255 255 255 255 255 255 255 255 255 255 255 255 255 255 255 255 255 255 255 255 255 255 255 255 255 255 255 255 255 255 255 255 255 255 255 255 255 255 255 255 255 255 255 255 255 255 255 255 255 255 255 255 255 255 255 255 255 255 255 255 255 255 255 255 255 255 255 255 255 255 255 255 255 255 255 255 255 255 255 255 255 255 255 255 255 255 255 255 255 255 255 255 255 255 255 255 255 255 255 255 255
255 255 255 255 255 255 255 255 255 255 255 255 255 255 255 255 255 255 255 255 255 255 255 255 255 255 255 255 255 255 255 255 255 255 255 255 255 255 255 255 255 255 255 255 255 255 255 255 255 255 255 255 255 255 255 255 255 255 255 255 255 255 255 255 255 255 255 255 255 255 255 255 255 255 255 255 255 255 255 255 255 255 255 255 255 255 255 255 255 255 255 255 255 255 255 255 255 255 255 255 255 255 255 255 255 255 255 255 255 255 255 255 255 255 255 255 255 255 255 255 255 255 255 255 255 255 255 255 255 255 255 255 255 255 255 255 255 255 255 255 255 255 255 255 255 255 255 255 255 255 255 255 255 255 255 255 255 255 255 255 255 255 255 255 255 255 255 255 255 255 255 255 255 255 255 255 255 255 255 255 255 255 255 255 255 255 255 255 255 255 255 255 255 255 255 255 255 255 255 255
255 255 255 255 255 255 255 255 255 255 255 255 255 255 255 255 255 255 255 255 255 255 255 255 255 255 255 255 255 255 255 255 255 255 255 255 255 255 255 255 255 255 255 255 255 255 255 255 255 255 255 255 255 255 255 255 255 255 255 255 255 255 255 255 255 255 255 255 255 255 255 255 255 255 255 255 255 255 255 255 255 255 255 255 255 255 255 255 255 255 255 255 255 255 255 255 255 255 255 255 255 255 255 255 255 255 255 255 255 255 255 255 255 255 255 255 255 255 255 255 255 255 255 255 255 255 255 255 255 255 255 255 255 255 255 255 255 255 255 255 255 255 255 255 255 255 255 255 255 255 255 255 255 255 255 255 255 255 255 255 255 255 255 255 255 255 255 255 255 255 255 255 255 255 255 255 255 255 255 255 255 255 255 255 255 255 255 255 255 255 255 255 255 255 255 255 255 255 255 255
255 255 255 255 255 255 255 255 255 255 255 255 255 255 255 255 255 255 255 255 255 255 255 255 255 255 255 255 255 255 255 255 255 255 255 255 255 255 255 255 255 255 255 255 255 255 255 255 255 255 255 255 255 255 255 255 255 255 255 255 255 255 255 255 255 255 255 255 255 255 255 255 255 255 255 255 255 255 255 255 255 255 255 255 255 255 255 255 255 255 255 255 255 255 255 255 255 255 255 255 255 255 255 255 255 255 255 255 255 255 255 255 255 255 255 255 255 255 255 255 255 255 255 255 255 255 255 255 255 255 255 255 255 255 255 255 255 255 255 255 255 255 255 255 255 255 255 255 255 255 255 255 255 255 255 255 255 255 255 255 255 255 255 255 255 255 255 255 255 255 255 255 255 255 255 255 255 255 255 255 255 255 255 255 255 255 255 255 255 255 255 255 255 255 255 255 255 255 255 255
255 255 255 255 255 255 255 255 255 255 255 255 255 255 255 255 255 255 255 255 255 255 255 255 255 255 255 255 255 255 255 255 255 255 255 255 255 255 255 255 255 255 255 255 255 255 255 255 255 255 255 255 255 255 255 255 255 255 255 255 255 255 255 255 255 255 255 255 255 255 255 255 255 255 255 255 255 255 255 255 255 255 255 255 255 255 255 255 255 255 255 255 255 255 255 255 255 255 255 255 255 255 255 255 255 255 255 255 255 255 255 255 255 255 255 255 255 255 255 255 255 255 255 255 255 255 255 255 255 255 255 255 255 255 255 255 255 255 255 255 255 255 255 255 255 255 255 255 255 255 255 255 255 255 255 255 255 255 255 255 255 255 255 255 255 255 255 255 255 255 255 255 255 255 255 255 255 255 255 255 255 255 255 255 255 255 255 255 255 255 255 255 255 255 255 255 255 255 255 255
255 255 255 255 255 255 255 255 255 255 255 255 255 255 255 255 255 255 255 255 255 255 255 255 255 255 255 255 255 255 255 255 255 255 255 255 255 255 255 255 255 255 255 255 255 255 255 255 255 255 255 255 255 255 255 255 255 255 255 255 255 255 255 255 255 255 255 255 255 255 255 255 255 255 255 255 255 255 255 255 255 255 255 255 255 255 255 255 255 255 255 255 255 255 255 255 255 255 255 255 255 255 255 255 255 255 255 255 255 255 255 255 255 255 255 255 255 255 255 255 255 255 255 255 255 255 255 255 255 255 255 255 255 255 255 255 255 255 255 255 255 255 255 255 255 255 255 255 255 255 255 255 255 255 255 255 255 255 255 255 255 255 255 255 255 255 255 255 255 255 255 255 255 255 255 255 255 255 255 255 255 255 255 255 255 255 255 255 255 255 255 255 255 255 255 255 255 255 255 255
255 255 255 255 255 255 255 255 255 255 255 255 255 255 255 255 255 255 255 255 255 255 255 255 255 255 255 255 255 255 255 255 255 255 255 255 255 255 255 255 255 255 255 255 255 255 255 255 255 255 255 255 255 255 255 255 255 255 255 255 255 255 255 255 255 255 255 255 255 255 255 255 255 255 255 255 255 255 255 255 255 255 255 255 255 255 255 255 255 255 255 255 255 255 255 255 255 255 255 255 255 255 255 255 255 255 255 255 255 255 255 255 255 255 255 255 255 255 255 255 255 255 255 255 255 255 255 255 255 255 255 255 255 255 255 255 255 255 255 255 255 255 255 255 255 255 255 255 255 255 255 255 255 255 255 255 255 255 255 255 255 255 255 255 255 255 255 255 255 255 255 255 255 255 255 255 255 255 255 255 255 255 255 255 255 255 255 255 255 255 255 255 255 255 255 255 255 255 255 255
255 255 255 255 255 255 255 255 255 255 255 255 255 255 255 255 255 255 255 255 255 255 255 255 255 255 255 255 255 255 255 255 255 255 255 255 255 255 255 255 255 255 255 255 255 255 255 255 255 255 255 255 255 255 255 255 255 255 255 255 255 255 255 255 255 255 255 255 255 255 255 255 255 255 255 255 255 255 255 255 255 255 255 255 255 255 255 255 255 255 255 255 255 255 255 255 255 255 255 255 255 255 255 255 255 255 255 255 255 255 255 255 255 255 255 255 255 255 255 255 255 255 255 255 255 255 255 255 255 255 255 255 255 255 255 255 255 255 255 255 255 255 255 255 255 255 255 255 255 255 255 255 255 255 255 255 255 255 255 255 255 255 255 255 255 255 255 255 255 255 255 255 255 255 255 255 255 255 255 255 255 255 255 255 255 255 255 255 255 255 255 255 255 255 255 255 255 255 255 255
255 255 255 255 255 255 255 255 255 255 255 255 255 255 255 255 255 255 255 255 255 255 255 255 255 255 255 255 255 255 255 255 255 255 255 255 255 255 255 255 255 255 255 255 255 255 255 255 255 255 255 255 255 255 255 255 255 255 255 255 255 255 255 255 255 255 255 255 255 255 255 255 255 255 255 255 255 255 255 255 255 255 255 255 255 255 255 255 255 255 255 255 255 255 255 255 255 255 255 255 255 255 255 255 255 255 255 255 255 255 255 255 255 255 255 255 255 255 255 255 255 255 255 255 255 255 255 255 255 255 255 255 255 255 255 255 255 255 255 255 255 255 255 255 255 255 255 255 255 255 255 255 255 255 255 255 255 255 255 255 255 255 255 255 255 255 255 255 255 255 255 255 255 255 255 255 255 255 255 255 255 255 255 255 255 255 255 255 255 255 255 255 255 255 255 255 255 255 255 255
255 255 255 255 255 255 255 255 255 255 255 255 255 255 255 255 255 255 255 255 255 255 255 255 255 255 255 255 255 255 255 255 255 255 255 255 255 255 255 255 255 255 255 255 255 255 255 255 255 255 255 255 255 255 255 255 255 255 255 255 255 255 255 255 255 255 255 255 255 255 255 255 255 255 255 255 255 255 255 255 255 255 255 255 255 255 255 255 255 255 255 255 255 255 255 255 255 255 255 255 255 255 255 255 255 255 255 255 255 255 255 255 255 255 255 255 255 255 255 255 255 255 255 255 255 255 255 255 255 255 255 255 255 255 255 255 255 255 255 255 255 255 255 255 255 255 255 255 255 255 255 255 255 255 255 255 255 255 255 255 255 255 255 255 255 255 255 255 255 255 255 255 255 255 255 255 255 255 255 255 255 255 255 255 255 255 255 255 255 255 255 255 255 255 255 255 255 255 255 255
255 255 255 255 255 255 255 255 255 255 255 255 255 255 255 255 255 255 255 255 255 255 255 255 255 255 255 255 255 255 255 255 255 255 255 255 255 255 255 255 255 255 255 255 255 255 255 255 255 255 255 255 255 255 255 255 255 255 255 255 255 255 255 255 255 255 255 255 255 255 255 255 255 255 255 255 255 255 255 255 255 255 255 255 255 255 255 255 255 255 255 255 255 255 255 255 255 255 255 255 255 255 255 255 255 255 255 255 255 255 255 255 255 255 255 255 255 255 255 255 255 255 255 255 255 255 255 255 255 255 255 255 255 255 255 255 255 255 255 255 255 255 255 255 255 255 255 255 255 255 255 255 255 255 255 255 255 255 255 255 255 255 255 255 255 255 255 255 255 255 255 255 255 255 255 255 255 255 255 255 255 255 255 255 255 255 255 255 255 255 255 255 255 255 255 255 255 255 255 255
255 255 255 255 255 255 255 255 255 255 255 255 255 255 255 255 255 255 255 255 255 255 255 255 255 255 255 255 255 255 255 255 255 255 255 255 255 255 255 255 255 255 255 255 255 255 255 255 255 255 255 255 255 255 255 255 255 255 255 255 255 255 255 255 255 255 255 255 255 255 255 255 255 255 255 255 255 255 255 255 255 255 255 255 255 255 255 255 255 255 255 255 255 255 255 255 255 255 255 255 255 255 255 255 255 255 255 255 255 255 255 255 255 255 255 255 255 255 255 255 255 255 255 255 255 255 255 255 255 255 255 255 255 255 255 255 255 255 255 255 255 255 255 255 255 255 255 255 255 255 255 255 255 255 255 255 255 255 255 255 255 255 255 255 255 255 255 255 255 255 255 255 255 255 255 255 255 255 255 255 255 255 255 255 255 255 255 255 255 255 255 255 255 255 255 255 255 255 255 255
255 255 255 255 255 255 255 255 255 255 255 255 255 255 255 255 255 255 255 255 255 255 255 255 255 255 255 255 255 255 255 255 255 255 255 255 255 255 255 255 255 255 255 255 255 255 255 255 255 255 255 255 255 255 255 255 255 255 255 255 255 255 255 255 255 255 255 255 255 255 255 255 255 255 255 255 255 255 255 255 255 255 255 255 255 255 255 255 255 255 255 255 255 255 255 255 255 255 255 255 255 255 255 255 255 255 255 255 255 255 255 255 255 255 255 255 255 255 255 255 255 255 255 255 255 255 255 255 255 255 255 255 255 255 255 255 255 255 255 255 255 255 255 255 255 255 255 255 255 255 255 255 255 255 255 255 255 255 255 255 255 255 255 255 255 255 255 255 255 255 255 255 255 255 255 255 255 255 255 255 255 255 255 255 255 255 255 255 255 255 255 255 255 255 255 255 255 255 255 255
255 255 255 255 255 255 255 255 255 255 255 255 255 255 255 255 255 255 255 255 255 255 255 255 255 255 255 255 255 255 255 255 255 255 255 255 255 255 255 255 255 255 255 255 255 255 255 255 255 255 255 255 255 255 255 255 255 255 255 255 255 255 255 255 255 255 255 255 255 255 255 255 255 255 255 255 255 255 255 255 255 255 255 255 255 255 255 255 255 255 255 255 255 255 255 255 255 255 255 255 255 255 255 255 255 255 255 255 255 255 255 255 255 255 255 255 255 255 255 255 255 255 255 255 255 255 255 255 255 255 255 255 255 255 255 255 255 255 255 255 255 255 255 255 255 255 255 255 255 255 255 255 255 255 255 255 255 255 255 255 255 255 255 255 255 255 255 255 255 255 255 255 255 255 255 255 255 255 255 255 255 255 255 255 255 255 255 255 255 255 255 255 255 255 255 255 255 255 255 255
255 255 255 255 255 255 255 255 255 255 255 255 255 255 255 255 255 255 255 255 255 255 255 255 255 255 255 255 255 255 255 255 255 255 255 255 255 255 255 255 255 255 255 255 255 255 255 255 255 255 255 255 255 255 255 255 255 255 255 255 255 255 255 255 255 255 255 255 255 255 255 255 255 255 255 255 255 255 255 255 255 255 255 255 255 255 255 255 255 255 255 255 255 255 255 255 255 255 255 255 255 255 255 255 255 255 255 255 255 255 255 255 255 255 255 255 255 255 255 255 255 255 255 255 255 255 255 255 255 255 255 255 255 255 255 255 255 255 255 255 255 255 255 255 255 255 255 255 255 255 255 255 255 255 255 255 255 255 255 255 255 255 255 255 255 255 255 255 255 255 255 255 255 255 255 255 255 255 255 255 255 255 255 255 255 255 255 255 255 255 255 255 255 255 255 255 255 255 255 255
255 255 255 255 255 255 255 255 255 255 255 255 255 255 255 255 255 255 255 255 255 255 255 255 255 255 255 255 255 255 255 255 255 255 255 255 255 255 255 255 255 255 255 255 255 255 255 255 255 255 255 255 255 255 255 255 255 255 255 255 255 255 255 255 255 255 255 255 255 255 255 255 255 255 255 255 255 255 255 255 255 255 255 255 255 255 255 255 255 255 255 255 255 255 255 255 255 255 255 255 255 255 255 255 255 255 255 255 255 255 255 255 255 255 255 255 255 255 255 255 255 255 255 255 255 255 255 255 255 255 255 255 255 255 255 255 255 255 255 255 255 255 255 255 255 255 255 255 255 255 255 255 255 255 255 255 255 255 255 255 255 255 255 255 255 255 255 255 255 255 255 255 255 255 255 255 255 255 255 255 255 255 255 255 255 255 255 255 255 255 255 255 255 255 255 255 255 255 255 255
255 255 255 255 255 255 255 255 255 255 255 255 255 255 255 255 255 255 255 255 255 255 255 255 255 255 255 255 255 255 255 255 255 255 255 255 255 255 255 255 255 255 255 255 255 255 255 255 255 255 255 255 255 255 255 255 255 255 255 255 255 255 255 255 255 255 255 255 255 255 255 255 255 255 255 255 255 255 255 255 255 255 255 255 255 255 255 255 255 255 255 255 255 255 255 255 255 255 255 255 255 255 255 255 255 255 255 255 255 255 255 255 255 255 255 255 255 255 255 255 255 255 255 255 255 255 255 255 255 255 255 255 255 255 255 255 255 255 255 255 255 255 255 255 255 255 255 255 255 255 255 255 255 255 255 255 255 255 255 255 255 255 255 255 255 255 255 255 255 255 255 255 255 255 255 255 255 255 255 255 255 255 255 255 255 255 255 255 255 255 255 255 255 255 255 255 255 255 255 255
255 255 255 255 255 255 255 255 255 255 255 255 255 255 255 255 255 255 255 255 255 255 255 255 255 255 255 255 255 255 255 255 255 255 255 255 255 255 255 255 255 255 255 255 255 255 255 255 255 255 255 255 255 255 255 255 255 255 255 255 255 255 255 255 255 255 255 255 255 255 255 255 255 255 255 255 255 255 255 255 255 255 255 255 255 255 255 255 255 255 255 255 255 255 255 255 255 255 255 255 255 255 255 255 255 255 255 255 255 255 255 255 255 255 255 255 255 255 255 255 255 255 255 255 255 255 255 255 255 255 255 255 255 255 255 255 255 255 255 255 255 255 255 255 255 255 255 255 255 255 255 255 255 255 255 255 255 255 255 255 255 255 255 255 255 255 255 255 255 255 255 255 255 255 255 255 255 255 255 255 255 255 255 255 255 255 255 255 255 255 255 255 255 255 255 255 255 255 255 255
255 255 255 255 255 255 255 255 255 255 255 255 255 255 255 255 255 255 255 255 255 255 255 255 255 255 255 255 255 255 255 255 255 255 255 255 255 255 255 255 255 255 255 255 255 255 255 255 255 255 255 255 255 255 255 255 255 255 255 255 255 255 255 255 255 255 255 255 255 255 255 255 255 255 255 255 255 255 255 255 255 255 255 255 255 255 255 255 255 255 255 255 255 255 255 255 255 255 255 255 255 255 255 255 255 255 255 255 255 255 255 255 255 255 255 255 255 255 255 255 255 255 255 255 255 255 255 255 255 255 255 255 255 255 255 255 255 255 255 255 255 255 255 255 255 255 255 255 255 255 255 255 255 255 255 255 255 255 255 255 255 255 255 255 255 255 255 255 255 255 255 255 255 255 255 255 255 255 255 255 255 255 255 255 255 255 255 255 255 255 255 255 255 255 255 255 255 255 255 255
255 255 255 255 255 255 255 255 255 255 255 255 255 255 255 255 255 255 255 255 255 255 255 255 255 255 255 255 255 255 255 255 255 255 255 255 255 255 255 255 255 255 255 255 255 255 255 255 255 255 255 255 255 255 255 255 255 255 255 255 255 255 255 255 255 255 255 255 255 255 255 255 255 255 255 255 255 255 255 255 255 255 255 255 255 255 255 255 255 255 255 255 255 255 255 255 255 255 255 255 255 255 255 255 255 255 255 255 255 255 255 255 255 255 255 255 255 255 255 255 255 255 255 255 255 255 255 255 255 255 255 255 255 255 255 255 255 255 255 255 255 255 255 255 255 255 255 255 255 255 255 255 255 255 255 255 255 255 255 255 255 255 255 255 255 255 255 255 255 255 255 255 255 255 255 255 255 255 255 255 255 255 255 255 255 255 255 255 255 255 255 255 255 255 255 255 255 255 255 255
255 255 255 255 255 255 255 255 255 255 255 255 255 255 255 255 255 255 255 255 255 255 255 255 255 255 255 255 255 255 255 255 255 255 255 255 255 255 255 255 255 255 255 255 255 255 255 255 255 255 255 255 255 255 255 255 255 255 255 255 255 255 255 255 255 255 255 255 255 255 255 255 255 255 255 255 255 255 255 255 255 255 255 255 255 255 255 255 255 255 255 255 255 255 255 255 255 255 255 255 255 255 255 255 255 255 255 255 255 255 255 255 255 255 255 255 255 255 255 255 255 255 255 255 255 255 255 255 255 255 255 255 255 255 255 255 255 255 255 255 255 255 255 255 255 255 255 255 255 255 255 255 255 255 255 255 255 255 255 255 255 255 255 255 255 255 255 255 255 255 255 255 255 255 255 255 255 255 255 255 255 255 255 255 255 255 255 255 255 255 255 255 255 255 255 255 255 255 255 255
255 255 255 255 255 255 255 255 255 255 255 255 255 255 255 255 255 255 255 255 255 255 255 255 255 255 255 255 255 255 255 255 255 255 255 255 255 255 255 255 255 255 255 255 255 255 255 255 255 255 255 255 255 255 255 255 255 255 255 255 255 255 255 255 255 255 255 255 255 255 255 255 255 255 255 255 255 255 255 255 255 255 255 255 255 255 255 255 255 255 255 255 255 255 255 255 255 255 255 255 255 255 255 255 255 255 255 255 255 255 255 255 255 255 255 255 255 255 255 255 255 255 255 255 255 255 255 255 255 255 255 255 255 255 255 255 255 255 255 255 255 255 255 255 255 255 255 255 255 255 255 255 255 255 255 255 255 255 255 255 255 255 255 255 255 255 255 255 255 255 255 255 255 255 255 255 255 255 255 255 255 255 255 255 255 255 255 255 255 255 255 255 255 255 255 255 255 255 255 255
255 255 255 255 255 255 255 255 255 255 255 255 255 255 255 255 255 255 255 255 255 255 255 255 255 255 255 255 255 255 255 255 255 255 255 255 255 255 255 255 255 255 255 255 255 255 255 255 255 255 255 255 255 255 255 255 255 255 255 255 255 255 255 255 255 255 255 255 255 255 255 255 255 255 255 255 255 255 255 255 255 255 255 255 255 255 255 255 255 255 255 255 255 255 255 255 255 255 255 255 255 255 255 255 255 255 255 255 255 255 255 255 255 255 255 255 255 255 255 255 255 255 255 255 255 255 255 255 255 255 255 255 255 255 255 255 255 255 255 255 255 255 255 255 255 255 255 255 255 255 255 255 255 255 255 255 255 255 255 255 255 255 255 255 255 255 255 255 255 255 255 255 255 255 255 255 255 255 255 255 255 255 255 255 255 255 255 255 255 255 255 255 255 255 255 255 255 255 255 255
255 255 255 255 255 255 255 255 255 255 255 255 255 255 255 255 255 255 255 255 255 255 255 255 255 255 255 255 255 255 255 255 255 255 255 255 255 255 255 255 255 255 255 255 255 255 255 255 255 255 255 255 255 255 255 255 255 255 255 255 255 255 255 255 255 255 255 255 255 255 255 255 255 255 255 255 255 255 255 255 255 255 255 255 255 255 255 255 255 255 255 255 255 255 255 255 255 255 255 255 255 255 255 255 255 255 255 255 255 255 255 255 255 255 255 255 255 255 255 255 255 255 255 255 255 255 255 255 255 255 255 255 255 255 255 255 255 255 255 255 255 255 255 255 255 255 255 255 255 255 255 255 255 255 255 255 255 255 255 255 255 255 255 255 255 255 255 255 255 255 255 255 255 255 255 255 255 255 255 255 255 255 255 255 255 255 255 255 255 255 255 255 255 255 255 255 255 255 255 255
255 255 255 255 255 255 255 255 255 255 255 255 255 255 255 255 255 255 255 255 255 255 255 255 255 255 255 255 255 255 255 255 255 255 255 255 255 255 255 255 255 255 255 255 255 255 255 255 255 255 255 255 255 255 255 255 255 255 255 255 255 255 255 255 255 255 255 255 255 255 255 255 255 255 255 255 255 255 255 255 255 255 255 255 255 255 255 255 255 255 255 255 255 255 255 255 255 255 255 255 255 255 255 255 255 255 255 255 255 255 255 255 255 255 255 255 255 255 255 255 255 255 255 255 255 255 255 255 255 255 255 255 255 255 255 255 255 255 255 255 255 255 255 255 255 255 255 255 255 255 255 255 255 255 255 255 255 255 255 255 255 255 255 255 255 255 255 255 255 255 255 255 255 255 255 255 255 255 255 255 255 255 255 255 255 255 255 255 255 255 255 255 255 255 255 255 255 255 255 255
255 255 255 255 255 255 255 255 255 255 255 255 255 255 255 255 255 255 255 255 255 255 255 255 255 255 255 255 255 255 255 255 255 255 255 255 255 255 255 255 255 255 255 255 255 255 255 255 255 255 255 255 255 255 255 255 255 255 255 255 255 255 255 255 255 255 255 255 255 255 255 255 255 255 255 255 255 255 255 255 255 255 255 255 255 255 255 255 255 255 255 255 255 255 255 255 255 255 255 255 255 255 255 255 255 255 255 255 255 255 255 255 255 255 255 255 255 255 255 255 255 255 255 255 255 255 255 255 255 255 255 255 255 255 255 255 255 255 255 255 255 255 255 255 255 255 255 255 255 255 255 255 255 255 255 255 255 255 255 255 255 255 255 255 255 255 255 255 255 255 255 255 255 255 255 255 255 255 255 255 255 255 255 255 255 255 255 255 255 255 255 255 255 255 255 255 255 255 255 255
255 255 255 255 255 255 255 255 255 255 255 255 255 255 255 255 255 255 255 255 255 255 255 255 255 255 255 255 255 255 255 255 255 255 255 255 255 255 255 255 255 255 255 255 255 255 255 255 255 255 255 255 255 255 255 255 255 255 255 255 255 255 255 255 255 255 255 255 255 255 255 255 255 255 255 255 255 255 255 255 255 255 255 255 255 255 255 255 255 255 255 255 255 255 255 255 255 255 255 255 255 255 255 255 255 255 255 255 255 255 255 255 255 255 255 255 255 255 255 255 255 255 255 255 255 255 255 255 255 255 255 255 255 255 255 255 255 255 255 255 255 255 255 255 255 255 255 255 255 255 255 255 255 255 255 255 255 255 255 255 255 255 255 255 255 255 255 255 255 255 255 255 255 255 255 255 255 255 255 255 255 255 255 255 255 255 255 255 255 255 255 255 255 255 255 255 255 255 255 255
255 255 255 255 255 255 255 255 255 255 255 255 255 255 255 255 255 255 255 255 255 255 255 255 255 255 255 255 255 255 255 255 255 255 255 255 255 255 255 255 255 255 255 255 255 255 255 255 255 255 255 255 255 255 255 255 255 255 255 255 255 255 255 255 255 255 255 255 255 255 255 255 255 255 255 255 255 255 255 255 255 255 255 255 255 255 255 255 255 255 255 255 255 255 255 255 255 255 255 255 255 255 255 255 255 255 255 255 255 255 255 255 255 255 255 255 255 255 255 255 255 255 255 255 255 255 255 255 255 255 255 255 255 255 255 255 255 255 255 255 255 255 255 255 255 255 255 255 255 255 255 255 255 255 255 255 255 255 255 255 255 255 255 255 255 255 255 255 255 255 255 255 255 255 255 255 255 255 255 255 255 255 255 255 255 255 255 255 255 255 255 255 255 255 255 255 255 255 255 255
255 255 255 255 255 255 255 255 255 255 255 255 255 255 255 255 255 255 255 255 255 255 255 255 255 255 255 255 255 255 255 255 255 255 255 255 255 255 255 255 255 255 255 255 255 255 255 255 255 255 255 255 255 255 255 255 255 255 255 255 255 255 255 255 255 255 255 255 255 255 255 255 255 255 255 255 255 255 255 255 255 255 255 255 255 255 255 255 255 255 255 255 255 255 255 255 255 255 255 255 255 255 255 255 255 255 255 255 255 255 255 255 255 255 255 255 255 255 255 255 255 255 255 255 255 255 255 255 255 255 255 255 255 255 255 255 255 255 255 255 255 255 255 255 255 255 255 255 255 255 255 255 255 255 255 255 255 255 255 255 255 255 255 255 255 255 255 255 255 255 255 255 255 255 255 255 255 255 255 255 255 255 255 255 255 255 255 255 255 255 255 255 255 255 255 255 255 255 255 255
255 255 255 255 255 255 255 255 255 255 255 255 255 255 255 255 255 255 255 255 255 255 255 255 255 255 255 255 255 255 255 255 255 255 255 255 255 255 255 255 255 255 255 255 255 255 255 255 255 255 255 255 255 255 255 255 255 255 255 255 255 255 255 255 255 255 255 255 255 255 255 255 255 255 255 255 255 255 255 255 255 255 255 255 255 255 255 255 255 255 255 255 255 255 255 255 255 255 255 255 255 255 255 255 255 255 255 255 255 255 255 255 255 255 255 255 255 255 255 255 255 255 255 255 255 255 255 255 255 255 255 255 255 255 255 255 255 255 255 255 255 255 255 255 255 255 255 255 255 255 255 255 255 255 255 255 255 255 255 255 255 255 255 255 255 255 255 255 255 255 255 255 255 255 255 255 255 255 255 255 255 255 255 255 255 255 255 255 255 255 255 255 255 255 255 255 255 255 255 255
255 255 255 255 255 255 255 255 255 255 255 255 255 255 255 255 255 255 255 255 255 255 255 255 255 255 255 255 255 255 255 255 255 255 255 255 255 255 255 255 255 255 255 255 255 255 255 255 255 255 255 255 255 255 255 255 255 255 255 255 255 255 255 255 255 255 255 255 255 255 255 255 255 255 255 255 255 255 255 255 255 255 255 255 255 255 255 255 255 255 255 255 255 255 254 254 254 254 254 254 254 254 254 254 255 255 255 255 255 255 255 255 255 255 255 255 255 255 255 255 255 255 255 255 255 255 255 255 255 255 255 255 255 255 255 255 255 255 255 255 255 255 255 255 255 255 255 255 255 255 255 255 255 255 255 255 255 255 255 255 255 255 255 255 255 255 255 255 255 255 255 255 255 255 255 255 255 255 255 255 255 255 255 255 255 255 255 255 255 255 255 255 255 255 255 255 255 255 255 255
255 255 255 255 255 255 255 255 255 255 255 255 255 255 255 255 255 255 255 255 255 255 255 255 255 255 255 255 255 255 255 255 255 255 255 255 255 255 255 255 255 255 255 255 255 255 255 255 255 255 255 255 255 255 255 255 255 255 255 255 255 255 255 255 255 255 255 255 255 255 255 255 255 255 255 255 255 255 255 255 255 255 255 255 255 255 255 255 255 255 255 255 255 255 254 254 254 254 254 254 254 254 254 254 255 255 255 255 255 255 255 255 255 255 255 255 255 255 255 255 255 255 255 255 255 255 255 255 255 255 255 255 255 255 255 255 255 255 255 255 255 255 255 255 255 255 255 255 255 255 255 255 255 255 255 255 255 255 255 255 255 255 255 255 255 255 255 255 255 255 255 255 255 255 255 255 255 255 255 255 255 255 255 255 255 255 255 255 255 255 255 255 255 255 255 255 255 255 255 255
255 255 255 255 255 255 255 255 255 255 255 255 255 255 255 255 255 255 255 255 255 255 255 255 255 255 255 255 255 255 255 255 255 255 255 255 255 255 255 255 255 255 255 255 255 255 255 255 255 255 255 255 255 255 255 255 255 255 255 255 255 255 255 255 255 255 255 255 255 255 255 255 255 255 255 255 255 255 255 255 255 255 255 255 255 255 255 255 255 255 255 255 255 255 254 254 253 253 253 253 254 254 254 254 255 255 255 255 255 255 255 255 255 255 255 255 255 255 255 255 255 255 255 255 255 255 255 255 255 255 255 255 255 255 255 255 255 255 255 255 255 255 255 255 255 255 255 255 255 255 255 255 255 255 255 255 255 255 255 255 255 255 255 255 255 255 255 255 255 255 255 255 255 255 255 255 255 255 255 255 255 255 255 255 255 255 255 255 255 255 255 255 255 255 255 255 255 255 255 255
255 255 255 255 255 255 255 255 255 255 255 255 255 255 255 255 255 255 255 255 255 255 255 255 255 255 255 255 255 255 255 255 255 255 255 255 255 255 255 255 255 255 255 255 255 255 255 255 255 255 255 255 255 255 255 255 255 255 255 255 255 255 255 255 255 255 255 255 255 255 255 255 255 255 255 255 255 255 255 255 255 255 255 255 255 255 255 255 255 255 255 255 255 255 254 252 250 249 249 249 251 254 254 254 255 255 255 255 255 255 255 255 255 255 255 255 255 255 255 255 255 255 255 255 255 255 255 255 255 255 255 255 255 255 255 255 255 255 255 255 255 255 255 255 255 255 255 255 255 255 255 255 255 255 255 255 255 255 255 255 255 255 255 255 255 255 255 255 255 255 255 255 255 255 255 255 255 255 255 255 255 255 255 255 255 255 255 255 255 255 255 255 255 255 255 255 255 255 255 255
255 255 255 255 255 255 255 255 255 255 255 255 255 255 255 255 255 255 255 255 255 255 255 255 255 255 255 255 255 255 255 255 255 255 255 255 255 255 255 255 255 255 255 255 255 255 255 255 255 255 255 255 255 255 255 255 255 255 255 255 255 255 255 255 255 255 255 255 255 255 255 255 255 255 255 255 255 255 255 255 255 255 255 255 255 255 255 255 255 255 255 254 254 254 253 248 244 242 242 243 248 252 254 254 254 255 255 255 255 255 255 255 255 255 255 255 255 255 255 255 255 255 255 255 255 255 255 255 255 255 255 255 255 255 255 255 255 255 255 255 255 255 255 255 255 255 255 255 255 255 255 255 255 255 255 255 255 255 255 255 255 255 255 255 255 255 255 255 255 255 255 255 255 255 255 255 255 255 255 255 255 255 255 255 255 255 255 255 255 255 255 255 255 255 255 255 255 255 255 255
255 255 255 255 255 255 255 255 255 255 255 255 255 255 255 255 255 255 255 255 255 255 255 255 255 255 255 255 255 255 255 255 255 255 255 255 255 255 255 255 255 255 255 255 255 255 255 255 255 255 255 255 255 255 255 255 255 255 255 255 255 255 255 255 255 255 255 255 255 255 255 255 255 255 255 255 255 255 255 255 255 255 255 255 255 255 255 255 255 255 255 254 254 254 250 242 236 232 231 235 243 250 253 254 254 255 255 255 255 255 255 255 255 255 255 255 255 255 255 255 255 255 255 255 255 255 255 255 255 255 255 255 255 255 255 255 255 255 255 255 255 255 255 255 255 255 255 255 255 255 255 255 255 255 255 255 255 255 255 255 255 255 255 255 255 255 255 255 255 255 255 255 255 255 255 255 255 255 255 255 255 255 255 255 255 255 255 255 255 255 255 255 255 255 255 255 255 255 255 255
255 255 255 255 255 255 255 255 255 255 255 255 255 255 255 255 255 255 255 255 255 255 255 255 255 255 255 255 255 255 255 255 255 255 255 255 255 255 255 255 255 255 255 255 255 255 255 255 255 255 255 255 255 255 255 255 255 255 255 255 255 255 255 255 255 255 255 255 255 255 255 255 255 255 255 255 255 255 255 255 255 255 255 255 255 255 255 255 255 255 255 254 254 253 245 234 225 219 218 226 237 246 252 254 254 255 255 255 255 255 255 255 255 255 255 255 255 255 255 255 255 255 255 255 255 255 255 255 255 255 255 255 255 255 255 255 255 255 255 255 255 255 255 255 255 255 255 255 255 255 255 255 255 255 255 255 255 255 255 255 255 255 255 255 255 255 255 255 255 255 255 255 255 255 255 255 255 255 255 255 255 255 255 255 255 255 255 255 255 255 255 255 255 255 255 255 255 255 255 255
255 255 255 255 255 255 255 255 255 255 255 255 255 255 255 255 255 255 255 255 255 255 255 255 255 255 255 255 255 255 255 255 255 255 255 255 255 255 255 255 255 255 255 255 255 255 255 255 255 255 255 255 255 255 255 255 255 255 255 255 255 255 255 255 255 255 255 255 255 255 255 255 255 255 255 255 255 255 255 255 255 255 255 255 255 255 255 255 254 254 254 254 254 251 238 223 213 205 204 216 231 241 249 254 254 255 255 255 255 255 255 255 255 255 255 255 255 255 255 255 255 255 255 255 255 255 255 255 255 255 255 255 255 255 255 255 255 255 255 255 255 255 255 255 255 255 255 255 255 255 255 255 255 255 255 255 255 255 255 255 255 255 255 255 255 255 255 255 255 255 255 255 255 255 255 255 255 255 255 255 255 255 255 255 255 255 255 255 255 255 255 255 255 255 255 255 255 255 255 255
255 255 255 255 255 255 255 255 255 255 255 255 255 255 255 255 255 255 255 255 255 255 255 255 255 255 255 255 255 255 255 255 255 255 255 255 255 255 255 255 255 255 255 255 255 255 255 255 255 255 255 255 255 255 255 255 255 255 255 255 255 255 255 255 255 255 255 255 255 255 255 255 255 255 255 255 255 255 255 255 255 255 255 255 255 255 255 255 254 254 254 254 253 245 228 212 201 192 193 209 225 236 247 254 254 255 255 255 255 255 255 255 255 255 255 255 255 255 255 255 255 255 255 255 255 255 255 255 255 255 255 255 255 255 255 255 255 255 255 255 255 255 255 255 255 255 255 255 255 255 255 255 255 255 255 255 255 255 255 255 255 255 255 255 255 255 255 255 255 255 255 255 255 255 255 255 255 255 255 255 255 255 255 255 255 255 255 255 255 255 255 255 255 255 255 255 255 255 255 255
255 255 255 255 255 255 255 255 255 255 255 255 255 255 255 255 255 255 255 255 255 255 255 255 255 255 255 255 255 255 255 255 255 255 255 255 255 255 255 255 255 255 255 255 255 255 255 255 255 255 255 255 255 255 255 255 255 255 255 255 255 255 255 255 255 255 255 255 255 255 255 255 255 255 255 255 255 255 255 255 255 255 255 255 255 255 255 255 254 254 254 254 250 236 215 200 190 181 186 205 220 231 243 253 254 255 255 255 255 255 255 255 255 255 255 255 255 255 255 255 255 255 255 255 255 255 255 255 255 255 255 255 255 255 255 255 255 255 255 255 255 255 255 255 255 255 255 255 255 255 255 255 255 255 255 255 255 255 255 255 255 255 255 255 255 255 255 255 255 255 255 255 255 255 255 255 255 255 255 255 255 255 255 255 255 255 255 255 255 255 255 255 255 255 255 255 255 255 255 255
255 255 255 255 255 255 255 255 255 255 255 255 255 255 255 255 255 255 255 255 255 255 255 255 255 255 255 255 255 255 255 255 255 255 255 255 255 255 255 255 255 255 255 255 255 255 255 255 255 255 255 255 255 255 255 255 255 255 255 255 255 255 255 255 255 255 255 255 255 255 255 255 255 255 255 255 255 255 255 255 255 255 255 255 255 255 255 255 254 254 254 254 244 224 201 186 176 173 182 202 217 227 239 251 254 255 255 255 255 255 255 255 255 255 255 255 255 255 255 255 255 255 255 255 255 255 255 255 255 255 255 255 255 255 255 255 255 255 255 255 255 255 255 255 255 255 255 255 255 255 255 255 255 255 255 255 255 255 255 255 255 255 255 255 255 255 255 255 255 255 255 255 255 255 255 255 255 255 255 255 255 255 255 255 255 255 255 255 255 255 255 255 255 255 255 255 255 255 255 255
255 255 255 255 255 255 255 255 255 255 255 255 255 255 255 255 255 255 255 255 255 255 255 255 255 255 255 255 255 255 255 255 255 255 255 255 255 255 255 255 255 255 255 255 255 255 255 255 255 255 255 255 255 255 255 255 255 255 255 255 255 255 255 255 255 255 255 255 255 255 255 255 255 255 255 255 255 255 255 255 255 255 255 255 255 255 255 255 254 254 254 251 236 210 185 171 163 166 180 199 213 224 236 249 254 255 255 255 255 255 255 255 255 255 255 255 255 255 255 255 255 255 255 255 255 255 255 255 255 255 255 255 255 255 255 255 255 255 255 255 255 255 255 255 255 255 255 255 255 255 255 255 255 255 255 255 255 255 255 255 255 255 255 255 255 255 255 255 255 255 255 255 255 255 255 255 255 255 255 255 255 255 255 255 255 255 255 255 255 255 255 255 255 255 255 255 255 255 255 255
255 255 255 255 255 255 255 255 255 255 255 255 255 255 255 255 255 255 255 255 255 255 255 255 255 255 255 255 255 255 255 255 255 255 255 255 255 255 255 255 255 255 255 255 255 255 255 255 255 255 255 255 255 255 255 255 255 255 255 255 255 255 255 255 255 255 255 255 255 255 255 255 255 255 255 255 255 255 255 255 255 255 255 255 255 255 255 255 254 254 254 247 226 197 172 157 154 161 178 195 209 220 233 246 254 255 255 255 255 255 255 255 255 255 255 255 255 255 255 255 255 255 255 255 255 255 255 255 255 255 255 255 255 255 255 255 255 255 255 255 255 255 255 255 255 255 255 255 255 255 255 255 255 255 255 255 255 255 255 255 255 255 255 255 255 255 255 255 255 255 255 255 255 255 255 255 255 255 255 255 255 255 255 255 255 255 255 255 255 255 255 255 255 255 255 255 255 255 255 255
255 255 255 255 255 255 255 255 255 255 255 255 255 255 255 255 255 255 255 255 255 255 255 255 255 255 255 255 255 255 255 255 255 255 255 255 255 255 255 255 255 255 255 255 255 255 255 255 255 255 255 255 255 255 255 255 255 255 255 255 255 255 255 255 255 255 255 255 255 255 255 255 255 255 255 255 255 255 255 255 255 255 255 255 255 255 255 255 254 254 252 240 214 184 159 146 147 160 177 191 204 216 229 243 253 254 254 254 254 254 254 255 255 255 255 255 255 255 255 255 255 255 254 254 254 254 254 254 255 255 255 255 255 255 255 255 255 255 255 255 255 255 255 255 255 255 255 255 255 255 255 255 255 255 255 255 255 255 255 255 255 255 255 255 255 255 255 255 255 255 255 255 255 255 255 255 255 255 255 255 255 255 255 255 255 255 255 255 255 255 255 255 255 255 255 255 255 255 255 255
255 255 255 255 255 255 255 255 255 255 255 255 255 255 255 255 255 255 255 255 255 255 255 255 255 255 255 255 255 255 255 255 255 255 255 255 255 255 255 255 255 255 255 255 255 255 255 255 255 255 255 255 255 255 255 255 255 255 255 255 255 255 255 255 255 255 255 255 255 255 255 255 255 255 255 255 255 255 255 255 255 255 255 255 255 255 255 255 254 254 248 230 201 171 147 136 141 156 172 185 198 212 225 239 251 254 254 254 254 254 254 255 255 255 255 255 255 255 255 255 255 255 254 254 254 254 254 254 255 255 255 255 255 255 255 255 255 255 255 255 255 255 255 255 255 255 255 255 255 255 255 255 255 255 255 255 255 255 255 255 255 255 255 255 255 255 255 255 255 255 255 255 255 255 255 255 255 255 255 255 255 255 255 255 255 255 255 255 255 255 255 255 255 255 255 255 255 255 255 255
255 255 255 255 255 255 255 255 255 255 255 255 255 255 255 255 255 255 255 255 255 255 255 255 255 255 255 255 255 255 255 255 255 255 255 255 255 255 255 255 255 255 255 255 255 255 255 255 255 255 255 255 255 255 255 255 255 255 255 255 255 255 255 255 255 255 255 255 255 255 255 255 255 255 255 255 255 255 255 255 255 255 255 255 255 255 255 255 254 253 242 220 194 167 146 138 143 154 165 174 187 203 219 234 248 254 254 254 254 254 254 255 255 255 255 255 255 255 255 255 255 254 254 254 254 254 254 254 255 254 254 254 254 254 254 254 255 255 255 255 255 255 255 255 255 255 255 255 255 255 255 255 255 255 255 255 255 255 255 255 255 255 255 255 255 255 255 255 255 255 255 255 255 255 255 255 255 255 255 255 255 255 255 255 255 255 255 255 255 255 255 255 255 255 255 255 255 255 255 255
255 255 255 255 255 255 255 255 255 255 255 255 255 255 255 255 255 255 255 255 255 255 255 255 255 255 255 255 255 255 255 255 255 255 255 255 255 255 255 255 255 255 255 255 255 255 255 255 255 255 255 255 255 255 255 255 255 255 255 255 255 255 255 255 255 255 255 255 255 255 255 255 255 255 255 255 255 255 255 255 255 255 255 255 255 255 255 254 254 250 234 209 183 160 144 140 146 153 159 163 174 191 210 227 244 252 254 254 254 254 254 255 255 255 255 255 255 255 255 255 255 254 254 254 254 254 254 254 254 254 254 254 254 254 254 254 255 255 255 255 255 255 255 255 255 255 255 255 255 255 255 255 255 255 255 255 255 255 255 255 255 255 255 255 255 255 255 255 255 255 255 255 255 255 255 255 255 255 255 255 255 255 255 255 255 255 255 255 255 255 255 255 255 255 255 255 255 255 255 255
255 255 255 255 255 255 255 255 255 255 255 255 255 255 255 255 255 255 255 255 255 255 255 255 255 255 255 255 255 255 255 255 255 255 255 255 255 255 255 255 255 255 255 255 255 255 255 255 255 255 255 255 255 255 255 255 255 255 255 255 255 255 255 255 255 255 255 255 255 255 255 255 255 255 255 255 255 255 255 255 255 255 255 255 255 255 255 254 254 246 224 196 170 149 136 138 146 152 155 156 164 179 198 217 236 249 253 254 254 254 254 254 254 254 255 255 255 255 255 255 255 254 254 254 254 254 254 254 254 254 254 254 254 254 254 254 255 255 255 255 255 255 255 255 255 255 255 255 255 255 255 255 255 255 255 255 255 255 255 255 255 255 255 255 255 255 255 255 255 255 255 255 255 255 255 255 255 255 255 255 255 255 255 255 255 255 255 255 255 255 255 255 255 255 255 255 255 255 255 255
255 255 255 255 255 255 255 255 255 255 255 255 255 255 255 255 255 255 255 255 255 255 255 255 255 255 255 255 255 255 255 255 255 255 255 255 255 255 255 255 255 255 255 255 255 255 255 255 255 255 255 255 255 255 255 255 255 255 255 255 255 255 255 255 255 255 255 255 255 255 255 255 255 255 255 255 255 255 255 255 255 255 255 255 255 255 255 254 250 237 211 183 158 143 137 141 148 151 149 147 152 163 179 197 217 233 243 248 252 253 254 254 254 254 255 255 255 255 255 255 255 254 254 254 254 254 254 254 254 253 253 254 254 254 254 254 255 255 255 255 255 255 255 255 255 255 255 255 255 255 255 255 255 255 255 255 255 255 255 255 255 255 255 255 255 255 255 255 255 255 255 255 255 255 255 255 255 255 255 255 255 255 255 255 255 255 255 255 255 255 255 255 255 255 255 255 255 255 255 255
255 255 255 255 255 255 255 255 255 255 255 255 255 255 255 255 255 255 255 255 255 255 255 255 255 255 255 255 255 255 255 255 255 255 255 255 255 255 255 255 255 255 255 255 255 255 255 255 255 255 255 255 255 255 255 255 255 255 255 255 255 255 255 255 255 255 255 255 255 255 255 255 255 255 255 255 255 255 255 255 255 255 255 255 255 254 254 253 243 224 197 170 150 142 142 146 151 151 144 139 140 146 159 174 190 205 216 225 234 242 248 253 254 254 254 254 255 255 255 255 255 254 254 254 253 251 248 245 242 241 244 246 249 252 254 254 255 255 255 255 255 255 255 255 255 255 255 255 255 255 255 255 255 255 255 255 255 255 255 255 255 255 255 255 255 255 255 255 255 255 255 255 255 255 255 255 255 255 255 255 255 255 255 255 255 255 255 255 255 255 255 255 255 255 255 255 255 255 255 255
255 255 255 255 255 255 255 255 255 255 255 255 255 255 255 255 255 255 255 255 255 255 255 255 254 254 254 254 254 254 254 254 254 254 255 255 255 255 255 255 255 255 255 255 255 255 255 255 255 255 255 255 255 255 255 255 255 255 255 255 255 255 255 255 255 255 255 255 255 255 255 255 255 255 255 255 255 255 255 255 255 255 254 254 254 254 253 248 233 211 185 159 141 137 140 144 149 150 143 138 135 136 143 154 165 178 190 198 209 223 234 245 251 254 254 254 254 254 254 254 254 253 252 249 245 240 235 230 225 224 229 235 241 249 254 254 254 255 255 255 255 255 255 255 255 255 255 255 255 255 255 255 255 255 255 255 255 255 255 255 255 255 255 255 255 255 255 255 255 255 255 255 255 255 255 255 255 255 255 255 255 255 255 255 255 255 255 255 255 255 255 255 255 255 255 255 255 255 255 255
255 255 255 255 255 255 255 255 255 255 255 255 255 255 255 255 255 254 254 254 254 254 254 254 254 254 254 254 254 254 254 254 254 254 255 255 255 255 255 255 255 255 255 255 255 255 255 255 255 255 255 255 255 255 255 255 255 255 255 255 255 255 255 255 255 255 255 255 255 255 255 255 255 255 255 255 255 255 255 255 255 254 254 254 254 254 250 241 222 199 174 152 138 140 145 148 149 150 143 137 132 130 133 141 147 158 168 175 184 198 213 229 241 249 254 254 254 254 254 253 250 245 240 233 226 219 214 209 204 204 212 222 233 245 254 254 254 255 255 255 255 255 255 255 255 255 255 255 255 255 255 255 255 255 255 255 255 255 255 255 255 255 255 255 255 255 255 255 255 255 255 255 255 255 255 255 255 255 255 255 255 255 255 255 255 255 255 255 255 255 255 255 255 255 255 255 255 255 255 255
255 255 255 255 255 255 255 255 255 255 255 255 255 255 255 255 254 254 254 254 254 254 254 254 254 254 254 254 254 254 254 254 254 254 255 255 255 255 255 255 255 255 255 255 255 255 255 255 255 255 255 255 255 255 255 255 255 255 255 255 255 255 255 255 255 255 255 255 255 255 255 255 255 255 255 255 255 255 255 255 255 254 254 254 254 251 244 231 209 186 166 151 145 152 158 157 156 152 142 134 129 127 128 133 136 145 148 150 155 167 183 205 224 239 249 253 253 251 247 241 233 224 215 207 200 195 190 185 180 181 193 208 224 241 253 254 254 255 255 255 255 255 255 255 255 255 255 255 255 255 255 255 255 255 255 255 255 255 255 255 255 255 255 255 255 255 255 255 255 255 255 255 255 255 255 255 255 255 255 255 255 255 255 255 255 255 255 255 255 255 255 255 255 255 255 255 255 255 255 255
255 255 255 255 255 255 255 255 255 255 255 255 255 255 255 255 254 254 254 254 254 254 254 254 254 254 254 254 254 254 254 254 254 254 255 255 255 255 255 255 255 255 255 255 255 255 255 255 255 255 255 255 255 255 255 255 255 255 255 255 255 255 255 255 255 255 255 255 255 255 255 255 255 255 255 255 255 255 255 255 255 254 254 253 250 244 232 214 193 172 155 146 147 156 161 163 161 156 144 137 132 132 133 137 138 140 134 128 128 137 153 177 201 219 231 235 234 229 223 215 206 198 190 183 178 173 168 162 156 157 174 193 214 236 253 254 254 255 255 255 255 255 255 255 255 255 255 255 255 255 255 255 255 255 255 255 255 255 255 255 255 255 255 255 255 255 255 255 255 255 255 255 255 255 255 255 255 255 255 255 255 255 255 255 255 255 255 255 255 255 255 255 255 255 255 255 255 255 255 255
255 255 255 255 255 255 255 255 255 255 255 255 255 255 255 255 254 254 254 254 254 254 254 253 253 254 254 254 254 254 254 254 254 254 255 255 255 255 255 255 255 255 255 255 255 255 255 255 255 255 255 255 255 255 255 255 255 255 255 255 255 255 255 255 255 255 255 255 255 255 255 255 254 254 254 254 254 254 254 254 255 254 253 248 240 228 211 190 172 155 140 132 135 146 154 162 166 164 152 144 141 139 141 145 145 144 136 124 117 120 130 150 174 190 200 203 200 194 189 184 177 171 164 158 154 151 148 145 142 144 163 186 210 234 252 254 254 255 255 255 255 255 255 255 255 255 255 255 255 255 255 255 255 255 255 255 255 255 255 255 255 255 255 255 255 255 255 255 255 255 255 255 255 255 255 255 255 255 255 255 255 255 255 255 255 255 255 255 255 255 255 255 255 255 255 255 255 255 255 255
255 255 255 255 255 255 255 255 255 255 255 254 254 254 254 254 254 254 254 254 251 248 244 240 236 235 236 238 242 246 249 252 254 254 255 255 255 255 255 255 255 255 255 255 255 255 255 255 255 255 255 255 255 255 255 255 255 255 255 255 255 255 255 255 255 255 255 255 255 255 255 255 254 254 254 254 254 254 254 254 254 253 247 237 227 212 191 172 156 138 121 113 116 132 145 160 171 173 160 153 150 148 152 153 150 146 137 121 112 111 115 128 147 161 167 168 165 158 155 153 149 146 142 138 137 137 135 133 131 136 157 181 208 233 252 254 255 255 255 255 255 255 255 255 255 255 255 255 255 255 255 255 255 255 255 255 255 255 255 255 255 255 255 255 255 255 255 255 255 255 255 255 255 255 255 255 255 255 255 255 255 255 255 255 255 255 255 255 255 255 255 255 255 255 255 255 255 255 255 255
255 255 255 255 254 254 254 254 253 250 246 241 236 232 230 229 228 228 229 230 229 228 226 224 221 220 219 219 219 221 224 229 236 242 248 252 254 254 254 254 254 254 254 254 255 255 255 255 255 255 255 255 255 255 255 255 255 255 255 255 255 255 255 255 255 255 255 255 255 255 255 255 254 254 254 254 254 254 254 254 254 249 239 225 212 197 174 156 144 123 102 98 100 119 137 159 175 182 170 163 160 158 159 156 151 144 133 118 111 108 108 116 128 135 135 134 129 123 122 125 126 128 129 130 131 132 129 125 123 129 151 178 207 234 252 254 255 255 255 255 255 255 255 255 255 255 255 255 255 255 255 255 255 255 255 255 255 255 255 255 255 255 255 255 254 254 254 254 254 255 254 254 254 254 254 254 254 254 254 254 254 255 255 255 255 255 255 255 255 255 255 255 255 255 255 255 255 255 255 255
254 254 254 254 254 254 254 254 250 243 236 228 220 216 215 214 214 213 211 208 203 199 196 195 196 198 200 201 202 203 204 206 210 215 222 231 239 246 251 253 254 254 254 254 255 255 255 255 255 255 255 255 255 255 255 255 255 255 255 255 255 255 255 255 255 255 255 255 255 255 255 255 254 254 254 254 254 254 254 253 251 243 228 210 195 181 156 141 133 110 85 85 88 107 131 159 179 188 177 170 167 164 162 156 150 140 131 119 114 111 108 109 115 116 109 103 96 92 96 107 116 123 126 126 125 124 120 115 114 124 150 179 209 236 253 254 255 255 255 255 255 255 255 255 255 255 255 255 255 255 255 255 255 255 255 255 255 255 255 255 255 255 255 255 254 254 254 254 254 254 254 254 254 254 254 254 254 254 254 254 254 255 255 255 255 255 255 255 255 255 255 255 255 255 255 255 255 255 255 255
254 254 254 254 254 254 254 254 249 240 229 217 204 197 194 194 195 196 195 192 187 181 176 173 172 174 176 178 180 181 182 183 186 190 195 201 208 217 227 237 245 250 253 254 254 254 254 255 255 255 255 255 255 255 255 255 255 255 255 255 255 255 255 255 255 255 255 255 255 255 255 255 254 254 254 254 254 254 254 253 247 235 215 193 177 167 142 130 125 102 76 78 85 105 132 161 181 190 181 174 172 167 164 159 154 143 137 127 120 114 108 107 110 107 98 92 86 83 91 107 119 124 124 119 114 109 106 103 106 122 151 183 214 239 253 254 255 255 255 255 255 255 255 255 255 255 255 255 255 255 255 255 255 255 255 255 255 255 255 255 255 255 255 255 254 254 254 254 254 254 254 254 254 254 254 254 254 254 254 254 254 255 255 255 255 255 255 255 255 255 255 255 255 255 255 255 255 255 255 255
254 254 254 254 254 254 254 254 249 240 228 215 201 191 186 182 180 179 177 174 170 165 159 155 152 151 152 153 154 156 157 158 160 163 167 172 178 184 193 203 215 227 238 246 251 254 254 254 254 254 254 254 254 254 254 255 255 255 255 255 255 255 255 255 255 255 255 255 255 255 255 255 255 254 254 254 254 254 253 251 242 226 201 179 166 161 142 135 130 106 80 87 96 117 144 170 183 190 182 178 178 176 172 166 161 150 142 133 124 115 107 104 107 108 101 97 92 90 98 114 126 129 125 116 105 97 93 93 101 124 156 189 220 243 254 254 255 255 255 255 255 255 255 255 255 255 255 255 255 255 255 255 255 255 255 255 255 255 255 255 255 255 255 255 254 254 254 254 254 254 254 254 254 254 254 254 254 254 254 254 254 255 255 255 255 255 255 255 255 255 255 255 255 255 255 255 255 255 255 255
254 254 254 254 253 251 249 246 238 227 215 201 187 178 172 169 167 166 163 159 156 153 151 150 151 150 149 146 141 138 135 133 134 136 139 143 149 155 162 170 181 193 206 220 233 243 249 253 254 254 254 254 254 254 254 254 254 254 254 254 255 255 255 255 255 255 255 255 255 255 255 255 255 254 254 254 254 253 253 247 235 215 190 168 156 155 141 137 135 117 98 111 123 139 161 181 186 189 185 183 181 175 162 150 145 138 137 136 131 120 108 104 108 110 106 103 99 96 102 117 128 128 121 108 93 84 83 87 103 131 166 198 228 247 254 254 255 255 255 255 255 255 255 255 255 255 255 255 255 255 255 255 255 255 255 255 255 255 255 255 255 255 255 255 254 254 254 254 254 254 254 254 254 254 254 254 254 254 254 254 254 255 255 255 255 255 255 255 255 255 255 255 255 255 255 255 255 255 255 255
254 254 252 249 244 239 233 228 222 214 206 197 188 181 178 175 172 169 164 157 150 145 141 140 141 142 142 142 141 138 135 130 124 120 117 117 121 127 135 143 153 163 174 187 200 213 225 236 244 249 252 254 254 254 254 254 254 254 254 254 255 255 255 255 255 255 255 255 255 255 255 255 255 254 254 254 254 253 252 244 228 206 181 159 148 148 141 140 139 129 118 129 143 156 173 188 191 190 188 181 173 160 139 125 119 119 125 131 130 122 111 104 107 112 111 108 104 97 97 106 116 114 105 92 78 70 74 86 110 144 179 211 237 251 254 254 255 255 255 255 255 255 255 255 255 255 255 255 255 255 255 255 255 255 255 255 255 255 255 255 255 255 255 255 254 254 254 254 254 253 251 250 249 249 250 251 253 254 255 255 255 255 255 255 255 255 255 255 255 255 255 255 255 255 255 255 255 255 255 255
254 254 252 247 241 234 226 219 213 207 201 194 187 179 174 170 167 164 162 160 157 153 150 147 144 141 138 136 133 131 130 129 128 126 121 115 112 112 115 122 133 143 153 163 172 181 192 203 214 226 235 240 243 245 246 248 250 252 254 254 254 254 254 254 254 254 255 255 255 255 255 255 255 254 254 254 254 253 251 241 223 202 178 159 148 148 147 145 139 132 125 129 143 158 174 185 185 181 176 164 153 137 115 102 97 97 111 124 127 125 118 107 108 114 115 111 106 97 91 92 98 94 87 77 67 63 72 92 123 160 194 223 244 253 254 254 255 255 255 255 255 255 255 255 255 255 255 255 255 255 255 255 255 255 255 255 255 255 255 255 254 254 254 254 252 248 244 239 235 232 231 230 231 234 239 244 248 251 252 251 250 249 248 249 250 251 253 254 254 254 254 254 254 254 255 255 255 255 255 255
254 254 250 243 233 222 210 200 194 190 187 184 180 176 171 165 160 155 151 148 146 145 145 145 146 144 141 138 135 131 129 130 131 132 132 130 127 124 121 120 124 130 138 147 156 162 170 179 189 200 212 221 226 230 231 234 239 243 248 252 254 254 254 254 254 254 255 255 255 255 255 255 255 254 254 254 254 253 250 236 218 198 178 160 153 153 158 152 144 137 129 125 135 148 160 168 165 161 154 140 129 115 91 80 80 80 97 119 126 127 125 113 110 115 118 116 111 102 88 80 80 75 67 62 59 61 78 106 142 179 210 234 249 254 254 255 255 255 255 255 255 255 255 255 255 254 254 254 254 254 254 254 255 255 255 255 254 254 254 254 254 251 246 239 232 224 218 215 213 212 213 213 214 217 221 224 226 228 227 226 226 226 228 230 232 237 242 247 251 254 254 254 254 254 255 255 255 255 255 255
254 253 247 236 223 208 194 184 178 174 172 171 169 167 165 163 160 157 153 149 146 143 141 142 145 147 147 146 143 139 136 135 136 139 141 142 143 144 143 141 141 138 137 140 144 147 155 163 171 182 195 205 211 216 218 221 225 231 238 244 249 252 254 254 254 254 255 255 255 255 255 255 255 254 254 254 254 254 249 234 215 198 180 164 159 161 166 157 147 138 126 114 119 129 138 147 147 145 137 118 104 89 66 56 64 65 85 112 124 127 131 119 112 116 120 118 115 106 86 69 60 52 48 50 58 72 96 128 166 199 225 243 253 254 254 254 255 255 255 255 255 255 255 255 255 254 254 254 254 254 254 254 254 255 255 254 254 253 250 245 237 228 218 210 202 197 193 190 189 189 188 187 186 188 193 198 204 210 212 212 213 214 215 217 220 227 234 241 248 253 254 254 254 254 255 255 255 255 255 255
254 253 245 233 218 202 187 177 173 170 170 169 168 167 165 163 160 157 154 151 148 145 143 143 144 146 147 148 149 148 147 147 148 150 152 153 155 157 159 161 163 161 157 152 147 141 141 146 154 166 181 193 199 203 205 207 211 218 226 233 241 246 250 253 254 254 254 254 254 255 255 255 255 254 254 254 254 254 248 233 215 199 183 170 168 170 174 163 146 131 111 90 91 104 117 130 135 134 126 103 87 77 61 57 70 69 86 110 120 125 136 126 116 117 121 120 117 108 84 61 45 35 36 48 66 90 121 154 188 217 237 249 254 254 254 254 255 255 255 255 255 255 255 255 255 254 254 254 254 254 254 254 254 254 254 251 246 238 228 216 205 195 187 179 172 167 163 161 160 160 161 161 162 167 174 181 188 194 196 196 196 196 197 201 207 218 229 239 248 253 254 254 254 254 255 255 255 255 255 255
254 253 247 238 226 212 198 186 176 169 165 163 163 163 163 163 163 162 161 160 159 157 155 153 153 153 153 154 153 152 152 153 156 161 165 167 169 171 171 173 175 175 174 170 166 159 155 153 156 166 178 188 193 194 194 194 197 203 212 220 228 236 243 249 252 254 254 254 254 255 255 255 255 255 255 254 254 254 248 233 219 207 192 181 179 180 180 165 144 126 106 86 89 105 119 129 131 127 120 102 93 86 74 71 82 78 95 117 127 131 141 134 123 120 123 123 120 110 88 62 42 32 42 60 85 115 149 178 208 231 245 252 254 254 254 254 255 255 255 255 255 255 255 255 255 254 254 254 254 254 254 254 253 249 242 232 219 206 194 183 173 164 155 148 141 136 133 133 133 136 140 144 147 154 161 167 173 178 181 182 184 188 192 198 206 218 229 239 248 253 254 254 254 254 255 255 255 255 255 255
254 253 247 239 228 213 196 182 170 161 157 156 157 159 160 161 161 161 161 160 160 159 159 159 159 160 162 163 164 163 162 162 163 166 169 173 176 179 181 181 183 184 183 182 182 180 178 178 179 182 189 195 198 196 192 188 186 188 196 205 214 224 234 242 248 252 254 254 254 255 255 255 255 255 255 254 254 254 248 233 220 210 197 186 187 188 184 165 144 127 110 95 102 118 126 130 130 127 123 114 110 108 100 99 110 110 124 140 144 143 147 140 130 126 125 125 120 107 87 67 52 47 64 87 114 145 177 202 226 243 251 254 254 254 254 254 255 255 255 255 255 255 255 255 255 254 254 254 254 253 251 247 240 228 215 200 186 173 162 152 142 133 125 119 115 114 117 122 128 134 140 143 146 150 155 161 167 174 179 184 189 193 198 204 211 221 231 240 248 253 254 254 254 254 255 255 255 255 255 255
254 253 249 243 235 222 206 191 177 166 160 159 160 163 166 168 170 170 170 169 168 166 165 164 164 165 167 170 171 172 172 171 171 172 173 175 178 182 185 186 188 188 187 186 188 190 193 195 198 203 207 210 211 207 198 192 186 185 188 195 202 211 221 232 241 248 252 254 254 255 255 255 255 255 255 254 254 254 249 235 222 214 202 192 193 189 179 159 137 122 114 109 121 136 143 142 137 134 136 130 128 129 124 117 122 125 135 144 147 145 147 141 134 129 125 122 114 99 83 72 65 68 91 115 144 173 200 221 241 251 254 254 254 254 254 254 255 255 255 255 255 255 255 255 255 254 254 252 248 242 234 224 211 199 185 171 158 146 135 124 116 110 108 109 112 116 120 123 127 132 137 143 149 158 168 178 188 197 204 209 212 215 218 222 228 235 241 247 251 253 254 254 254 254 255 255 255 255 255 255
255 254 253 250 245 235 220 203 186 171 161 157 157 159 162 165 168 169 170 170 170 169 168 167 166 166 166 166 168 170 172 174 176 178 179 181 183 184 186 189 191 193 193 193 196 199 202 204 209 213 217 220 222 216 205 197 190 187 187 191 195 201 209 220 232 242 249 253 254 254 255 255 255 254 254 254 254 254 249 237 225 217 207 198 197 192 179 157 135 125 124 129 144 161 163 157 148 143 144 144 142 142 138 130 128 133 141 146 148 147 146 140 136 132 127 122 111 93 81 78 79 89 113 138 165 190 214 233 247 253 254 254 254 254 254 254 254 254 254 254 254 254 254 254 254 252 249 243 235 224 213 202 190 177 165 152 139 128 118 114 113 114 117 120 121 122 122 123 127 132 140 149 160 171 182 190 197 202 206 209 212 214 218 222 228 233 238 242 245 247 249 251 253 254 254 254 254 255 255 255
255 254 254 253 252 245 233 218 202 187 176 170 168 167 167 167 167 167 167 167 166 166 167 167 168 168 169 169 169 170 170 172 175 178 181 185 187 188 190 190 192 195 197 199 204 208 210 212 216 219 221 225 227 221 212 204 197 193 192 194 194 197 202 210 222 234 243 250 253 254 254 255 255 254 254 254 254 254 251 240 229 220 213 206 205 200 187 164 142 134 140 151 169 182 180 167 155 148 147 151 152 150 144 138 134 137 145 151 153 150 145 140 137 134 129 123 111 93 85 88 94 107 131 155 180 203 224 240 251 254 254 254 254 254 255 254 254 254 254 254 254 254 253 252 250 246 241 231 220 208 197 186 175 165 154 143 134 129 127 129 131 133 134 134 133 131 130 131 134 141 149 158 168 177 186 193 199 204 208 212 216 220 224 227 229 231 231 232 232 233 235 238 243 247 250 253 254 254 254 255
255 254 254 254 252 246 237 227 216 205 198 193 190 187 184 180 176 172 168 165 164 163 164 165 166 167 168 169 172 174 176 178 180 182 184 186 188 189 191 193 196 199 202 204 209 212 209 209 211 212 215 223 228 225 219 213 207 202 200 201 199 199 200 206 215 226 237 246 251 253 254 254 255 254 254 254 254 254 251 242 230 220 216 211 211 208 198 175 155 145 149 160 173 181 177 166 152 147 146 150 150 151 148 145 145 146 149 152 153 147 142 137 134 132 128 125 115 101 96 103 111 126 148 170 191 213 232 246 253 254 254 254 254 254 255 254 254 254 254 253 251 248 244 241 237 232 226 217 204 190 177 167 158 154 153 153 152 152 152 152 152 151 151 150 149 147 147 148 151 156 163 170 177 184 191 197 202 208 212 216 219 221 223 225 226 227 228 229 229 230 231 234 239 244 249 252 254 254 254 255
255 254 254 254 253 251 246 240 234 227 221 216 210 203 196 189 182 177 173 170 168 168 168 169 169 169 169 170 172 174 176 179 182 185 188 191 193 194 194 195 197 199 202 205 210 212 208 207 210 211 214 223 228 228 225 221 216 213 210 209 206 204 202 204 210 220 230 240 247 251 254 254 255 254 254 254 254 254 252 244 233 222 217 214 214 215 210 195 176 164 163 170 177 182 181 173 161 155 155 158 156 152 147 140 136 135 138 143 146 142 137 131 128 127 126 126 120 110 109 115 120 134 155 176 198 221 239 250 254 254 254 255 254 254 254 254 253 252 249 245 241 238 234 230 226 220 214 204 191 175 163 154 152 157 164 171 176 177 175 173 171 170 170 170 168 167 165 164 166 169 173 177 181 187 192 197 201 205 208 210 212 215 217 219 222 223 225 226 227 228 230 234 239 244 248 252 254 254 254 254
255 254 254 254 254 254 252 250 247 243 239 234 225 215 204 194 184 179 176 175 174 174 174 174 174 172 171 171 172 173 174 177 181 183 187 191 194 196 198 199 201 203 205 207 211 211 206 206 208 208 213 221 225 225 224 221 218 216 216 215 212 210 206 205 208 215 224 234 242 247 251 254 254 254 254 254 254 254 253 247 236 223 217 216 218 223 226 220 205 191 185 184 184 187 186 182 176 173 172 174 171 163 156 149 142 138 142 147 149 145 138 129 123 122 123 126 124 117 115 118 123 138 160 185 208 230 246 253 254 254 255 255 254 254 253 251 248 245 240 236 233 229 224 219 213 208 203 197 189 180 174 170 172 178 185 191 193 194 192 191 190 188 187 185 182 180 178 177 177 177 178 179 179 181 183 186 188 191 194 196 198 200 202 204 206 208 210 212 213 216 219 225 233 240 247 252 254 254 254 254
255 255 255 255 254 254 254 254 253 253 252 250 242 230 216 202 188 179 175 173 174 175 177 178 178 178 177 176 176 176 177 179 181 183 186 189 192 195 198 199 201 203 205 206 210 208 205 206 209 209 215 222 222 220 221 221 219 220 223 223 219 216 211 208 208 213 221 231 238 244 249 252 254 254 255 255 255 255 253 248 238 225 218 216 220 228 235 235 225 211 202 198 193 190 189 186 184 185 186 190 187 179 170 161 151 143 144 149 152 148 140 129 120 116 117 122 122 118 115 118 125 145 171 197 221 240 251 254 254 254 254 254 254 252 248 245 240 237 232 228 224 219 213 209 205 204 205 202 196 191 187 184 185 194 199 203 206 206 205 203 200 196 192 189 187 186 186 187 188 189 189 188 186 186 187 189 192 195 198 201 202 204 206 207 208 209 210 210 210 209 210 214 221 230 239 247 252 254 254 254
255 255 255 255 254 254 254 254 254 254 254 253 246 236 224 211 197 188 182 179 177 177 177 178 178 178 177 177 177 178 179 181 183 185 187 190 193 196 198 200 201 202 203 204 208 207 207 210 214 215 220 224 224 222 223 223 223 225 228 228 226 222 217 214 213 216 222 229 235 240 245 249 252 253 254 254 254 254 253 249 239 226 217 213 217 226 236 241 237 227 219 213 205 200 195 193 190 191 194 200 199 193 184 173 160 149 148 150 153 149 140 128 116 111 111 116 117 114 113 119 133 159 188 213 234 248 254 254 254 254 254 253 251 248 243 238 233 230 226 221 217 214 209 207 207 209 212 212 209 206 200 195 195 200 204 209 211 211 209 207 203 200 198 197 197 198 199 200 200 199 197 194 192 191 192 194 197 200 202 204 205 206 207 207 207 207 208 208 208 208 210 213 219 228 237 245 251 254 254 254
255 255 255 255 254 254 254 254 254 254 254 253 247 238 228 217 207 201 196 193 189 185 182 180 179 179 179 179 179 180 181 182 184 186 188 191 194 197 200 202 203 203 204 205 208 208 211 216 220 221 226 228 225 223 223 223 224 227 231 232 230 227 223 220 219 221 225 229 233 236 240 245 249 251 253 254 254 254 254 250 239 226 215 210 211 221 233 242 242 237 231 224 217 210 205 202 201 202 206 211 212 206 197 184 168 153 148 148 150 148 140 127 114 106 105 109 111 112 116 126 147 176 205 227 244 252 254 254 254 254 252 251 248 243 238 234 229 226 222 219 217 217 215 216 219 222 225 225 223 222 217 211 210 212 212 213 215 215 213 212 209 207 206 205 205 204 204 202 201 199 196 194 192 191 192 194 197 198 199 198 198 198 199 199 200 201 202 203 204 206 209 213 220 229 238 245 251 254 254 254
255 255 255 255 255 254 254 254 254 254 254 254 250 244 237 229 222 216 209 202 195 188 182 180 179 180 181 182 183 183 184 185 186 188 190 192 194 196 199 201 202 203 204 207 209 210 213 217 220 223 227 228 226 224 224 224 226 230 235 237 236 232 227 225 224 225 229 231 233 234 236 240 244 247 250 252 253 254 254 251 240 225 212 204 203 212 225 236 241 240 236 231 223 217 211 208 208 209 212 216 216 212 205 193 176 158 146 143 143 144 139 129 114 103 98 101 105 111 123 140 165 194 220 239 250 254 254 254 253 251 248 246 243 239 235 231 227 226 224 223 224 225 224 226 228 230 234 235 233 233 232 228 227 228 225 222 221 219 217 216 215 213 211 209 206 205 204 202 201 199 198 196 196 195 194 194 192 190 189 188 187 187 189 190 192 195 198 201 203 206 209 213 220 229 238 245 251 254 254 254
255 255 255 255 255 255 255 254 254 254 254 254 253 251 247 243 237 232 224 213 202 192 183 178 178 179 180 182 184 185 186 187 187 188 188 189 191 193 195 197 199 201 203 206 209 211 214 217 220 223 227 229 229 227 229 230 233 236 240 241 238 235 231 228 227 229 231 233 233 231 231 233 236 240 245 249 251 253 254 251 239 222 207 196 192 200 214 227 234 235 234 229 223 217 211 208 207 208 209 211 207 202 195 185 171 155 143 137 137 138 135 128 115 102 94 94 100 114 134 159 187 214 235 247 253 254 254 253 251 247 244 243 240 236 231 225 223 222 222 225 229 230 230 233 236 236 237 235 228 227 226 225 226 230 229 226 224 222 219 217 216 214 212 209 206 204 202 200 199 198 198 197 196 195 195 194 194 193 193 192 192 191 192 193 194 196 199 201 205 210 214 219 225 233 240 246 251 254 254 254
255 255 255 255 255 255 255 255 255 255 255 254 254 254 254 252 250 247 240 228 215 201 188 181 179 179 182 184 185 186 187 186 186 186 187 188 189 191 194 196 198 201 203 206 209 211 213 215 217 221 223 226 229 232 234 235 237 238 239 239 239 238 236 233 229 229 230 230 230 229 226 228 230 234 239 245 247 250 251 248 236 217 199 184 178 185 199 213 222 226 225 221 217 213 209 207 204 202 199 196 190 184 176 169 160 150 141 135 133 132 129 122 111 99 92 92 103 123 151 180 209 231 246 252 254 252 250 248 246 243 241 241 237 232 228 223 221 222 226 229 235 238 239 240 240 239 238 235 231 229 229 227 227 231 229 226 224 222 220 219 219 218 216 215 212 210 207 204 202 200 198 197 196 195 194 194 193 193 193 192 192 192 193 193 194 195 197 200 204 210 218 226 234 242 247 250 253 254 254 254
255 255 255 255 255 255 255 255 255 255 255 254 254 254 254 254 254 254 249 240 229 217 206 199 196 195 193 191 189 187 186 185 186 186 188 189 191 194 196 198 200 203 204 206 208 210 211 212 213 216 219 223 228 232 235 236 234 235 235 236 237 238 236 234 229 228 228 227 227 226 224 226 228 231 237 241 242 244 244 239 226 207 186 169 160 165 180 194 206 213 214 211 208 205 202 201 198 193 188 181 172 166 160 156 152 146 139 133 129 127 123 118 110 101 96 98 113 139 170 200 226 243 252 252 250 247 244 243 241 240 240 241 239 235 231 227 226 226 230 236 241 243 244 242 237 233 232 229 223 225 227 226 226 232 232 227 225 225 223 221 222 220 218 216 214 211 208 205 201 199 196 195 194 193 193 193 193 193 192 191 191 190 191 192 194 195 198 201 207 216 226 236 245 251 253 254 254 254 254 254
255 255 255 255 255 255 255 255 255 255 255 255 255 255 254 254 254 254 251 244 236 228 220 215 211 206 202 196 191 188 187 187 188 190 191 193 195 197 199 200 202 203 203 204 205 206 208 208 210 213 215 219 225 230 232 229 228 229 230 232 236 236 234 232 226 222 221 220 217 218 220 223 227 231 236 239 238 239 236 226 211 191 169 152 144 148 161 175 188 198 201 200 198 195 192 192 189 185 179 171 162 158 154 154 154 151 146 139 132 127 123 119 113 107 103 106 123 152 184 213 237 247 249 247 244 241 240 239 239 240 241 243 242 238 235 230 229 230 234 239 244 245 245 242 237 233 231 229 221 223 225 225 224 232 232 227 224 223 221 219 220 219 217 215 213 210 207 204 201 198 195 193 192 191 191 191 192 193 194 194 194 194 193 193 194 195 197 201 208 218 229 239 247 252 254 254 254 254 254 254
255 255 255 255 255 255 255 255 255 255 255 255 255 255 255 255 255 254 253 250 245 239 233 228 222 214 206 198 191 187 187 188 190 192 194 196 198 199 200 200 201 201 201 202 203 205 207 208 210 212 214 217 222 227 228 226 225 226 228 229 232 233 231 229 221 215 210 206 201 205 211 219 225 231 237 238 236 234 227 213 195 173 150 133 126 129 139 153 168 181 188 188 186 183 180 180 177 175 171 165 157 153 150 150 153 153 152 147 141 133 129 126 122 118 116 120 138 166 195 221 240 244 242 240 237 235 235 235 236 239 243 246 245 241 236 232 231 232 236 241 245 245 246 241 237 233 232 229 223 223 224 223 222 230 230 226 223 221 220 218 219 218 216 214 211 208 205 202 199 196 194 192 191 191 192 193 195 197 199 201 203 206 207 206 206 205 204 206 211 219 229 239 247 253 254 254 254 254 254 254
255 255 255 255 255 255 255 255 255 255 255 255 255 255 255 255 255 254 254 253 251 248 245 242 235 225 214 204 194 189 189 190 193 195 197 199 200 200 200 199 199 199 200 201 203 206 208 210 211 213 214 217 221 223 223 221 221 223 225 226 230 231 229 225 216 208 201 195 189 198 206 216 224 233 238 238 235 230 218 199 177 154 132 117 112 116 126 140 156 170 178 181 178 174 172 170 166 165 163 159 154 152 151 150 151 152 151 150 146 139 134 131 126 124 124 131 151 176 202 224 237 237 235 234 234 233 233 234 236 241 245 248 246 243 239 238 239 241 244 246 247 247 247 243 239 238 237 235 231 233 231 229 227 231 229 225 223 221 219 218 219 218 216 214 212 209 206 204 202 200 198 198 197 197 197 197 197 197 198 199 202 205 209 212 215 217 219 220 223 229 236 242 248 253 254 254 254 254 254 254
255 255 255 255 255 255 255 255 255 255 255 255 255 255 255 255 255 254 254 254 254 254 254 254 248 237 224 211 199 192 191 194 196 198 199 199 198 197 197 196 197 199 200 203 205 207 210 211 212 214 215 217 220 220 218 216 217 220 223 225 228 226 223 220 214 206 199 193 186 189 199 209 217 228 236 236 232 226 210 187 161 137 116 104 100 104 114 128 143 159 172 179 176 172 170 165 159 157 157 153 150 151 152 151 151 149 146 144 143 139 136 134 130 127 128 138 158 181 204 224 235 234 234 234 234 234 236 237 238 241 244 244 243 244 243 244 246 247 248 248 247 247 246 243 240 239 237 235 231 232 231 230 229 231 228 224 222 220 217 216 217 216 215 213 211 208 205 202 200 198 197 198 197 197 198 197 196 196 196 196 198 202 207 213 220 226 231 234 237 241 245 249 252 254 255 254 254 254 254 254
255 255 255 255 255 255 255 255 255 255 255 255 255 255 255 255 255 255 255 255 254 254 254 254 249 240 230 220 210 206 205 205 204 202 198 195 193 193 194 195 197 200 202 204 207 209 211 212 214 215 216 217 218 217 214 212 215 218 222 223 223 220 219 215 210 205 200 193 186 184 191 198 204 216 226 229 227 219 202 180 152 127 108 97 93 96 103 114 125 140 156 166 166 165 164 159 153 150 150 146 141 141 143 141 139 138 135 134 135 133 132 131 128 126 129 141 162 185 207 226 234 233 234 235 237 238 240 240 237 236 235 233 232 236 238 242 246 247 247 247 246 245 243 241 240 240 239 238 236 234 232 231 230 230 227 224 221 218 215 214 213 213 212 210 208 205 202 199 197 196 195 196 196 197 197 197 196 194 194 194 196 200 209 218 227 236 243 247 249 251 252 254 254 254 255 254 254 254 254 254
255 255 255 255 255 255 255 255 255 255 255 255 255 255 255 255 255 255 255 255 255 255 255 254 251 244 237 229 221 217 214 210 205 199 194 191 191 192 194 196 199 202 204 207 209 210 212 213 215 216 217 218 218 216 213 213 217 220 221 220 219 217 214 210 209 207 201 198 193 187 187 187 190 200 211 216 217 209 193 172 145 122 105 95 90 94 102 111 120 133 144 151 149 145 143 136 131 130 130 126 120 118 119 118 116 117 117 120 125 126 126 124 122 121 126 143 166 190 212 229 234 235 237 239 241 243 242 239 233 228 226 222 220 226 231 236 242 247 247 247 246 245 242 240 237 237 235 234 234 233 231 231 229 228 225 222 220 216 213 211 210 209 209 209 207 205 202 199 197 196 195 195 194 194 195 196 195 195 195 197 199 205 216 227 237 246 252 254 254 254 255 255 255 255 255 255 255 255 255 255
255 255 255 255 255 255 255 255 255 255 255 255 255 255 255 255 255 255 255 255 255 255 255 254 253 249 243 238 232 227 221 214 207 199 193 191 192 194 197 200 203 205 207 208 210 210 211 213 214 216 217 217 217 214 213 214 217 219 219 218 217 216 212 210 212 210 207 209 205 192 188 182 177 183 195 201 202 195 181 162 140 123 112 106 105 110 119 128 133 140 146 147 140 133 127 119 112 107 105 99 93 89 91 92 91 93 97 102 109 113 113 111 109 109 118 141 169 194 217 233 238 240 243 245 245 243 239 235 228 222 220 217 213 215 223 228 235 242 246 246 245 244 242 239 236 235 232 232 232 231 231 231 229 228 224 221 218 214 210 207 206 205 205 205 205 205 203 201 200 199 197 197 196 195 196 197 200 202 204 206 208 211 219 228 238 246 252 254 255 255 255 255 255 255 255 255 255 255 255 255
255 255 255 255 255 255 255 255 255 255 255 255 255 255 255 255 255 255 255 255 255 255 255 255 254 252 249 245 242 238 230 221 212 202 195 194 195 198 200 203 205 206 207 208 208 209 210 212 213 214 215 214 214 214 213 215 218 219 218 218 217 217 213 214 216 212 211 213 207 191 186 176 170 172 183 190 187 179 167 152 135 128 126 125 126 131 138 144 146 152 155 154 147 139 130 119 110 102 96 86 78 73 74 77 79 82 85 89 95 99 100 98 98 100 113 140 170 196 220 236 241 243 245 246 242 236 231 227 222 216 214 212 207 208 217 224 231 238 244 245 245 244 241 238 235 233 230 230 230 229 229 229 229 227 225 222 219 215 211 207 203 201 200 200 201 202 203 202 202 201 199 197 195 194 194 197 201 206 212 217 220 222 228 235 242 248 253 254 255 255 255 255 255 255 255 255 255 255 255 255
255 255 255 255 255 255 255 255 255 255 255 255 255 255 255 255 255 255 255 255 255 255 255 255 254 254 253 252 252 249 241 231 219 208 200 197 199 202 203 204 205 205 205 206 207 209 210 211 212 212 212 211 212 214 216 218 220 220 219 218 218 219 217 217 217 213 211 211 208 193 186 175 170 168 176 180 173 161 149 138 127 129 134 139 144 152 159 162 165 169 170 166 159 150 140 128 122 113 104 92 80 70 69 70 73 78 83 87 93 97 99 98 99 102 116 142 172 199 219 234 238 238 237 237 232 224 220 218 216 214 213 212 208 207 214 223 228 235 241 244 243 241 239 235 232 229 229 228 228 228 228 227 227 226 224 223 220 217 214 210 205 202 200 198 198 198 200 202 203 203 201 199 196 194 194 198 206 213 221 228 232 235 240 244 248 251 254 254 255 255 255 255 255 255 255 255 255 255 255 255
255 255 255 255 255 255 255 255 255 255 255 255 255 255 255 255 255 255 255 255 255 255 255 255 254 254 254 254 254 252 245 235 224 214 205 202 201 201 201 202 203 203 204 206 207 209 209 209 209 209 210 210 212 215 218 220 222 222 220 220 221 222 218 220 219 213 210 208 203 190 185 177 175 173 180 178 167 152 138 126 119 125 135 143 152 162 172 181 189 195 195 189 179 167 155 144 138 130 121 110 99 87 81 78 78 81 89 97 105 110 114 112 111 112 122 145 172 197 214 226 229 227 222 222 218 207 206 209 213 215 219 219 217 214 218 225 228 234 239 242 241 239 237 234 231 229 228 228 227 226 227 227 226 224 223 221 220 218 215 213 209 206 203 200 198 197 197 198 201 203 205 205 203 201 201 206 214 224 233 241 245 248 250 252 253 254 254 254 255 255 255 255 255 255 255 255 255 255 255 255
255 255 255 255 255 255 255 255 255 255 255 255 255 255 255 255 255 255 255 255 255 255 255 255 254 254 254 254 254 253 248 241 231 221 211 205 201 200 200 200 202 203 204 205 206 207 207 207 207 207 208 210 213 216 218 221 223 223 223 223 223 223 220 222 219 214 211 206 200 189 186 183 185 183 189 184 170 152 134 120 114 119 129 139 150 160 171 184 197 208 214 212 204 194 181 171 163 154 146 137 126 114 107 101 99 100 106 113 118 122 126 126 124 124 131 150 173 196 211 220 222 217 208 207 203 194 197 204 212 218 223 225 224 219 220 228 229 232 237 240 239 237 235 233 231 229 227 227 226 225 226 226 225 224 222 220 219 218 217 215 213 210 207 204 201 199 197 197 199 204 209 213 215 217 218 222 229 237 245 251 254 254 254 254 254 254 254 254 255 255 255 255 255 255 255 255 255 255 255 255
255 255 255 255 255 255 255 255 255 255 255 255 255 255 255 255 255 255 255 255 255 255 255 255 255 255 255 254 254 254 251 246 237 226 216 207 201 199 200 201 202 203 203 204 204 204 204 204 205 206 207 210 213 217 220 222 224 224 224 224 224 223 222 222 218 215 213 204 200 191 187 185 192 192 197 192 178 157 136 120 112 114 121 128 137 146 156 171 190 208 220 223 219 210 197 188 182 176 170 166 157 145 136 129 125 122 124 127 130 131 134 136 136 136 142 156 175 196 208 214 213 207 195 194 193 189 195 205 213 222 224 226 227 226 225 234 234 234 235 238 237 235 234 232 231 228 226 225 225 223 224 225 225 223 221 219 218 217 216 215 214 212 210 207 204 201 199 198 199 205 212 218 224 228 230 233 238 244 249 253 254 255 255 255 255 255 255 255 255 255 255 255 255 255 255 255 255 255 255 255
255 255 255 255 255 255 255 255 255 255 255 255 255 255 255 255 255 255 255 255 255 255 255 255 255 255 255 255 254 254 253 250 242 231 220 211 203 201 201 202 203 203 202 202 201 201 202 203 204 207 209 211 215 218 220 223 224 224 224 224 224 222 221 221 218 217 215 207 205 197 192 190 198 199 202 196 184 165 144 128 120 120 122 125 132 140 149 167 188 207 220 224 218 207 194 185 180 177 177 179 173 163 154 145 136 132 132 135 138 139 142 146 145 145 150 161 178 197 207 211 209 203 186 185 189 189 196 209 217 225 225 227 229 231 229 235 236 236 235 236 235 234 232 231 230 227 225 224 223 222 223 224 224 223 221 219 216 214 212 212 212 212 212 211 208 205 202 201 202 210 218 226 233 238 240 243 246 250 253 254 254 255 255 255 255 255 255 255 255 255 255 255 255 255 255 255 255 255 255 255
255 255 255 255 255 255 255 255 255 255 255 255 255 255 255 255 255 255 255 255 255 255 255 255 255 255 255 255 254 254 254 253 246 236 226 217 208 204 204 205 204 203 201 200 198 199 200 202 205 208 211 214 217 219 221 222 223 224 224 224 224 221 220 219 217 216 216 210 208 201 197 194 199 202 204 199 191 175 156 142 135 134 134 134 138 144 150 164 182 198 210 216 212 201 187 176 169 165 166 173 173 167 161 154 146 140 138 141 144 143 146 150 151 152 156 166 181 199 211 214 213 207 187 184 190 193 196 213 217 223 224 228 229 233 232 236 236 236 235 235 235 235 234 232 231 228 224 223 222 221 222 224 224 223 222 220 217 214 211 208 207 207 208 210 210 209 208 207 208 216 225 235 243 248 250 251 252 254 254 254 254 255 255 255 255 255 255 255 255 255 255 255 255 255 255 255 255 255 255 255
255 255 255 255 255 255 255 255 255 255 255 255 255 255 255 255 255 255 255 255 255 255 255 255 255 255 255 255 255 254 254 254 249 242 234 226 217 212 210 208 204 201 199 197 197 199 202 205 208 211 213 215 218 219 220 221 222 223 224 224 223 220 219 217 214 214 214 210 211 208 203 198 201 201 199 195 189 176 161 152 148 147 147 148 152 156 159 168 180 190 201 208 205 196 182 169 159 154 153 160 165 164 163 162 160 153 149 148 148 145 147 152 155 156 160 169 183 201 215 220 220 217 197 190 195 199 197 215 219 223 222 228 228 232 231 235 235 235 235 234 235 235 235 233 231 228 224 223 222 221 221 223 223 223 223 222 219 216 212 208 205 204 204 208 212 215 218 220 222 228 235 243 249 254 254 254 254 254 254 255 255 255 255 255 255 255 255 255 255 255 255 255 255 255 255 255 255 255 255 255
255 255 255 255 255 255 255 255 255 255 255 255 255 255 255 255 255 255 255 255 255 255 255 255 255 255 255 255 255 254 254 254 251 246 241 235 227 221 216 211 204 200 198 197 198 202 206 209 212 213 215 216 218 218 219 220 221 222 223 223 222 220 218 215 213 212 212 211 213 211 205 200 200 198 193 189 184 174 164 161 162 165 168 171 174 176 176 180 186 192 198 202 197 189 177 164 156 151 149 153 160 161 164 167 168 163 159 156 154 151 152 156 160 161 163 169 181 197 210 218 224 225 207 199 202 206 200 215 220 224 223 229 229 234 233 235 235 235 234 234 234 234 234 233 231 228 224 223 222 222 221 221 221 221 222 223 222 220 216 211 207 204 203 208 214 219 225 231 234 238 243 248 252 254 254 254 255 255 255 255 255 255 255 255 255 255 255 255 255 255 255 255 255 255 255 255 255 255 255 255
255 255 255 255 255 255 255 255 255 255 255 255 255 255 255 255 255 255 255 255 255 255 255 255 255 255 255 255 255 254 254 254 253 250 247 242 235 229 223 215 207 202 200 200 203 207 211 212 214 215 215 216 217 218 218 219 220 221 221 221 221 219 217 213 211 211 210 210 213 212 208 202 200 197 190 184 180 172 167 169 176 184 192 197 200 200 199 199 198 197 196 194 187 181 174 166 159 156 153 153 159 162 165 170 173 171 167 165 163 160 161 163 165 166 165 164 173 189 203 214 227 232 217 207 208 209 203 215 221 225 225 231 231 234 234 235 235 235 235 234 234 234 233 232 230 227 225 223 222 222 221 220 219 218 219 221 222 222 220 216 211 207 206 211 217 224 231 238 242 245 249 252 254 254 254 255 255 255 255 255 255 255 255 255 255 255 255 255 255 255 255 255 255 255 255 255 255 255 255 255
255 255 255 255 255 255 255 255 255 255 255 255 255 255 255 255 255 255 255 255 255 255 255 255 255 255 255 255 255 254 254 254 254 253 250 247 242 237 230 221 213 208 205 204 208 211 213 213 214 215 215 216 216 216 217 218 218 219 219 219 219 218 216 212 210 209 209 209 212 211 205 199 196 193 186 181 176 171 168 173 181 191 200 207 208 206 203 198 193 189 186 184 178 175 174 170 166 165 160 157 160 163 167 171 176 176 174 172 170 167 167 168 170 170 167 161 165 178 193 207 225 234 225 214 210 209 204 213 220 225 227 233 232 235 235 235 235 235 235 234 234 233 232 231 229 227 224 223 223 222 222 220 218 216 216 218 220 222 223 222 218 214 213 217 224 231 239 245 248 250 252 254 254 254 254 255 255 255 255 255 255 255 255 255 255 255 255 255 255 255 255 255 255 255 255 255 255 255 255 255
255 255 255 255 255 255 255 255 255 255 255 255 255 255 255 255 255 255 255 255 255 255 255 255 255 255 255 255 255 255 254 254 254 254 253 252 249 245 239 229 220 214 209 207 210 213 214 214 215 215 215 215 215 215 215 216 216 217 217 217 217 217 215 211 209 209 208 208 211 208 201 195 194 190 185 181 176 171 169 174 183 193 201 207 208 206 202 197 193 188 183 179 172 170 173 173 170 172 167 161 162 164 168 172 177 178 177 173 169 166 164 164 164 164 160 152 151 162 178 195 215 226 226 216 210 210 208 214 222 228 230 235 233 235 235 234 235 235 234 234 234 233 231 230 228 226 224 223 223 222 222 221 219 216 214 216 219 222 226 228 226 224 223 228 234 241 247 252 253 253 254 254 254 254 254 255 255 255 255 255 255 255 255 255 255 255 255 255 255 255 255 255 255 255 255 255 255 255 255 255
255 255 255 255 255 255 255 255 255 255 255 255 255 255 255 255 255 255 255 255 255 255 255 255 255 255 255 255 255 255 254 254 254 254 254 254 253 252 247 237 228 221 214 210 212 213 214 215 216 215 215 214 213 213 214 213 213 214 214 215 216 216 215 211 210 209 208 208 209 205 196 191 190 188 185 182 178 173 172 178 188 198 207 212 211 209 208 203 197 189 180 173 162 160 166 169 169 171 166 158 157 159 164 168 173 174 172 167 161 157 154 153 152 151 147 138 136 144 159 178 201 214 222 215 211 212 214 217 225 230 231 235 234 235 235 234 235 235 234 234 234 233 231 229 227 225 223 222 222 222 222 222 221 219 216 216 219 222 227 231 233 233 234 237 242 246 250 253 254 254 254 254 254 254 254 255 255 255 255 255 255 255 255 255 255 255 255 255 255 255 255 255 255 255 255 255 255 255 255 255
255 255 255 255 255 255 255 255 255 255 255 255 255 255 255 255 255 255 255 255 255 255 255 255 255 255 255 255 255 255 254 254 254 254 254 254 254 254 250 242 236 228 219 214 214 214 214 215 215 214 213 212 211 212 211 210 210 210 211 213 214 215 214 211 209 209 209 208 206 201 192 186 185 186 184 182 178 174 174 180 190 200 207 211 212 212 210 205 199 188 177 167 157 155 160 163 162 164 159 151 150 152 157 161 163 162 157 150 143 140 139 139 139 139 136 128 122 126 140 160 183 199 213 212 210 212 218 220 226 231 232 234 233 235 235 234 234 234 234 233 233 232 230 228 226 225 223 222 222 222 222 223 223 222 219 219 221 224 229 234 238 239 241 244 247 250 253 254 254 254 254 254 254 254 254 255 255 255 255 255 255 255 255 255 255 255 255 255 255 255 255 255 255 255 255 255 255 255 255 255
255 255 255 255 255 255 255 255 255 255 255 255 255 255 255 255 255 255 255 255 255 255 255 255 255 255 255 255 255 255 254 254 254 254 254 254 254 254 252 246 242 234 224 218 216 214 214 215 215 213 211 210 210 210 208 207 207 208 209 211 212 212 212 209 208 208 209 206 203 198 189 183 183 183 180 178 173 169 169 174 181 187 192 196 198 202 205 203 199 189 179 171 162 160 163 162 159 160 154 147 147 149 151 153 152 148 142 134 127 125 127 129 131 133 129 121 114 113 123 142 165 184 203 208 208 211 218 221 227 232 233 234 233 234 234 233 233 233 233 232 232 231 229 227 226 224 223 222 222 222 222 222 223 224 223 222 225 229 232 238 243 245 247 249 251 253 254 254 254 254 254 254 254 254 254 255 255 255 255 255 255 255 255 255 255 255 255 255 255 255 255 255 255 255 255 255 255 255 255 255
255 255 255 255 255 255 255 255 255 255 255 255 255 255 255 255 255 255 255 255 255 255 255 255 255 255 255 255 255 255 255 255 255 255 254 254 254 254 253 250 247 239 229 223 219 215 215 215 214 211 210 209 209 207 206 204 205 206 208 209 208 208 207 206 206 208 208 204 200 195 186 181 182 181 177 174 169 165 166 171 175 178 179 181 187 196 204 207 206 196 185 175 165 161 161 158 153 153 148 144 146 149 150 150 148 140 134 126 119 118 121 125 128 129 124 117 108 103 109 126 148 169 192 203 206 212 219 222 227 232 233 234 233 233 233 232 231 231 231 230 230 230 229 227 226 224 223 222 222 222 222 222 223 225 225 226 230 235 238 243 249 251 251 252 253 254 254 254 254 254 254 254 254 254 254 255 255 255 255 255 255 255 255 255 255 255 255 255 255 255 255 255 255 255 255 255 255 255 255 255
255 255 255 255 255 255 255 255 255 255 255 255 255 255 255 255 255 255 255 255 255 255 255 255 255 255 255 255 255 255 255 255 255 255 254 254 254 254 254 253 251 244 235 228 222 217 214 213 212 210 208 208 206 204 202 202 203 205 206 205 203 202 201 201 204 207 205 200 197 191 182 180 180 176 172 169 163 161 165 170 173 175 176 178 184 193 203 210 211 201 189 175 161 155 154 150 145 146 143 140 144 147 147 147 143 136 129 123 119 118 122 127 132 133 127 118 107 98 98 114 135 157 183 199 205 210 218 220 225 231 233 233 233 232 232 231 230 230 229 229 228 228 227 227 226 224 222 222 222 222 223 222 222 224 226 227 232 238 242 246 252 254 254 254 254 254 254 254 254 254 254 255 255 255 255 255 255 255 255 255 255 255 255 255 255 255 255 255 255 255 255 255 255 255 255 255 255 255 255 255
255 255 255 255 255 255 255 255 255 255 255 255 255 255 255 255 255 255 255 255 255 255 255 255 255 255 255 255 255 255 255 255 255 255 255 255 254 254 254 254 253 248 241 235 229 220 215 213 211 208 207 205 203 200 199 200 202 203 201 197 194 193 193 196 202 204 201 196 193 186 179 179 178 172 168 164 157 154 154 155 158 160 164 170 181 193 203 210 212 202 189 174 158 147 144 140 136 138 140 142 146 147 144 139 134 126 121 119 117 118 124 131 137 139 132 121 109 98 93 103 123 145 173 193 203 209 216 218 222 228 231 232 232 231 230 230 229 228 227 227 226 226 226 226 225 224 223 222 222 223 224 223 223 225 228 230 235 242 246 248 252 254 255 255 255 255 255 255 255 255 255 255 255 255 255 255 255 255 255 255 255 255 255 255 255 255 255 255 255 255 255 255 255 255 255 255 255 255 255 255
255 255 255 255 255 255 255 255 255 255 255 255 255 255 255 255 255 255 255 255 255 255 255 255 255 255 255 255 255 255 255 255 255 255 255 255 254 254 254 254 254 250 245 241 235 225 218 215 211 206 205 202 199 196 196 199 201 199 193 187 184 183 187 193 199 199 195 191 187 180 176 178 176 170 164 160 151 145 144 145 147 149 155 165 177 189 202 209 211 200 188 174 158 148 145 139 134 136 137 141 146 146 142 136 129 122 119 118 118 119 125 132 138 142 136 124 111 98 91 98 116 138 166 188 201 208 213 215 218 223 228 230 230 229 228 228 227 225 224 224 224 224 224 225 225 224 223 223 222 223 225 225 223 226 230 232 238 245 249 250 253 254 255 255 255 255 255 255 255 255 255 255 255 255 255 255 255 255 255 255 255 255 255 255 255 255 255 255 255 255 255 255 255 255 255 255 255 255 255 255
255 255 255 255 255 255 255 255 255 255 255 255 255 255 255 255 255 255 255 255 255 255 255 255 255 255 255 255 255 255 255 255 255 255 255 255 254 254 254 254 254 252 249 246 240 230 222 216 210 205 201 198 194 193 194 197 196 190 182 176 172 175 182 189 194 193 189 185 179 173 172 176 174 169 164 159 149 144 143 145 147 151 159 168 178 190 201 208 209 200 188 175 159 149 145 137 130 129 129 133 139 143 142 139 134 128 125 124 123 122 124 129 136 140 135 124 110 97 89 95 111 133 159 182 199 207 211 212 213 217 222 226 228 227 226 226 225 224 222 222 222 223 224 224 224 224 223 223 223 223 225 226 224 228 233 236 241 248 251 252 254 254 255 255 255 255 255 255 255 255 255 255 255 255 255 255 255 255 255 255 255 255 255 255 255 255 255 255 255 255 255 255 255 255 255 255 255 255 255 255
255 255 255 255 255 255 255 255 255 255 255 255 255 255 255 255 255 255 255 255 255 255 255 255 255 255 255 255 255 255 255 255 255 255 255 255 254 254 254 254 254 254 252 250 246 235 226 219 211 203 199 195 190 189 191 193 188 180 171 166 165 170 179 186 189 186 182 177 170 166 168 173 173 171 167 161 152 147 144 143 144 146 152 160 171 183 196 203 206 198 189 177 162 152 148 137 127 123 119 121 128 134 139 142 140 138 135 131 127 123 122 125 131 136 132 122 110 97 89 93 108 129 153 176 195 205 209 208 210 212 216 221 225 225 224 224 223 222 220 220 220 221 222 223 223 223 224 224 224 224 226 227 226 231 237 240 245 251 253 254 254 254 255 255 255 255 255 255 255 255 255 255 255 255 255 255 255 255 255 255 255 255 255 255 255 255 255 255 255 255 255 255 255 255 255 255 255 255 255 255
255 255 255 255 255 255 255 255 255 255 255 255 255 255 255 255 255 255 255 255 255 255 255 255 255 255 255 255 255 255 255 255 255 255 255 255 254 254 254 254 254 254 254 254 250 242 234 227 216 205 198 192 186 185 188 187 180 172 164 160 162 169 179 184 183 179 176 169 162 161 165 169 172 173 170 164 158 153 149 145 140 135 136 139 150 167 185 196 203 200 193 181 167 159 151 136 124 115 106 106 115 124 135 144 147 145 142 136 129 123 120 119 124 129 127 119 108 97 91 93 106 126 149 170 190 202 207 206 206 207 209 215 220 221 221 220 220 220 219 218 218 219 221 222 222 223 224 224 224 224 227 229 230 235 242 246 249 253 254 254 254 254 255 255 255 255 255 255 255 255 255 255 255 255 255 255 255 255 255 255 255 255 255 255 255 255 255 255 255 255 255 255 255 255 255 255 255 255 255 255
255 255 255 255 255 255 255 255 255 255 255 255 255 255 255 255 255 255 255 255 255 255 255 255 255 255 255 255 255 255 255 255 255 255 255 255 255 255 254 254 254 254 254 254 252 246 240 234 222 210 200 192 183 184 186 184 175 169 163 161 164 172 181 182 177 174 170 160 156 158 162 165 172 174 171 169 167 167 167 164 155 143 133 128 134 150 171 188 200 201 196 187 174 167 156 139 122 107 92 91 103 117 133 147 152 149 144 137 129 121 116 115 119 123 122 115 105 95 90 93 106 126 148 167 186 200 205 203 203 202 203 207 213 217 217 217 217 217 217 217 217 218 219 221 221 222 223 224 224 224 228 231 233 238 245 249 251 253 254 254 254 254 255 255 255 255 255 255 255 255 255 255 255 255 255 255 255 255 255 255 255 255 255 255 255 255 255 255 255 255 255 255 255 255 255 255 255 255 255 255
255 255 255 255 255 255 255 255 255 255 255 255 255 255 255 255 255 255 255 255 255 255 255 255 255 255 255 255 255 255 255 255 255 255 255 255 255 255 255 254 254 254 254 254 253 249 245 240 229 215 203 194 182 182 185 181 172 169 167 165 169 177 182 179 172 169 164 154 152 157 158 161 169 172 171 172 177 181 182 179 168 151 136 125 126 141 161 181 197 203 200 192 178 169 157 137 115 97 78 75 91 110 128 144 149 144 136 130 121 115 113 112 116 120 119 112 103 94 90 93 106 127 148 165 182 195 202 201 199 197 197 199 205 210 214 215 215 215 215 216 216 216 217 219 220 221 222 223 224 224 228 233 236 241 248 251 253 254 254 255 255 255 255 255 255 255 255 255 255 255 255 255 255 255 255 255 255 255 255 255 255 255 255 255 255 255 255 255 255 255 255 255 255 255 255 255 255 255 255 255
255 255 255 255 255 255 255 255 255 255 255 255 255 255 255 255 255 255 255 255 255 255 255 255 255 255 255 255 255 255 255 255 255 255 255 255 255 255 255 255 255 255 255 254 254 252 250 247 237 224 210 199 185 184 186 180 174 176 174 171 177 182 182 175 168 166 160 149 151 156 155 157 167 169 169 172 182 187 188 185 174 156 138 126 125 137 155 176 194 202 200 193 180 169 155 133 109 88 68 67 84 106 125 140 143 135 123 116 110 107 108 111 115 119 118 111 101 93 90 94 108 128 150 165 177 190 198 197 195 194 192 192 196 203 209 212 212 213 213 214 214 214 215 217 218 219 221 223 225 226 232 237 241 245 251 253 254 254 254 255 255 255 255 255 255 255 255 255 255 255 255 255 255 255 255 255 255 255 255 255 255 255 255 255 255 255 255 255 255 255 255 255 255 255 255 255 255 255 255 255
255 255 255 255 255 255 255 255 255 255 255 255 255 255 255 255 255 255 255 255 255 255 255 255 255 255 255 255 255 255 255 255 255 255 255 255 255 255 255 255 255 255 255 255 254 254 254 253 244 234 220 207 192 191 191 186 183 185 182 178 183 184 180 172 166 164 156 148 151 155 153 154 164 166 167 173 187 191 193 191 181 166 149 137 132 139 152 170 189 200 199 193 182 170 154 132 109 87 69 71 90 113 131 144 143 131 117 107 101 100 103 109 116 121 120 111 99 91 90 95 109 129 151 166 175 184 193 194 191 189 187 186 188 195 204 209 210 211 212 213 213 213 214 216 217 218 220 224 227 230 236 242 246 249 253 254 254 254 255 255 255 255 255 255 255 255 255 255 255 255 255 255 255 255 255 255 255 255 255 255 255 255 255 255 255 255 255 255 255 255 255 255 255 255 255 255 255 255 255 255
255 255 255 255 255 255 255 255 255 255 255 255 255 255 255 255 255 255 255 255 255 255 255 255 255 255 255 255 255 255 255 255 255 255 255 255 255 255 255 255 255 255 255 255 255 255 254 254 249 242 230 219 208 206 204 198 195 194 189 183 185 183 176 168 164 161 153 148 152 154 151 151 161 164 167 176 188 191 190 188 182 173 161 151 143 145 151 166 183 196 197 194 185 172 156 137 116 98 83 86 102 125 142 152 150 139 122 109 102 102 106 114 120 125 122 111 97 89 89 96 111 131 153 168 175 180 188 190 187 186 184 181 182 187 197 205 208 209 210 211 211 211 212 214 215 216 219 225 229 233 240 246 249 251 254 254 255 255 255 255 255 255 255 255 255 255 255 255 255 255 255 255 255 255 255 255 255 255 255 255 255 255 255 255 255 255 255 255 255 255 255 255 255 255 255 255 255 255 255 255
255 255 255 255 255 255 255 255 255 255 255 255 255 255 255 255 255 255 255 255 255 255 255 255 255 255 255 255 255 255 255 255 255 255 255 255 255 255 255 255 255 255 255 255 255 255 254 254 252 247 239 230 222 220 217 210 205 201 192 184 183 180 172 164 162 158 151 148 152 153 150 149 159 165 169 180 192 191 189 186 183 177 169 160 147 146 149 159 176 195 199 198 191 178 161 141 124 110 98 101 117 137 153 162 160 151 136 122 114 112 115 122 127 131 125 112 96 88 88 97 113 133 153 168 174 177 183 185 183 183 182 179 178 181 190 200 206 207 207 208 209 210 210 214 216 217 222 229 234 238 245 250 251 253 254 254 255 255 255 255 255 255 255 255 255 255 255 255 255 255 255 255 255 255 255 255 255 255 255 255 255 255 255 255 255 255 255 255 255 255 255 255 255 255 255 255 255 255 255 255
255 255 255 255 255 255 255 255 255 255 255 255 255 255 255 255 255 255 255 255 255 255 255 255 255 255 255 255 255 255 255 255 255 255 255 255 255 255 255 255 255 255 255 255 255 255 254 254 254 252 247 242 237 234 230 223 216 208 197 186 182 176 168 162 160 156 150 150 152 153 149 150 160 168 175 187 198 197 195 192 188 183 175 163 147 143 143 151 170 192 199 198 194 181 163 146 134 123 114 118 130 145 158 167 168 163 151 139 131 127 127 131 135 137 128 113 96 87 88 98 116 136 153 168 175 176 179 181 180 180 180 177 176 176 183 194 202 205 205 205 206 207 209 215 220 222 228 236 240 245 250 253 254 254 254 254 255 255 255 255 255 255 255 255 255 255 255 255 255 255 255 255 255 255 255 255 255 255 255 255 255 255 255 255 255 255 255 255 255 255 255 255 255 255 255 255 255 255 255 255
255 255 255 255 255 255 255 255 255 255 255 255 255 255 255 255 255 255 255 255 255 255 255 255 255 255 255 255 255 255 255 255 255 255 255 255 255 255 255 255 255 255 255 255 255 255 255 255 254 254 252 250 247 246 243 236 229 221 209 196 187 178 168 160 157 155 151 152 153 153 150 153 163 173 184 198 208 207 203 199 194 186 177 163 145 137 136 143 162 187 197 198 195 181 163 149 141 134 128 131 141 151 161 170 173 172 165 155 148 142 139 139 140 140 128 112 94 86 86 99 118 137 153 168 177 177 177 179 177 177 179 178 175 174 178 188 197 202 203 203 203 204 207 216 223 227 233 241 245 249 252 254 254 254 254 254 255 255 255 255 255 255 255 255 255 255 255 255 255 255 255 255 255 255 255 255 255 255 255 255 255 255 255 255 255 255 255 255 255 255 255 255 255 255 255 255 255 255 255 255
255 255 255 255 255 255 255 255 255 255 255 255 255 255 255 255 255 255 255 255 255 255 255 255 255 255 255 255 255 255 255 255 255 255 255 255 255 255 255 255 255 255 255 255 255 255 255 255 255 254 254 254 254 254 252 246 239 231 221 208 196 185 174 165 160 157 155 155 154 155 155 161 171 181 192 203 208 207 206 203 198 189 178 163 142 131 130 136 155 181 194 197 194 183 165 152 144 138 132 135 144 154 164 172 175 174 169 162 156 151 147 146 145 140 126 109 91 82 84 97 117 137 151 167 178 179 177 178 175 175 178 178 176 173 175 182 191 199 201 201 203 205 210 220 229 234 240 246 249 251 253 254 254 254 254 254 255 255 255 255 255 255 255 255 255 255 255 255 255 255 255 255 255 255 255 255 255 255 255 255 255 255 255 255 255 255 255 255 255 255 255 255 255 255 255 255 255 255 255 255
255 255 255 255 255 255 255 255 255 255 255 255 255 255 255 255 255 255 255 255 255 255 255 255 255 255 255 255 255 255 255 255 255 255 255 255 255 255 255 255 255 255 255 255 255 255 255 255 255 255 255 254 254 254 254 250 245 239 232 221 210 200 190 181 173 168 165 163 162 165 169 178 186 193 198 202 203 203 206 207 202 193 181 162 140 125 123 130 148 175 192 196 193 183 162 147 138 133 129 135 148 160 169 175 176 171 164 156 150 144 141 141 141 135 121 104 88 79 82 96 116 135 149 166 179 183 180 178 174 172 175 177 177 173 173 178 186 195 199 202 205 209 216 228 237 242 247 251 252 253 254 254 254 254 254 254 255 255 255 255 255 255 255 255 255 255 255 255 255 255 255 255 255 255 255 255 255 255 255 255 255 255 255 255 255 255 255 255 255 255 255 255 255 255 255 255 255 255 255 255
255 255 255 255 255 255 255 255 255 255 255 255 255 255 255 255 255 255 255 255 255 255 255 255 255 255 255 255 255 255 255 255 255 255 255 255 255 255 255 255 255 255 255 255 255 255 255 255 255 255 255 255 254 254 254 253 251 248 244 236 226 218 209 200 192 188 185 183 181 184 190 199 204 205 203 200 194 193 196 199 197 188 175 156 136 119 117 126 143 168 188 194 192 182 161 146 136 130 130 139 151 164 174 178 175 166 156 144 135 128 124 125 128 123 111 98 85 78 83 98 117 134 149 167 181 187 186 181 173 170 172 176 177 175 175 180 186 195 201 207 210 215 223 235 243 248 251 254 254 254 254 254 254 254 254 254 255 255 255 255 255 255 255 255 255 255 255 255 255 255 255 255 255 255 255 255 255 255 255 255 255 255 255 255 255 255 255 255 255 255 255 255 255 255 255 255 255 255 255 255
255 255 255 255 255 255 255 255 255 255 255 255 255 255 255 255 255 255 255 255 255 255 255 255 255 255 255 255 255 255 255 255 255 255 255 255 255 255 255 255 255 255 255 255 255 255 255 255 255 255 255 255 254 254 254 254 254 254 253 248 241 234 227 219 212 209 206 204 202 204 211 219 221 216 209 197 186 179 179 182 179 170 157 142 124 110 108 119 136 161 183 194 191 181 161 143 131 126 130 141 155 168 178 178 171 157 144 127 116 108 105 106 111 107 98 89 81 77 84 101 119 135 151 171 186 194 194 187 175 170 172 175 178 177 179 183 190 200 210 217 221 226 232 241 247 250 253 254 254 254 254 254 254 254 254 254 255 255 255 255 255 255 255 255 255 255 255 255 255 255 255 255 255 255 255 255 255 255 255 255 255 255 255 255 255 255 255 255 255 255 255 255 255 255 255 255 255 255 255 255
255 255 255 255 255 255 255 255 255 255 255 255 255 255 255 255 255 255 255 255 255 255 255 255 255 255 255 255 255 255 255 255 255 255 255 255 255 255 255 255 255 255 255 255 255 255 255 255 255 255 255 255 254 254 254 254 254 254 254 253 250 246 243 238 233 228 225 223 221 224 231 237 235 227 212 196 180 170 166 165 158 147 133 119 106 95 95 111 130 155 181 194 191 182 161 140 128 125 130 142 153 159 167 163 152 139 127 108 96 90 88 91 97 94 88 83 79 78 87 103 120 134 150 172 189 200 204 196 181 173 175 179 184 186 190 194 200 210 220 228 232 237 242 249 252 253 254 254 254 254 254 254 255 255 255 255 255 255 255 255 255 255 255 255 255 255 255 255 255 255 255 255 255 255 255 255 255 255 255 255 255 255 255 255 255 255 255 255 255 255 255 255 255 255 255 255 255 255 255 255
255 255 255 255 255 255 255 255 255 255 255 255 255 255 255 255 255 255 255 255 255 255 255 255 255 255 255 255 255 255 255 255 255 255 255 255 255 255 255 255 255 255 255 255 255 255 255 255 255 255 255 255 254 254 254 254 254 254 254 254 254 254 253 252 249 245 242 241 240 243 247 250 245 233 216 199 182 170 164 159 148 135 119 103 91 82 83 102 124 151 180 196 193 184 163 143 131 129 135 143 146 144 146 140 131 123 115 99 89 84 82 84 90 88 84 81 82 84 94 110 125 138 153 174 193 207 214 208 192 183 185 189 195 201 206 210 215 222 231 239 241 245 249 253 254 254 254 254 254 254 254 254 255 255 255 255 255 255 255 255 255 255 255 255 255 255 255 255 255 255 255 255 255 255 255 255 255 255 255 255 255 255 255 255 255 255 255 255 255 255 255 255 255 255 255 255 255 255 255 255
255 255 255 255 255 255 255 255 255 255 255 255 255 255 255 255 255 255 255 255 255 255 255 255 255 255 255 255 255 255 255 255 255 255 255 255 255 255 255 255 255 255 255 255 255 255 255 255 255 255 255 255 255 255 255 255 255 255 255 255 255 255 255 254 254 254 253 253 253 254 254 254 248 236 221 206 191 181 174 166 152 136 116 97 83 74 73 93 117 147 178 199 198 189 170 150 139 135 135 136 134 126 125 122 118 116 115 104 97 94 92 93 98 95 90 87 88 90 101 115 129 141 157 178 198 214 224 221 208 200 202 205 210 216 222 226 230 236 243 248 249 250 252 254 254 254 255 255 255 255 255 255 255 255 255 255 255 255 255 255 255 255 255 255 255 255 255 255 255 255 255 255 255 255 255 255 255 255 255 255 255 255 255 255 255 255 255 255 255 255 255 255 255 255 255 255 255 255 255 255
255 255 255 255 255 255 255 255 255 255 255 255 255 255 255 255 255 255 255 255 255 255 255 255 255 255 255 255 255 255 255 255 255 255 255 255 255 255 255 255 255 255 255 255 255 255 255 255 255 255 255 255 255 255 255 255 255 255 255 255 255 255 255 255 254 254 254 254 254 254 254 253 247 237 225 213 203 196 189 180 164 146 124 101 83 70 65 82 109 141 175 200 202 193 175 154 142 135 129 126 121 114 113 115 116 120 122 117 113 112 110 110 112 109 102 97 96 97 107 120 132 143 158 179 201 219 231 233 224 218 219 222 226 231 236 238 242 246 251 254 254 254 254 254 254 254 254 254 254 255 255 255 255 255 255 255 255 255 255 255 255 255 255 255 255 255 255 255 255 255 255 255 255 255 255 255 255 255 255 255 255 255 255 255 255 255 255 255 255 255 255 255 255 255 255 255 255 255 255 255
255 255 255 255 255 255 255 255 255 255 255 255 255 255 255 255 255 255 255 255 255 255 255 255 255 255 255 255 255 255 255 255 255 255 255 255 255 255 255 255 255 255 255 255 255 255 255 255 255 255 255 255 255 255 255 255 255 255 255 255 255 255 255 255 255 254 254 254 254 254 254 253 245 235 225 215 208 205 202 195 181 165 142 116 92 73 62 73 100 135 171 199 205 197 179 158 144 133 124 120 116 112 115 122 126 134 138 137 131 130 126 124 124 121 115 109 106 106 113 124 134 143 156 176 198 218 235 241 238 234 235 237 241 245 248 249 250 252 254 254 254 254 254 254 254 254 254 254 254 255 255 255 255 255 255 255 255 255 255 255 255 255 255 255 255 255 255 255 255 255 255 255 255 255 255 255 255 255 255 255 255 255 255 255 255 255 255 255 255 255 255 255 255 255 255 255 255 255 255 255
255 255 255 255 255 255 255 255 255 255 255 255 255 255 255 255 255 255 255 255 255 255 255 255 255 255 255 255 255 255 255 255 255 255 255 255 255 255 255 255 255 255 255 255 255 255 255 255 255 255 255 255 255 255 255 255 255 255 255 255 255 255 255 255 255 255 255 255 255 254 254 252 242 231 220 210 204 205 208 207 200 189 170 142 111 84 63 65 88 124 162 194 205 198 182 161 143 129 120 118 121 126 134 146 153 160 162 161 153 145 138 133 132 130 126 122 118 117 121 130 139 147 156 174 195 215 233 246 248 247 247 248 250 253 254 254 254 254 254 254 254 254 254 255 254 254 254 254 254 255 255 255 255 255 255 255 255 255 255 255 255 255 255 255 255 255 255 255 255 255 255 255 255 255 255 255 255 255 255 255 255 255 255 255 255 255 255 255 255 255 255 255 255 255 255 255 255 255 255 255
255 255 255 255 255 255 255 255 255 255 255 255 255 255 255 255 255 255 255 255 255 255 255 255 255 255 255 255 255 255 255 255 255 255 255 255 255 255 255 255 255 255 255 255 255 255 255 255 255 255 255 255 255 255 255 255 255 255 255 255 255 255 255 255 255 255 255 255 255 254 254 250 238 224 209 198 193 197 204 209 208 204 189 164 131 99 70 62 79 112 151 185 201 197 182 160 141 127 120 125 137 149 161 173 179 182 181 178 169 157 146 140 139 138 136 133 129 126 128 135 142 147 154 169 189 208 228 246 253 254 254 254 254 254 254 254 254 254 254 254 254 254 254 255 254 254 254 254 254 255 255 255 255 255 255 255 255 255 255 255 255 255 255 255 255 255 255 255 255 255 255 255 255 255 255 255 255 255 255 255 255 255 255 255 255 255 255 255 255 255 255 255 255 255 255 255 255 255 255 255
255 255 255 255 255 255 255 255 255 255 255 255 255 255 255 255 255 255 255 255 255 255 255 255 255 255 255 255 255 255 255 255 255 255 255 255 255 255 255 255 255 255 255 255 255 255 255 255 255 255 255 255 255 255 255 255 255 255 255 255 255 255 255 255 255 255 255 255 255 254 254 248 233 214 196 181 177 183 194 202 206 205 194 176 146 113 80 64 72 101 138 172 194 192 179 158 141 131 131 144 162 177 187 194 193 191 187 182 171 157 145 139 138 140 141 140 138 134 134 139 145 148 151 162 180 199 221 241 252 254 254 254 254 254 254 254 254 254 254 254 254 254 254 255 254 254 254 254 254 255 255 255 255 255 255 255 255 255 255 255 255 255 255 255 255 255 255 255 255 255 255 255 255 255 255 255 255 255 255 255 255 255 255 255 255 255 255 255 255 255 255 255 255 255 255 255 255 255 255 255
255 255 255 255 255 255 255 255 255 255 255 255 255 255 255 255 255 255 255 255 255 255 255 255 255 255 255 255 255 255 255 255 255 255 255 255 255 255 255 255 255 255 255 255 255 255 255 255 255 255 255 255 255 255 255 255 255 255 255 255 255 255 255 255 255 255 255 255 254 254 253 244 227 205 183 168 163 169 182 192 198 201 193 180 157 125 92 71 70 90 124 157 182 184 174 156 142 139 147 165 185 199 205 205 200 193 186 178 165 149 137 132 133 138 143 147 146 143 142 145 148 148 147 154 170 190 213 235 249 254 254 255 255 255 255 255 255 255 255 255 255 255 255 255 255 255 255 255 255 255 255 255 255 255 255 255 255 255 255 255 255 255 255 255 255 255 255 255 255 255 255 255 255 255 255 255 255 255 255 255 255 255 255 255 255 255 255 255 255 255 255 255 255 255 255 255 255 255 255 255
255 255 255 255 255 255 255 255 255 255 255 255 255 255 255 255 255 255 255 255 255 255 255 255 255 255 255 255 255 255 255 255 255 255 255 255 255 255 255 255 255 255 255 255 255 255 255 255 255 255 255 255 255 255 255 255 255 255 255 255 255 255 255 255 255 255 255 255 254 254 251 241 223 200 176 158 153 159 171 182 190 193 185 175 159 131 100 78 72 83 109 140 166 172 164 151 143 147 161 181 199 208 209 206 198 190 181 171 156 139 127 123 128 135 144 151 153 150 149 150 152 150 147 150 163 182 205 229 246 253 254 255 255 255 255 255 255 255 255 255 255 255 255 255 255 255 255 255 255 255 255 255 255 255 255 255 255 255 255 255 255 255 255 255 255 255 255 255 255 255 255 255 255 255 255 255 255 255 255 255 255 255 255 255 255 255 255 255 255 255 255 255 255 255 255 255 255 255 255 255
255 255 255 255 255 255 255 255 255 255 255 255 255 255 255 255 255 255 255 255 255 255 255 255 255 255 255 255 255 255 255 255 255 255 255 255 255 255 255 255 255 255 255 255 255 255 255 255 255 255 255 255 255 255 255 255 255 255 255 255 255 255 255 255 255 255 255 255 254 254 250 238 220 197 171 151 143 146 156 167 174 177 168 159 148 128 102 83 74 78 97 123 147 156 152 146 145 153 168 186 198 201 197 194 187 179 169 157 140 125 114 113 121 133 144 153 156 153 152 153 154 152 149 149 158 175 198 222 241 251 254 254 255 255 255 255 255 255 255 255 255 255 255 255 255 255 255 255 255 255 255 255 255 255 255 255 255 255 255 255 255 255 255 255 255 255 255 255 255 255 255 255 255 255 255 255 255 255 255 255 255 255 255 255 255 255 255 255 255 255 255 255 255 255 255 255 255 255 255 255
255 255 255 255 255 255 255 255 255 255 255 255 255 255 255 255 255 255 255 255 255 255 255 255 255 255 255 255 255 255 255 255 255 255 255 255 255 255 255 255 255 255 255 255 255 255 255 255 255 255 255 255 255 255 255 255 255 255 255 255 255 255 255 255 255 255 255 255 254 254 248 235 218 196 169 146 135 132 137 146 152 155 146 137 129 115 97 82 72 72 84 105 126 137 138 140 144 152 162 175 179 177 174 173 168 161 150 137 121 107 99 102 114 130 145 156 160 158 155 156 156 155 151 149 155 170 192 216 236 249 254 254 255 255 255 255 255 255 255 255 255 255 255 255 255 255 255 255 255 255 255 255 255 255 255 255 255 255 255 255 255 255 255 255 255 255 255 255 255 255 255 255 255 255 255 255 255 255 255 255 255 255 255 255 255 255 255 255 255 255 255 255 255 255 255 255 255 255 255 255
255 255 255 255 255 255 255 255 255 255 255 255 255 255 255 255 255 255 255 255 255 255 255 255 255 255 255 255 255 255 255 255 255 255 255 255 255 255 255 255 255 255 255 255 255 255 255 255 255 255 255 255 255 255 255 255 255 255 255 255 255 255 255 255 255 255 255 255 254 253 246 232 217 197 171 148 133 124 121 124 126 128 118 109 103 94 83 73 65 62 70 86 104 117 123 132 139 143 147 152 149 144 144 145 142 137 125 112 97 86 83 91 109 128 145 158 163 161 160 160 160 158 152 150 153 166 185 209 229 245 252 254 254 255 255 255 255 255 255 255 255 255 255 255 255 255 255 255 255 255 255 255 255 255 255 255 255 255 255 255 255 255 255 255 255 255 255 255 255 255 255 255 255 255 255 255 255 255 255 255 255 255 255 255 255 255 255 255 255 255 255 255 255 255 255 255 255 255 255 255
255 255 255 255 255 255 255 255 255 255 255 255 255 255 255 255 255 255 255 255 255 255 255 255 255 255 255 255 255 255 255 255 255 255 255 255 255 255 255 255 255 255 255 255 255 255 255 255 255 255 255 255 255 255 255 255 255 255 255 255 255 255 255 255 255 255 255 255 254 253 244 230 215 197 172 148 131 117 108 106 104 102 93 83 78 72 65 59 55 53 57 69 84 99 110 124 130 131 130 127 118 113 114 115 114 110 102 91 79 72 74 87 108 129 146 159 163 161 160 162 161 159 153 151 152 161 180 203 224 241 251 254 254 255 255 255 255 255 255 255 255 255 255 255 255 255 255 255 255 255 255 255 255 255 255 255 255 255 255 255 255 255 255 255 255 255 255 255 255 255 255 255 255 255 255 255 255 255 255 255 255 255 255 255 255 255 255 255 255 255 255 255 255 255 255 255 255 255 255 255
255 255 255 255 255 255 255 255 255 255 255 255 255 255 255 255 255 255 255 255 255 255 255 255 255 255 255 255 255 255 255 255 255 255 255 255 255 255 255 255 255 255 255 255 255 255 255 255 255 255 255 255 255 255 255 255 255 255 255 255 255 255 255 255 255 255 255 255 254 252 243 228 212 193 169 146 128 112 100 95 91 89 82 73 67 61 54 48 44 43 45 54 68 83 98 114 121 122 120 113 104 99 98 98 97 94 87 79 72 70 78 96 116 137 152 161 164 162 161 161 161 158 154 152 151 157 173 196 217 236 249 253 254 255 255 255 255 255 255 255 255 255 255 255 255 255 255 255 255 255 255 255 255 255 255 255 255 255 255 255 255 255 255 255 255 255 255 255 255 255 255 255 255 255 255 255 255 255 255 255 255 255 255 255 255 255 255 255 255 255 255 255 255 255 255 255 255 255 255 255
255 255 255 255 255 255 255 255 255 255 255 255 255 255 255 255 255 255 255 255 255 255 255 255 255 255 255 255 255 255 255 255 255 255 255 255 255 255 255 255 255 255 255 255 255 255 255 255 255 255 255 255 255 255 255 255 255 255 255 255 255 255 255 255 255 255 255 255 254 251 241 224 208 190 167 146 130 114 102 96 95 94 92 84 77 66 55 44 37 34 35 42 55 71 87 103 113 117 117 112 107 102 100 96 93 89 84 78 76 80 93 113 132 148 159 164 166 165 163 162 159 155 151 148 147 152 168 190 211 231 246 253 254 254 254 255 255 255 255 255 255 255 255 255 255 255 255 255 255 255 255 255 255 255 255 255 255 255 255 255 255 255 255 255 255 255 255 255 255 255 255 255 255 255 255 255 255 255 255 255 255 255 255 255 255 255 255 255 255 255 255 255 255 255 255 255 255 255 255 255
255 255 255 255 255 255 255 255 255 255 255 255 255 255 255 255 255 255 255 255 255 255 255 255 255 255 255 255 255 255 255 255 255 255 255 255 255 255 255 255 255 255 255 255 255 255 255 255 255 255 255 255 255 255 255 255 255 255 255 255 255 255 255 255 255 255 255 255 254 250 237 221 204 187 168 151 137 123 112 108 110 112 113 109 100 86 69 51 37 30 29 34 46 63 79 95 111 121 127 128 127 121 114 106 98 92 87 83 84 93 109 127 144 157 164 166 166 165 164 162 157 150 146 143 141 146 162 183 205 227 244 252 254 254 254 254 255 255 255 255 255 255 255 255 255 255 255 255 255 255 255 255 255 255 255 255 255 255 255 255 255 255 255 255 255 255 255 255 255 255 255 255 255 255 255 255 255 255 255 255 255 255 255 255 255 255 255 255 255 255 255 255 255 255 255 255 255 255 255 255
255 255 255 255 255 255 255 255 255 255 255 255 255 255 255 255 255 255 255 255 255 255 255 255 255 255 255 255 255 255 255 255 255 255 255 255 255 255 255 255 255 255 255 255 255 255 255 255 255 255 255 255 255 255 255 255 255 255 255 255 255 255 255 255 255 255 255 255 254 248 235 218 200 183 167 154 143 133 127 127 133 140 145 142 133 115 92 66 46 33 28 31 43 60 76 93 114 133 147 155 157 151 138 124 111 101 94 91 93 103 120 136 150 161 165 165 165 164 162 158 152 144 139 135 134 139 155 178 202 224 243 251 254 254 254 254 255 255 255 255 255 255 255 255 255 255 255 255 255 255 255 255 255 255 255 255 255 255 255 255 255 255 255 255 255 255 255 255 255 255 255 255 255 255 255 255 255 255 255 255 255 255 255 255 255 255 255 255 255 255 255 255 255 255 255 255 255 255 255 255
255 255 255 255 255 255 255 255 255 255 255 255 255 255 255 255 255 255 255 255 255 255 255 255 255 255 255 255 255 255 255 255 255 255 255 255 255 255 255 255 255 255 255 255 255 255 255 255 255 255 255 255 255 255 255 255 255 255 255 255 255 255 255 255 255 255 255 255 254 247 232 214 195 178 166 157 150 144 144 148 157 167 175 173 163 145 119 88 61 43 35 35 44 60 77 97 123 150 170 181 185 177 160 142 125 110 99 95 97 109 125 139 151 160 164 163 164 163 160 153 145 137 131 127 127 134 150 173 199 222 241 251 254 254 254 254 254 254 254 254 254 254 255 255 255 255 255 255 255 255 255 255 255 255 255 255 255 255 255 255 255 255 255 255 255 255 255 255 255 255 255 255 255 255 255 255 255 255 255 255 255 255 255 255 255 255 255 255 255 255 255 255 255 255 255 255 255 255 255 255
255 255 255 255 255 255 255 255 255 255 255 255 255 255 255 255 255 255 255 255 255 255 255 255 255 255 255 255 255 255 255 255 255 255 255 255 255 255 255 255 255 255 255 255 255 255 255 255 255 255 255 255 255 255 255 255 255 255 255 255 255 255 255 255 255 255 255 255 254 246 229 212 193 176 167 163 159 157 159 162 171 181 189 190 183 167 141 110 78 57 46 44 50 65 84 106 136 164 184 193 195 186 169 151 132 115 101 95 98 109 124 137 148 155 159 159 162 161 157 148 137 126 121 118 119 128 146 171 197 222 241 251 254 254 254 254 254 254 254 254 254 254 255 255 255 255 255 255 255 255 255 255 255 255 255 255 255 255 255 255 255 255 255 255 255 255 255 255 255 255 255 255 255 255 255 255 255 255 255 255 255 255 255 255 255 255 255 255 255 255 255 255 255 255 255 255 255 255 255 255
255 255 255 255 255 255 255 255 255 255 255 255 255 255 255 255 255 255 255 255 255 255 255 255 255 255 255 255 255 255 255 255 255 255 255 255 255 255 255 255 255 255 255 255 255 255 255 255 255 255 255 255 255 255 255 255 255 255 255 255 255 255 255 255 255 255 255 255 254 246 230 212 194 178 171 171 170 169 170 171 174 181 188 190 186 174 154 127 97 74 62 58 61 75 95 120 148 174 190 193 188 178 165 150 135 120 106 100 103 114 126 136 145 150 153 155 158 156 151 141 129 118 112 109 113 123 143 169 197 222 242 252 254 254 254 254 254 254 254 254 254 254 254 254 255 255 254 254 254 254 254 255 255 255 255 255 255 255 255 255 255 255 255 255 255 255 255 255 255 255 255 255 255 255 255 255 255 255 255 255 255 255 255 255 255 255 255 255 255 255 255 255 255 255 255 255 255 255 255 255
255 255 255 255 255 255 255 255 255 255 255 255 255 255 255 255 255 255 255 255 255 255 255 255 255 255 255 255 255 255 255 255 255 255 255 255 255 255 255 255 255 255 255 255 255 255 255 255 255 255 255 255 255 255 255 255 255 255 255 255 255 255 255 255 255 255 255 255 254 247 232 215 197 182 176 178 179 179 180 177 174 176 179 180 179 173 158 137 111 90 78 72 73 87 108 131 155 178 188 184 174 164 154 143 135 125 115 109 113 120 129 137 143 145 148 150 153 151 144 134 122 111 104 103 107 118 141 169 198 223 244 252 254 254 254 254 254 254 254 254 254 254 254 254 254 254 254 254 254 254 254 254 254 254 254 255 255 255 255 255 255 255 255 255 255 255 255 255 255 255 255 255 255 255 255 255 255 255 255 255 255 255 255 255 255 255 255 255 255 255 255 255 255 255 255 255 255 255 255 255
255 255 255 255 255 255 255 255 255 255 255 255 255 255 255 255 255 255 255 255 255 255 255 255 255 255 255 255 255 255 255 255 255 255 255 255 255 255 255 255 255 255 255 255 255 255 255 255 255 255 255 255 255 255 255 255 255 255 255 255 255 255 255 255 255 255 255 255 254 248 234 218 200 184 178 182 185 185 183 175 168 165 165 166 167 164 154 139 120 103 91 85 85 98 118 137 156 174 178 169 159 150 142 136 132 129 125 123 128 133 138 143 144 142 144 146 147 144 139 129 117 107 101 99 103 115 136 163 189 212 230 239 242 244 245 245 246 247 248 250 252 253 253 252 252 252 252 252 252 253 253 253 253 254 254 254 255 255 255 255 255 255 255 255 255 255 255 255 255 255 255 255 255 255 255 255 255 255 255 255 255 255 255 255 255 255 255 255 255 255 255 255 255 255 255 255 255 255 255 255
255 255 255 255 255 255 255 255 255 255 255 255 255 255 255 255 255 255 255 255 255 255 255 255 255 255 255 255 255 255 255 255 255 255 255 255 255 255 255 255 255 255 255 255 255 255 255 255 255 255 255 255 255 255 255 255 255 255 255 255 255 255 255 255 255 255 255 255 254 250 237 221 203 186 178 180 183 183 180 171 161 155 152 150 154 153 148 139 127 112 101 95 95 108 127 142 156 165 163 152 143 137 135 134 134 137 139 142 147 150 151 152 147 142 142 143 142 139 134 127 117 106 101 100 102 111 130 152 171 187 200 206 208 211 213 215 217 218 220 224 227 228 229 229 228 227 226 226 226 226 227 230 234 240 246 250 253 254 254 254 255 255 255 255 255 255 255 255 255 255 255 255 255 255 255 255 255 255 255 255 255 255 255 255 255 255 255 255 255 255 255 255 255 255 255 255 255 255 255 255
255 255 255 255 255 255 255 255 255 255 255 255 255 255 255 255 255 255 255 255 255 255 255 255 255 255 255 255 255 255 255 255 255 255 255 255 255 255 255 255 255 255 255 255 255 255 255 255 255 255 255 255 255 255 255 255 255 255 255 255 255 255 255 255 255 255 255 255 254 251 240 222 204 186 175 177 180 179 176 168 156 147 143 142 146 148 146 140 131 118 106 101 104 117 136 148 156 158 150 136 126 123 126 131 136 144 151 158 162 163 161 158 150 143 141 142 140 138 134 130 123 113 105 103 104 109 122 138 150 160 167 170 172 175 178 182 184 185 184 185 188 190 191 192 190 188 186 185 185 186 187 191 196 203 215 227 238 246 252 254 254 254 255 255 255 255 255 255 255 255 255 255 255 255 255 255 255 255 255 255 255 255 255 255 255 255 255 255 255 255 255 255 255 255 255 255 255 255 255 255
255 255 255 255 255 255 255 255 255 255 255 255 255 255 255 255 255 255 255 255 255 255 255 255 255 255 255 255 255 255 255 255 255 255 255 255 255 255 255 255 255 255 255 255 255 255 255 255 255 255 255 255 255 255 255 255 255 255 255 255 255 255 255 255 255 255 255 255 254 252 241 223 202 183 169 168 171 172 171 164 153 145 141 140 144 148 145 138 130 118 108 105 110 125 142 153 157 154 142 126 115 112 115 122 129 140 151 162 167 166 163 157 147 141 140 140 140 140 138 135 130 122 113 109 107 107 113 123 128 131 134 135 137 141 145 150 153 152 149 148 148 150 152 153 151 147 143 142 142 143 145 148 153 160 174 193 211 228 243 251 254 254 254 254 254 254 254 254 255 255 255 255 255 255 255 255 255 255 255 255 255 255 255 255 255 255 255 255 255 255 255 255 255 255 255 255 255 255 255 255
255 255 255 255 255 255 255 255 255 255 255 255 255 255 255 255 255 255 255 255 255 255 255 255 255 255 255 255 255 255 255 255 255 255 255 255 255 255 255 255 255 255 255 255 255 255 255 255 255 255 255 255 255 255 255 255 255 255 255 255 255 255 255 255 255 255 255 255 254 252 243 224 201 179 162 159 161 163 165 162 153 146 143 141 142 143 140 134 127 117 109 107 115 131 148 156 160 153 138 122 111 107 109 113 120 130 142 156 161 163 162 155 145 140 139 140 142 143 144 143 138 130 121 114 109 106 106 108 107 105 103 102 103 107 112 116 119 117 112 108 107 109 112 114 112 107 101 98 97 97 100 104 109 117 131 152 177 203 225 242 251 254 254 254 254 254 254 254 255 255 255 255 255 255 255 255 255 255 255 255 255 255 255 255 255 255 255 255 255 255 255 255 255 255 255 255 255 255 255 255
255 255 255 255 255 255 255 255 255 255 255 255 255 255 255 255 255 255 255 255 255 255 255 255 255 255 255 255 255 255 255 255 255 255 255 255 255 255 255 255 255 255 255 255 255 255 255 255 255 255 255 255 255 255 255 255 255 255 255 255 255 255 255 255 255 255 255 255 254 253 244 225 201 176 156 148 150 155 162 165 158 152 148 142 141 143 141 135 128 119 112 110 120 136 152 160 162 153 137 120 107 101 102 105 110 119 133 147 154 158 159 152 145 140 140 141 146 148 150 149 145 135 123 114 108 102 100 98 95 90 86 81 80 83 87 91 93 90 82 74 70 70 72 74 72 66 58 54 52 52 55 59 65 73 89 113 145 179 210 234 249 253 254 254 254 254 254 254 254 254 254 254 254 254 255 255 255 255 255 255 255 255 255 255 255 255 255 255 255 255 255 255 255 255 255 255 255 255 255 255
255 255 255 255 255 255 255 255 255 255 255 255 255 255 255 255 255 255 255 255 255 255 255 255 255 255 255 255 255 255 255 255 255 255 255 255 255 255 255 255 255 255 255 255 255 255 255 255 255 255 255 255 255 255 255 255 255 255 255 255 255 255 255 255 255 255 255 255 254 253 246 228 204 178 154 141 142 149 159 165 162 158 152 147 146 147 145 138 129 122 115 113 125 141 156 164 166 156 140 122 106 97 93 93 98 109 124 138 146 152 153 147 141 139 138 140 146 149 150 150 145 135 122 111 104 96 93 92 90 86 84 81 80 83 85 87 87 83 72 61 55 54 57 59 57 50 42 35 33 34 38 42 47 53 68 93 128 166 201 230 247 253 254 254 254 254 254 254 254 254 254 254 254 254 255 255 255 255 255 255 255 255 255 255 255 255 255 255 255 255 255 255 255 254 254 254 254 254 254 254
255 255 255 255 255 255 255 255 255 255 255 255 255 255 255 255 255 255 255 255 255 255 255 255 255 255 255 255 255 255 255 255 255 255 255 255 255 255 255 255 255 255 255 255 255 255 255 255 255 255 255 255 255 255 255 255 255 255 255 255 255 255 255 255 255 255 255 255 254 253 248 232 208 180 153 137 136 146 159 168 169 164 155 147 144 145 143 138 131 124 117 116 129 143 155 162 163 154 141 125 110 98 91 89 93 106 122 136 144 149 147 141 136 134 133 135 139 141 142 141 136 127 116 105 98 91 88 89 89 88 87 84 83 85 88 90 90 85 75 64 58 57 60 64 64 59 53 49 48 51 56 61 67 73 83 101 131 164 197 226 245 252 253 253 254 254 254 254 254 254 254 254 254 254 255 255 255 255 255 255 255 255 255 255 255 255 255 255 255 255 255 255 254 254 254 254 254 254 254 254
255 255 255 255 255 255 255 255 255 255 255 255 255 255 255 255 255 255 255 255 255 255 255 255 255 255 255 255 255 255 255 255 255 255 255 255 255 255 255 255 255 255 255 255 255 255 255 255 255 255 255 255 255 255 255 255 255 255 255 255 255 255 255 255 255 255 255 255 254 253 249 235 211 184 156 137 135 146 160 172 175 166 154 143 139 140 141 139 133 126 120 119 132 145 153 158 157 147 137 126 115 105 98 95 100 112 126 135 140 143 139 135 131 128 125 125 125 126 128 128 124 117 108 100 94 89 89 90 90 89 89 86 85 88 91 94 96 94 87 80 75 75 79 83 84 82 78 74 74 76 81 87 94 100 109 122 146 173 200 225 244 252 253 253 253 254 254 254 254 254 254 254 254 254 255 255 255 255 255 255 255 255 255 255 255 255 255 255 255 255 255 255 254 254 254 254 254 254 254 254
255 255 255 255 255 255 255 255 255 255 255 255 255 255 255 255 255 255 255 255 255 255 255 255 255 255 255 255 255 255 255 255 255 255 255 255 255 255 255 255 255 255 255 255 255 255 255 255 255 255 255 255 255 255 255 255 255 255 255 255 255 255 255 255 255 255 255 255 254 253 249 236 212 185 156 136 134 147 161 173 177 168 155 145 141 142 145 142 136 129 122 122 135 148 154 158 152 139 130 122 114 108 104 104 111 123 134 139 139 136 129 126 123 120 114 110 107 106 106 108 108 104 99 95 93 90 92 95 96 95 96 95 96 100 105 109 112 111 106 101 98 99 102 106 107 105 103 100 101 104 109 115 122 129 137 149 169 191 213 232 247 252 253 253 253 254 254 254 254 254 254 254 254 254 255 255 255 255 255 255 255 255 255 255 255 255 255 255 255 255 255 255 254 254 254 254 254 254 254 254
255 255 255 255 255 255 255 255 255 255 255 255 255 255 255 255 255 255 255 255 255 255 255 255 255 255 255 255 255 255 255 255 255 255 255 255 255 255 255 255 255 255 255 255 255 255 255 255 255 255 255 255 255 255 255 255 255 255 255 255 255 255 255 255 255 255 255 254 254 253 249 236 212 186 159 137 135 147 159 170 175 168 156 145 141 141 142 138 132 126 120 123 137 151 158 160 153 137 127 119 114 111 111 116 126 139 145 144 140 131 121 117 116 113 107 100 93 90 87 89 91 91 91 94 96 99 102 107 109 109 110 111 112 117 122 127 131 130 126 122 120 122 126 131 133 132 131 130 132 135 140 146 152 158 166 178 193 210 226 240 249 252 253 253 254 254 254 254 254 254 254 254 254 254 255 255 255 255 255 255 255 255 255 255 255 255 255 255 255 255 255 255 254 254 254 254 254 254 254 254
255 255 255 255 255 255 255 255 255 255 255 255 255 255 255 255 255 255 255 255 255 255 255 255 255 255 255 255 255 255 255 255 255 255 255 255 255 255 255 255 255 255 255 255 255 255 255 255 255 255 255 255 255 255 255 255 255 255 255 255 255 255 255 255 255 255 255 254 254 252 249 236 213 187 160 138 133 144 156 167 172 166 153 140 133 132 133 130 125 120 118 123 138 150 156 156 147 131 124 117 113 112 117 125 140 154 158 153 146 137 126 121 118 112 102 92 84 79 75 74 76 80 85 93 101 109 117 124 126 127 129 129 130 135 140 146 150 151 149 146 145 146 150 155 158 159 160 161 163 167 171 174 178 182 188 197 209 222 234 244 250 253 253 254 254 254 254 254 254 254 254 254 254 254 255 255 255 255 255 255 255 255 255 255 255 255 255 255 255 255 255 255 254 254 254 254 254 254 254 254
255 255 255 255 255 255 255 255 255 255 255 255 255 255 255 255 255 255 255 255 255 255 255 255 255 255 255 255 255 255 255 255 255 255 255 255 255 255 255 255 255 255 255 255 255 255 255 255 255 255 255 255 255 255 255 255 255 255 255 255 255 255 255 255 255 255 255 254 254 252 248 234 211 186 160 136 129 139 151 159 164 161 149 136 127 125 126 122 117 115 116 123 137 148 153 151 140 125 120 115 112 112 119 128 145 160 164 159 153 144 138 133 128 119 107 92 83 76 70 65 65 68 78 91 106 119 131 140 144 146 147 148 150 154 159 164 168 169 169 168 168 169 172 175 177 177 178 178 179 182 185 188 192 196 202 211 221 231 241 248 252 254 254 254 254 254 254 254 254 254 254 254 254 255 255 255 255 255 255 255 255 255 255 255 255 255 255 255 255 255 255 255 255 255 254 254 254 254 254 254
255 255 255 255 255 255 255 255 255 255 255 255 255 255 255 255 255 255 255 255 255 255 255 255 255 255 255 255 255 255 255 255 255 255 255 255 255 255 255 255 255 255 255 255 255 255 255 255 255 255 255 255 255 255 255 255 255 255 255 255 255 255 255 255 255 255 255 254 254 252 246 230 208 185 161 139 134 143 151 155 161 160 148 134 125 121 120 116 112 110 114 122 135 144 149 145 131 116 112 109 106 107 116 129 146 160 167 163 159 154 152 148 145 136 122 105 93 83 72 63 61 64 75 93 113 130 145 156 161 164 166 168 170 173 177 180 182 182 180 179 179 180 184 187 190 191 192 193 196 198 201 204 208 212 217 224 232 240 246 251 254 254 254 254 254 254 254 254 254 254 254 254 255 255 255 255 255 255 255 255 255 255 255 255 255 255 255 255 255 255 255 255 255 255 254 254 254 254 254 254
255 255 255 255 255 255 255 255 255 255 255 255 255 255 255 255 255 255 255 255 255 255 255 255 255 255 255 255 255 255 255 255 255 255 255 255 255 255 255 255 255 255 255 255 255 255 255 255 255 255 255 255 255 255 255 255 255 255 255 255 255 255 255 255 255 255 255 254 254 252 245 229 210 191 171 152 145 151 154 155 157 155 141 126 117 112 111 109 106 104 111 120 132 141 146 142 128 115 112 109 105 107 116 130 148 163 172 170 169 169 171 168 169 159 143 124 111 97 82 70 65 68 80 99 121 142 158 168 174 177 179 179 181 183 186 188 190 191 191 191 192 195 199 203 206 208 209 211 213 216 218 221 224 227 232 238 243 248 251 254 254 254 254 254 255 255 255 254 254 254 254 254 255 255 255 255 255 255 255 255 255 255 255 255 255 255 255 255 255 255 255 255 255 255 254 254 254 254 254 254
255 255 255 255 255 255 255 255 255 255 255 255 255 255 255 255 255 255 255 255 255 255 255 255 255 255 255 255 255 255 255 255 255 255 255 255 255 255 255 255 255 255 255 255 255 255 255 255 255 255 255 255 255 255 255 255 255 255 255 255 255 255 255 255 255 255 255 254 254 252 245 231 216 200 181 165 158 160 160 156 154 150 135 121 114 109 110 108 105 102 110 120 130 138 142 137 122 109 107 106 102 105 115 130 148 165 177 176 179 182 188 188 192 181 163 140 122 106 91 80 77 81 93 111 132 151 165 175 180 183 186 187 188 190 193 196 200 203 205 206 209 212 216 219 222 224 226 227 230 232 234 236 239 242 245 248 251 253 254 254 254 254 255 255 255 255 255 255 255 255 255 255 255 255 255 255 255 255 255 255 255 255 255 255 255 255 255 255 255 255 255 255 255 255 255 255 255 255 255 255
255 255 255 255 255 255 255 255 255 255 255 255 255 255 255 255 255 255 255 255 255 255 255 255 255 255 255 255 255 255 255 255 255 255 255 255 255 255 255 255 255 255 255 255 255 255 255 255 255 255 255 255 255 255 255 255 255 255 255 255 255 255 255 255 255 255 255 254 254 252 245 233 222 208 191 178 171 169 165 158 152 144 128 117 112 108 109 109 104 99 107 118 127 135 139 132 116 103 99 100 99 104 114 131 149 166 177 175 179 183 191 197 208 201 180 153 133 115 100 93 95 100 111 126 144 160 172 180 185 189 193 196 198 202 205 209 213 217 219 221 224 227 231 234 236 238 240 242 243 245 247 248 250 251 253 254 254 254 254 254 254 254 255 255 255 255 255 255 255 255 255 255 255 255 255 255 255 255 255 255 255 255 255 255 255 255 255 255 255 255 255 255 255 255 255 255 255 255 255 255
255 255 255 255 255 255 255 255 255 255 255 255 255 255 255 255 255 255 255 255 255 255 255 255 255 255 255 255 255 255 255 255 255 255 255 255 255 255 255 255 255 255 255 255 255 255 255 255 255 255 255 255 255 255 255 255 255 255 255 255 255 255 255 255 255 255 255 254 254 252 246 237 230 218 202 191 183 176 168 161 152 143 130 120 115 111 110 108 102 96 104 114 124 133 139 131 115 102 98 99 102 107 118 132 150 165 172 167 168 172 181 192 206 204 183 157 136 124 113 112 118 125 133 145 159 172 183 191 196 201 206 209 212 215 219 222 226 230 232 235 238 241 244 246 248 250 251 252 253 253 254 254 254 254 254 254 254 254 254 254 254 254 255 255 255 255 255 255 255 255 255 255 255 255 255 255 255 255 255 255 255 255 255 255 255 255 255 255 255 255 255 255 255 255 255 255 255 255 255 255
255 255 255 255 255 255 255 255 255 255 255 255 255 255 255 255 255 255 255 255 255 255 255 255 255 255 255 255 255 255 255 255 255 255 255 255 255 255 255 255 255 255 255 255 255 255 255 255 255 255 255 255 255 255 255 255 255 255 255 255 255 255 255 255 255 255 254 254 254 252 247 243 238 226 207 197 185 173 163 158 145 133 121 113 108 104 104 102 97 91 99 109 119 130 138 131 119 107 101 101 104 108 117 130 146 159 163 153 151 152 159 170 185 189 174 154 140 135 128 131 138 144 151 160 172 184 195 204 210 215 219 223 225 228 232 234 238 241 244 247 249 251 252 253 254 254 254 254 254 254 254 255 255 255 255 255 255 255 255 255 255 255 255 255 255 255 255 255 255 255 255 255 255 255 255 255 255 255 255 255 255 255 255 255 255 255 255 255 255 255 255 255 255 255 255 255 255 255 255 255
255 255 255 255 255 255 255 255 255 255 255 255 255 255 255 255 255 255 255 255 255 255 255 255 255 255 255 255 255 255 255 255 255 255 255 255 255 255 255 255 255 255 255 255 255 255 255 255 255 255 255 255 255 255 255 255 255 255 255 255 255 255 255 255 255 254 254 254 254 252 249 245 238 222 201 190 178 167 160 156 144 130 116 108 102 97 95 96 91 86 94 103 113 123 129 121 109 97 92 96 101 108 120 132 144 156 156 144 140 140 146 158 173 182 173 159 149 149 144 148 156 161 165 172 183 194 206 215 223 228 232 235 237 240 243 245 247 249 251 253 254 254 254 254 254 255 255 255 255 255 255 255 255 255 255 255 255 255 255 255 255 255 255 255 255 255 255 255 255 255 255 255 255 255 255 255 255 255 255 255 255 255 255 255 255 255 255 255 255 255 255 255 255 255 255 255 255 255 255 255
255 255 255 255 255 255 255 255 255 255 255 255 255 255 255 255 255 255 255 255 255 255 255 255 255 255 255 255 255 255 255 255 255 255 255 255 255 255 255 255 255 255 255 255 255 255 255 255 255 255 255 255 255 255 255 255 255 255 255 255 255 255 255 255 255 254 254 254 254 253 250 244 234 215 193 181 171 163 161 159 147 131 115 105 98 91 89 90 85 80 87 97 105 115 120 108 99 90 88 94 106 114 126 136 145 153 154 144 140 141 147 158 169 179 175 166 161 164 161 165 169 171 174 181 191 203 216 227 235 240 244 247 249 250 252 253 253 254 254 254 254 254 254 255 255 255 255 255 255 255 255 255 255 255 255 255 255 255 255 255 255 255 255 255 255 255 255 255 255 255 255 255 255 255 255 255 255 255 255 255 255 255 255 255 255 255 255 255 255 255 255 255 255 255 255 255 255 255 255 255
255 255 255 255 255 255 255 255 255 255 255 255 255 255 255 255 255 255 255 255 255 255 255 255 255 255 255 255 255 255 255 255 255 255 255 255 255 255 255 255 255 255 255 255 255 255 255 255 255 255 255 255 255 255 255 255 255 255 255 255 255 255 255 255 255 254 254 254 254 253 250 243 231 212 191 179 170 165 164 163 151 136 119 109 100 93 88 88 81 74 81 89 98 109 115 103 97 92 91 97 112 120 130 138 143 149 151 145 141 144 150 159 168 178 179 175 174 179 177 178 179 179 182 188 199 212 225 237 246 251 252 253 254 254 254 254 254 254 254 254 254 254 254 255 255 255 255 255 255 255 255 255 255 255 255 255 255 255 255 255 255 255 255 255 255 255 255 255 255 255 255 255 255 255 255 255 255 255 255 255 255 255 255 255 255 255 255 255 255 255 255 255 255 255 255 255 255 255 255 255
255 255 255 255 255 255 255 255 255 255 255 255 255 255 255 255 255 255 255 255 255 255 255 255 255 255 255 255 255 255 255 255 255 255 255 255 255 255 255 255 255 255 255 255 255 255 255 255 255 255 255 255 255 255 255 255 255 255 255 255 255 255 255 255 255 254 254 254 254 253 250 242 229 209 191 181 172 169 169 165 152 139 119 107 97 90 84 83 75 68 75 83 93 105 111 99 96 92 92 96 112 118 128 137 142 147 153 151 150 157 164 171 180 190 193 192 191 192 189 187 187 188 190 196 206 219 231 241 250 253 254 254 254 254 255 255 255 255 254 254 254 254 254 255 255 255 255 255 255 255 255 255 255 255 255 255 255 255 255 255 255 255 255 255 255 255 255 255 255 255 255 255 255 255 255 255 255 255 255 255 255 255 255 255 255 255 255 255 255 255 255 255 255 255 255 255 255 255 255 255
255 255 255 255 255 255 255 255 255 255 255 255 255 255 255 255 255 255 255 255 255 255 255 255 255 255 255 255 255 255 255 255 255 255 255 255 255 255 255 255 255 255 255 255 255 255 255 255 255 255 255 255 255 255 255 255 255 255 255 255 255 255 255 255 255 254 254 254 254 254 250 243 229 210 196 186 177 177 178 172 159 148 125 111 98 91 82 80 71 64 69 78 89 103 109 96 92 91 94 98 118 123 132 140 146 151 162 166 170 182 191 198 207 213 214 210 206 202 198 196 197 198 200 205 213 223 233 243 250 254 254 254 255 255 255 255 255 255 254 254 254 254 254 255 255 255 255 255 255 255 255 255 255 255 255 255 255 255 255 255 255 255 255 255 255 255 255 255 255 255 255 255 255 255 255 255 255 255 255 255 255 255 255 255 255 255 255 255 255 255 255 255 255 255 255 255 255 255 255 255
255 255 255 255 255 255 255 255 255 255 255 255 255 255 255 255 255 255 255 255 255 255 255 255 255 255 255 255 255 255 255 255 255 255 255 255 255 255 255 255 255 255 255 255 255 255 255 255 255 255 255 255 255 255 255 255 255 255 255 255 255 255 255 255 255 255 255 255 254 254 252 245 234 219 208 198 188 187 184 177 165 155 133 117 103 97 87 81 70 63 63 72 85 102 109 98 97 99 103 107 128 131 136 143 150 155 169 177 185 199 210 216 222 226 224 219 214 210 207 206 207 209 211 215 221 229 237 245 251 254 254 255 255 255 255 255 255 255 254 254 254 254 254 255 255 255 255 255 255 255 255 255 255 255 255 255 255 255 255 255 255 255 255 255 255 255 255 255 255 255 255 255 255 255 255 255 255 255 255 255 255 255 255 255 255 255 255 255 255 255 255 255 255 255 255 255 255 255 255 255
255 255 255 255 255 255 255 255 255 255 255 255 255 255 255 255 255 255 255 255 255 255 255 255 255 255 255 255 255 255 255 255 255 255 255 255 255 255 255 255 255 255 255 255 255 255 255 255 255 255 255 255 255 255 255 255 255 255 255 255 255 255 255 255 255 255 255 255 254 254 252 248 241 231 221 212 199 195 188 180 167 158 136 118 102 93 81 72 63 58 59 70 86 104 112 105 106 109 112 117 136 137 140 145 153 158 174 183 193 207 218 224 230 233 230 226 221 218 216 217 218 220 222 225 229 236 242 247 252 254 255 255 255 255 255 255 255 255 255 255 255 255 255 255 255 255 255 255 255 255 255 255 255 255 255 255 255 255 255 255 255 255 255 255 255 255 255 255 255 255 255 255 255 255 255 255 255 255 255 255 255 255 255 255 255 255 255 255 255 255 255 255 255 255 255 255 255 255 255 255
255 255 255 255 255 255 255 255 255 255 255 255 255 255 255 255 255 255 255 255 255 255 255 255 255 255 255 255 255 255 255 255 255 255 255 255 255 255 255 255 255 255 255 255 255 255 255 255 255 255 255 255 255 255 255 255 255 255 255 255 255 255 255 255 255 255 255 255 254 254 253 250 246 239 231 224 211 204 195 185 171 160 141 123 108 102 94 86 81 79 80 89 101 113 114 108 108 109 111 117 133 132 136 145 154 162 181 193 204 218 227 232 237 238 235 232 228 227 226 228 229 231 233 235 238 242 246 250 253 254 255 255 255 255 255 255 255 255 255 255 255 255 255 255 255 255 255 255 255 255 255 255 255 255 255 255 255 255 255 255 255 255 255 255 255 255 255 255 255 255 255 255 255 255 255 255 255 255 255 255 255 255 255 255 255 255 255 255 255 255 255 255 255 255 255 255 255 255 255 255
255 255 255 255 255 255 255 255 255 255 255 255 255 255 255 255 255 255 255 255 255 255 255 255 255 255 255 255 255 255 255 255 255 255 255 255 255 255 255 255 255 255 255 255 255 255 255 255 255 255 255 255 255 255 255 255 255 255 255 255 255 255 255 255 255 255 255 255 255 254 254 253 250 246 240 234 224 218 210 202 190 180 165 149 136 131 125 118 115 115 114 121 130 136 135 129 127 125 124 130 143 142 149 159 169 178 196 207 218 229 236 240 243 242 240 238 235 235 236 237 239 241 241 243 244 247 249 252 254 254 255 255 255 255 255 255 255 255 255 255 255 255 255 255 255 255 255 255 255 255 255 255 255 255 255 255 255 255 255 255 255 255 255 255 255 255 255 255 255 255 255 255 255 255 255 255 255 255 255 255 255 255 255 255 255 255 255 255 255 255 255 255 255 255 255 255 255 255 255 255
255 255 255 255 255 255 255 255 255 255 255 255 255 255 255 255 255 255 255 255 255 255 255 255 255 255 255 255 255 255 255 255 255 255 255 255 255 255 255 255 255 255 255 255 255 255 255 255 255 255 255 255 255 255 255 255 255 255 255 255 255 255 255 255 255 255 255 255 255 255 254 254 253 250 247 243 235 230 225 219 209 201 190 177 167 163 158 153 152 152 152 157 163 166 164 159 156 154 152 158 166 167 173 182 189 197 212 221 230 238 244 246 247 246 245 243 242 243 244 245 246 247 247 248 249 250 252 253 254 254 255 255 255 255 255 255 255 255 255 255 255 255 255 255 255 255 255 255 255 255 255 255 255 255 255 255 255 255 255 255 255 255 255 255 255 255 255 255 255 255 255 255 255 255 255 255 255 255 255 255 255 255 255 255 255 255 255 255 255 255 255 255 255 255 255 255 255 255 255 255
255 255 255 255 255 255 255 255 255 255 255 255 255 255 255 255 255 255 255 255 255 255 255 255 255 255 255 255 255 255 255 255 255 255 255 255 255 255 255 255 255 255 255 255 255 255 255 255 255 255 255 255 255 255 255 255 255 255 255 255 255 255 255 255 255 255 255 255 255 255 254 254 254 253 251 248 243 239 236 232 225 219 212 203 197 194 191 189 189 190 192 195 198 197 193 188 185 182 179 183 188 187 192 201 207 214 226 233 240 245 249 250 251 250 249 248 247 248 249 250 250 251 251 251 251 252 253 254 254 254 255 255 255 255 255 255 255 255 255 255 255 255 255 255 255 255 255 255 255 255 255 255 255 255 255 255 255 255 255 255 255 255 255 255 255 255 255 255 255 255 255 255 255 255 255 255 255 255 255 255 255 255 255 255 255 255 255 255 255 255 255 255 255 255 255 255 255 255 255 255
255 255 255 255 255 255 255 255 255 255 255 255 255 255 255 255 255 255 255 255 255 255 255 255 255 255 255 255 255 255 255 255 255 255 255 255 255 255 255 255 255 255 255 255 255 255 255 255 255 255 255 255 255 255 255 255 255 255 255 255 255 255 255 255 255 255 255 255 255 255 255 255 254 254 254 253 251 249 247 244 240 236 233 230 229 230 231 232 232 232 232 232 230 226 221 216 212 208 204 205 207 206 211 219 224 230 239 244 248 251 252 253 253 252 252 251 251 252 252 252 253 253 253 253 253 253 253 254 254 254 255 255 255 255 255 255 255 255 255 255 255 255 255 255 255 255 255 255 255 255 255 255 255 255 255 255 255 255 255 255 255 255 255 255 255 255 255 255 255 255 255 255 255 255 255 255 255 255 255 255 255 255 255 255 255 255 255 255 255 255 255 255 255 255 255 255 255 255 255 255
255 255 255 255 255 255 255 255 255 255 255 255 255 255 255 255 255 255 255 255 255 255 255 255 255 255 255 255 255 255 255 255 255 255 255 255 255 255 255 255 255 255 255 255 255 255 255 255 255 255 255 255 255 255 255 255 255 255 255 255 255 255 255 255 255 255 255 255 255 255 255 255 255 255 255 255 254 254 254 254 254 254 253 252 251 250 250 250 249 248 248 248 248 248 246 244 242 239 236 235 236 236 239 243 246 248 251 253 254 254 254 254 254 254 254 254 254 254 254 254 254 254 254 254 253 254 254 254 254 254 255 255 255 255 255 255 255 255 255 255 255 255 255 255 255 255 255 255 255 255 255 255 255 255 255 255 255 255 255 255 255 255 255 255 255 255 255 255 255 255 255 255 255 255 255 255 255 255 255 255 255 255 255 255 255 255 255 255 255 255 255 255 255 255 255 255 255 255 255 255
255 255 255 255 255 255 255 255 255 255 255 255 255 255 255 255 255 255 255 255 255 255 255 255 255 255 255 255 255 255 255 255 255 255 255 255 255 255 255 255 255 255 255 255 255 255 255 255 255 255 255 255 255 255 255 255 255 255 255 255 255 255 255 255 255 255 255 255 255 255 255 255 255 255 255 255 255 255 255 255 254 254 254 253 253 252 252 252 252 251 251 252 252 253 253 253 253 252 252 252 253 253 253 254 254 254 254 254 254 254 254 254 255 254 254 254 254 254 254 254 254 254 254 254 254 254 254 254 254 254 255 255 255 255 255 255 255 255 255 255 255 255 255 255 255 255 255 255 255 255 255 255 255 255 255 255 255 255 255 255 255 255 255 255 255 255 255 255 255 255 255 255 255 255 255 255 255 255 255 255 255 255 255 255 255 255 255 255 255 255 255 255 255 255 255 255 255 255 255 255
255 255 255 255 255 255 255 255 255 255 255 255 255 255 255 255 255 255 255 255 255 255 255 255 255 255 255 255 255 255 255 255 255 255 255 255 255 255 255 255 255 255 255 255 255 255 255 255 255 255 255 255 255 255 255 255 255 255 255 255 255 255 255 255 255 255 255 255 255 255 255 255 255 255 255 255 255 255 255 255 254 254 254 254 253 253 253 253 253 253 253 253 253 254 254 254 253 253 253 253 254 254 254 254 254 254 254 254 254 254 254 254 255 255 255 255 255 254 254 254 254 254 254 254 254 254 254 254 254 255 255 255 255 255 255 255 255 255 255 255 255 255 255 255 255 255 255 255 255 255 255 255 255 255 255 255 255 255 255 255 255 255 255 255 255 255 255 255 255 255 255 255 255 255 255 255 255 255 255 255 255 255 255 255 255 255 255 255 255 255 255 255 255 255 255 255 255 255 255 255
255 255 255 255 255 255 255 255 255 255 255 255 255 255 255 255 255 255 255 255 255 255 255 255 255 255 255 255 255 255 255 255 255 255 255 255 255 255 255 255 255 255 255 255 255 255 255 255 255 255 255 255 255 255 255 255 255 255 255 255 255 255 255 255 255 255 255 255 255 255 255 255 255 255 255 255 255 255 255 255 255 254 254 254 254 254 254 254 254 254 254 254 254 254 254 254 254 254 254 254 254 254 254 254 254 254 254 255 255 255 255 255 255 255 255 255 255 255 255 255 255 255 254 254 254 254 254 254 255 255 255 255 255 255 255 255 255 255 255 255 255 255 255 255 255 255 255 255 255 255 255 255 255 255 255 255 255 255 255 255 255 255 255 255 255 255 255 255 255 255 255 255 255 255 255 255 255 255 255 255 255 255 255 255 255 255 255 255 255 255 255 255 255 255 255 255 255 255 255 255
255 255 255 255 255 255 255 255 255 255 255 255 255 255 255 255 255 255 255 255 255 255 255 255 255 255 255 255 255 255 255 255 255 255 255 255 255 255 255 255 255 255 255 255 255 255 255 255 255 255 255 255 255 255 255 255 255 255 255 255 255 255 255 255 255 255 255 255 255 255 255 255 255 255 255 255 255 255 255 255 255 255 254 254 254 254 254 254 254 254 254 254 254 254 254 254 254 254 254 254 254 254 254 254 254 254 254 255 255 255 255 255 255 255 255 255 255 255 255 255 255 255 255 254 254 254 254 254 255 255 255 255 255 255 255 255 255 255 255 255 255 255 255 255 255 255 255 255 255 255 255 255 255 255 255 255 255 255 255 255 255 255 255 255 255 255 255 255 255 255 255 255 255 255 255 255 255 255 255 255 255 255 255 255 255 255 255 255 255 255 255 255 255 255 255 255 255 255 255 255
255 255 255 255 255 255 255 255 255 255 255 255 255 255 255 255 255 255 255 255 255 255 255 255 255 255 255 255 255 255 255 255 255 255 255 255 255 255 255 255 255 255 255 255 255 255 255 255 255 255 255 255 255 255 255 255 255 255 255 255 255 255 255 255 255 255 255 255 255 255 255 255 255 255 255 255 255 255 255 255 255 255 255 255 255 255 255 255 255 254 254 254 254 254 255 254 254 254 254 254 254 254 254 254 255 255 255 255 255 255 255 255 255 255 255 255 255 255 255 255 255 255 255 254 254 254 254 254 255 255 255 255 255 255 255 255 255 255 255 255 255 255 255 255 255 255 255 255 255 255 255 255 255 255 255 255 255 255 255 255 255 255 255 255 255 255 255 255 255 255 255 255 255 255 255 255 255 255 255 255 255 255 255 255 255 255 255 255 255 255 255 255 255 255 255 255 255 255 255 255
255 255 255 255 255 255 255 255 255 255 255 255 255 255 255 255 255 255 255 255 255 255 255 255 255 255 255 255 255 255 255 255 255 255 255 255 255 255 255 255 255 255 255 255 255 255 255 255 255 255 255 255 255 255 255 255 255 255 255 255 255 255 255 255 255 255 255 255 255 255 255 255 255 255 255 255 255 255 255 255 255 255 255 255 255 255 255 255 255 255 255 255 255 255 255 254 254 254 254 254 254 254 254 254 255 255 255 255 255 255 255 255 255 255 255 255 255 255 255 255 255 255 255 255 255 255 255 255 255 255 255 255 255 255 255 255 255 255 255 255 255 255 255 255 255 255 255 255 255 255 255 255 255 255 255 255 255 255 255 255 255 255 255 255 255 255 255 255 255 255 255 255 255 255 255 255 255 255 255 255 255 255 255 255 255 255 255 255 255 255 255 255 255 255 255 255 255 255 255 255
255 255 255 255 255 255 255 255 255 255 255 255 255 255 255 255 255 255 255 255 255 255 255 255 255 255 255 255 255 255 255 255 255 255 255 255 255 255 255 255 255 255 255 255 255 255 255 255 255 255 255 255 255 255 255 255 255 255 255 255 255 255 255 255 255 255 255 255 255 255 255 255 255 255 255 255 255 255 255 255 255 255 255 255 255 255 255 255 255 255 255 255 255 255 255 255 255 255 255 255 255 255 255 255 255 255 255 255 255 255 255 255 255 255 255 255 255 255 255 255 255 255 255 255 255 255 255 255 255 255 255 255 255 255 255 255 255 255 255 255 255 255 255 255 255 255 255 255 255 255 255 255 255 255 255 255 255 255 255 255 255 255 255 255 255 255 255 255 255 255 255 255 255 255 255 255 255 255 255 255 255 255 255 255 255 255 255 255 255 255 255 255 255 255 255 255 255 255 255 255
255 255 255 255 255 255 255 255 255 255 255 255 255 255 255 255 255 255 255 255 255 255 255 255 255 255 255 255 255 255 255 255 255 255 255 255 255 255 255 255 255 255 255 255 255 255 255 255 255 255 255 255 255 255 255 255 255 255 255 255 255 255 255 255 255 255 255 255 255 255 255 255 255 255 255 255 255 255 255 255 255 255 255 255 255 255 255 255 255 255 255 255 255 255 255 255 255 255 255 255 255 255 255 255 255 255 255 255 255 255 255 255 255 255 255 255 255 255 255 255 255 255 255 255 255 255 255 255 255 255 255 255 255 255 255 255 255 255 255 255 255 255 255 255 255 255 255 255 255 255 255 255 255 255 255 255 255 255 255 255 255 255 255 255 255 255 255 255 255 255 255 255 255 255 255 255 255 255 255 255 255 255 255 255 255 255 255 255 255 255 255 255 255 255 255 255 255 255 255 255
255 255 255 255 255 255 255 255 255 255 255 255 255 255 255 255 255 255 255 255 255 255 255 255 255 255 255 255 255 255 255 255 255 255 255 255 255 255 255 255 255 255 255 255 255 255 255 255 255 255 255 255 255 255 255 255 255 255 255 255 255 255 255 255 255 255 255 255 255 255 255 255 255 255 255 255 255 255 255 255 255 255 255 255 255 255 255 255 255 255 255 255 255 255 255 255 255 255 255 255 255 255 255 255 255 255 255 255 255 255 255 255 255 255 255 255 255 255 255 255 255 255 255 255 255 255 255 255 255 255 255 255 255 255 255 255 255 255 255 255 255 255 255 255 255 255 255 255 255 255 255 255 255 255 255 255 255 255 255 255 255 255 255 255 255 255 255 255 255 255 255 255 255 255 255 255 255 255 255 255 255 255 255 255 255 255 255 255 255 255 255 255 255 255 255 255 255 255 255 255
255 255 255 255 255 255 255 255 255 255 255 255 255 255 255 255 255 255 255 255 255 255 255 255 255 255 255 255 255 255 255 255 255 255 255 255 255 255 255 255 255 255 255 255 255 255 255 255 255 255 255 255 255 255 255 255 255 255 255 255 255 255 255 255 255 255 255 255 255 255 255 255 255 255 255 255 255 255 255 255 255 255 255 255 255 255 255 255 255 255 255 255 255 255 255 255 255 255 255 255 255 255 255 255 255 255 255 255 255 255 255 255 255 255 255 255 255 255 255 255 255 255 255 255 255 255 255 255 255 255 255 255 255 255 255 255 255 255 255 255 255 255 255 255 255 255 255 255 255 255 255 255 255 255 255 255 255 255 255 255 255 255 255 255 255 255 255 255 255 255 255 255 255 255 255 255 255 255 255 255 255 255 255 255 255 255 255 255 255 255 255 255 255 255 255 255 255 255 255 255
255 255 255 255 255 255 255 255 255 255 255 255 255 255 255 255 255 255 255 255 255 255 255 255 255 255 255 255 255 255 255 255 255 255 255 255 255 255 255 255 255 255 255 255 255 255 255 255 255 255 255 255 255 255 255 255 255 255 255 255 255 255 255 255 255 255 255 255 255 255 255 255 255 255 255 255 255 255 255 255 255 255 255 255 255 255 255 255 255 255 255 255 255 255 255 255 255 255 255 255 255 255 255 255 255 255 255 255 255 255 255 255 255 255 255 255 255 255 255 255 255 255 255 255 255 255 255 255 255 255 255 255 255 255 255 255 255 255 255 255 255 255 255 255 255 255 255 255 255 255 255 255 255 255 255 255 255 255 255 255 255 255 255 255 255 255 255 255 255 255 255 255 255 255 255 255 255 255 255 255 255 255 255 255 255 255 255 255 255 255 255 255 255 255 255 255 255 255 255 255
255 255 255 255 255 255 255 255 255 255 255 255 255 255 255 255 255 255 255 255 255 255 255 255 255 255 255 255 255 255 255 255 255 255 255 255 255 255 255 255 255 255 255 255 255 255 255 255 255 255 255 255 255 255 255 255 255 255 255 255 255 255 255 255 255 255 255 255 255 255 255 255 255 255 255 255 255 255 255 255 255 255 255 255 255 255 255 255 255 255 255 255 255 255 255 255 255 255 255 255 255 255 255 255 255 255 255 255 255 255 255 255 255 255 255 255 255 255 255 255 255 255 255 255 255 255 255 255 255 255 255 255 255 255 255 255 255 255 255 255 255 255 255 255 255 255 255 255 255 255 255 255 255 255 255 255 255 255 255 255 255 255 255 255 255 255 255 255 255 255 255 255 255 255 255 255 255 255 255 255 255 255 255 255 255 255 255 255 255 255 255 255 255 255 255 255 255 255 255 255
255 255 255 255 255 255 255 255 255 255 255 255 255 255 255 255 255 255 255 255 255 255 255 255 255 255 255 255 255 255 255 255 255 255 255 255 255 255 255 255 255 255 255 255 255 255 255 255 255 255 255 255 255 255 255 255 255 255 255 255 255 255 255 255 255 255 255 255 255 255 255 255 255 255 255 255 255 255 255 255 255 255 255 255 255 255 255 255 255 255 255 255 255 255 255 255 255 255 255 255 255 255 255 255 255 255 255 255 255 255 255 255 255 255 255 255 255 255 255 255 255 255 255 255 255 255 255 255 255 255 255 255 255 255 255 255 255 255 255 255 255 255 255 255 255 255 255 255 255 255 255 255 255 255 255 255 255 255 255 255 255 255 255 255 255 255 255 255 255 255 255 255 255 255 255 255 255 255 255 255 255 255 255 255 255 255 255 255 255 255 255 255 255 255 255 255 255 255 255 255
255 255 255 255 255 255 255 255 255 255 255 255 255 255 255 255 255 255 255 255 255 255 255 255 255 255 255 255 255 255 255 255 255 255 255 255 255 255 255 255 255 255 255 255 255 255 255 255 255 255 255 255 255 255 255 255 255 255 255 255 255 255 255 255 255 255 255 255 255 255 255 255 255 255 255 255 255 255 255 255 255 255 255 255 255 255 255 255 255 255 255 255 255 255 255 255 255 255 255 255 255 255 255 255 255 255 255 255 255 255 255 255 255 255 255 255 255 255 255 255 255 255 255 255 255 255 255 255 255 255 255 255 255 255 255 255 255 255 255 255 255 255 255 255 255 255 255 255 255 255 255 255 255 255 255 255 255 255 255 255 255 255 255 255 255 255 255 255 255 255 255 255 255 255 255 255 255 255 255 255 255 255 255 255 255 255 255 255 255 255 255 255 255 255 255 255 255 255 255 255
255 255 255 255 255 255 255 255 255 255 255 255 255 255 255 255 255 255 255 255 255 255 255 255 255 255 255 255 255 255 255 255 255 255 255 255 255 255 255 255 255 255 255 255 255 255 255 255 255 255 255 255 255 255 255 255 255 255 255 255 255 255 255 255 255 255 255 255 255 255 255 255 255 255 255 255 255 255 255 255 255 255 255 255 255 255 255 255 255 255 255 255 255 255 255 255 255 255 255 255 255 255 255 255 255 255 255 255 255 255 255 255 255 255 255 255 255 255 255 255 255 255 255 255 255 255 255 255 255 255 255 255 255 255 255 255 255 255 255 255 255 255 255 255 255 255 255 255 255 255 255 255 255 255 255 255 255 255 255 255 255 255 255 255 255 255 255 255 255 255 255 255 255 255 255 255 255 255 255 255 255 255 255 255 255 255 255 255 255 255 255 255 255 255 255 255 255 255 255 255
255 255 255 255 255 255 255 255 255 255 255 255 255 255 255 255 255 255 255 255 255 255 255 255 255 255 255 255 255 255 255 255 255 255 255 255 255 255 255 255 255 255 255 255 255 255 255 255 255 255 255 255 255 255 255 255 255 255 255 255 255 255 255 255 255 255 255 255 255 255 255 255 255 255 255 255 255 255 255 255 255 255 255 255 255 255 255 255 255 255 255 255 255 255 255 255 255 255 255 255 255 255 255 255 255 255 255 255 255 255 255 255 255 255 255 255 255 255 255 255 255 255 255 255 255 255 255 255 255 255 255 255 255 255 255 255 255 255 255 255 255 255 255 255 255 255 255 255 255 255 255 255 255 255 255 255 255 255 255 255 255 255 255 255 255 255 255 255 255 255 255 255 255 255 255 255 255 255 255 255 255 255 255 255 255 255 255 255 255 255 255 255 255 255 255 255 255 255 255 255
255 255 255 255 255 255 255 255 255 255 255 255 255 255 255 255 255 255 255 255 255 255 255 255 255 255 255 255 255 255 255 255 255 255 255 255 255 255 255 255 255 255 255 255 255 255 255 255 255 255 255 255 255 255 255 255 255 255 255 255 255 255 255 255 255 255 255 255 255 255 255 255 255 255 255 255 255 255 255 255 255 255 255 255 255 255 255 255 255 255 255 255 255 255 255 255 255 255 255 255 255 255 255 255 255 255 255 255 255 255 255 255 255 255 255 255 255 255 255 255 255 255 255 255 255 255 255 255 255 255 255 255 255 255 255 255 255 255 255 255 255 255 255 255 255 255 255 255 255 255 255 255 255 255 255 255 255 255 255 255 255 255 255 255 255 255 255 255 255 255 255 255 255 255 255 255 255 255 255 255 255 255 255 255 255 255 255 255 255 255 255 255 255 255 255 255 255 255 255 255
255 255 255 255 255 255 255 255 255 255 255 255 255 255 255 255 255 255 255 255 255 255 255 255 255 255 255 255 255 255 255 255 255 255 255 255 255 255 255 255 255 255 255 255 255 255 255 255 255 255 255 255 255 255 255 255 255 255 255 255 255 255 255 255 255 255 255 255 255 255 255 255 255 255 255 255 255 255 255 255 255 255 255 255 255 255 255 255 255 255 255 255 255 255 255 255 255 255 255 255 255 255 255 255 255 255 255 255 255 255 255 255 255 255 255 255 255 255 255 255 255 255 255 255 255 255 255 255 255 255 255 255 255 255 255 255 255 255 255 255 255 255 255 255 255 255 255 255 255 255 255 255 255 255 255 255 255 255 255 255 255 255 255 255 255 255 255 255 255 255 255 255 255 255 255 255 255 255 255 255 255 255 255 255 255 255 255 255 255 255 255 255 255 255 255 255 255 255 255 255
